;FLAVOR:Marlin
;TIME:3700
;Filament used: 5.611m
;Layer height: 0.3
;Generated with Cura_SteamEngine 3.6.0
M140 S60
M105
M190 S60
M104 S200
M105
M109 S200
M82 ;absolute extrusion mode
; Ender 3 Custom Start G-code
G28 ; Home all axes
G92 E0 ; Reset Extruder
G1 Z2.0 F3000 ; Move Z Axis up little to prevent scratching of Heat Bed
G1 X0.1 Y20 Z0.3 F5000.0 ; Move to start position
G1 X0.1 Y200.0 Z0.3 F1500.0 E15 ; Draw the first line
G1 X0.4 Y200.0 Z0.3 F5000.0 ; Move to side a little
G1 X0.4 Y20 Z0.3 F1500.0 E30 ; Draw the second line
G92 E0 ; Reset Extruder
G1 Z2.0 F3000 ; Move Z Axis up little to prevent scratching of Heat Bed
; End of custom start GCode
G92 E0
G1 F2400 E-5
;LAYER_COUNT:14
;LAYER:0
M107
M204 S5000
M205 X30 Y30
G0 F3600 X21.034 Y85.282 Z0.2
M204 S500
M205 X20 Y20
;TYPE:SKIRT
G1 F2400 E0
G1 F1800 X21.738 Y85.156 E0.02379
G1 X22.51 Y85.109 E0.04951
G1 X212.491 Y85.11 E6.36831
G1 X213.205 Y85.15 E6.39209
G1 X213.91 Y85.269 E6.41587
G1 X214.598 Y85.467 E6.43968
G1 X215.259 Y85.74 E6.46347
G1 X215.886 Y86.084 E6.48725
G1 X216.47 Y86.497 E6.51105
G1 X217.004 Y86.972 E6.53482
G1 X217.483 Y87.504 E6.55863
G1 X217.898 Y88.086 E6.5824
G1 X218.247 Y88.711 E6.60621
G1 X218.523 Y89.371 E6.63
G1 X218.724 Y90.057 E6.65378
G1 X218.847 Y90.762 E6.67758
G1 X218.891 Y91.505 E6.70234
G1 X218.9 Y102.769 E7.07698
G1 X218.898 Y102.923 E7.0821
G1 X218.824 Y106.082 E7.1872
G1 X218.9 Y122.745 E7.74142
G1 X218.898 Y122.923 E7.74734
G1 X218.824 Y126.085 E7.85254
G1 X218.89 Y143.467 E8.43067
G1 X218.853 Y144.181 E8.45445
G1 X218.736 Y144.887 E8.47825
G1 X218.541 Y145.575 E8.50203
G1 X218.271 Y146.237 E8.52581
G1 X217.928 Y146.865 E8.54961
G1 X217.518 Y147.451 E8.5734
G1 X217.045 Y147.987 E8.59718
G1 X216.514 Y148.467 E8.62098
G1 X215.934 Y148.885 E8.64476
G1 X215.311 Y149.236 E8.66855
G1 X214.652 Y149.515 E8.69235
G1 X213.966 Y149.718 E8.71614
G1 X213.262 Y149.844 E8.73993
G1 X212.489 Y149.891 E8.76569
G1 X129.303 Y149.88 E11.53247
G1 X128.627 Y149.844 E11.55498
G1 X126.48 Y149.616 E11.62679
G1 X121.126 Y149.255 E11.80527
G1 X115.824 Y149.2 E11.98163
G1 X110.512 Y149.444 E12.15849
G1 X105.984 Y149.866 E12.30974
G1 X105.389 Y149.894 E12.32956
G1 X22.508 Y149.878 E15.08619
G1 X21.794 Y149.838 E15.10997
G1 X21.088 Y149.718 E15.13379
G1 X20.401 Y149.521 E15.15756
G1 X19.74 Y149.248 E15.18135
G1 X19.113 Y148.903 E15.20515
G1 X18.529 Y148.49 E15.22894
G1 X17.995 Y148.015 E15.25271
G1 X17.517 Y147.483 E15.2765
G1 X17.101 Y146.901 E15.30029
G1 X16.753 Y146.276 E15.32409
G1 X16.477 Y145.616 E15.34788
G1 X16.276 Y144.93 E15.37166
G1 X16.153 Y144.225 E15.39546
G1 X16.109 Y143.483 E15.42018
G1 X16.1 Y132.212 E15.79506
G1 X16.102 Y132.057 E15.80021
G1 X16.176 Y128.916 E15.90471
G1 X16.1 Y112.236 E16.4595
G1 X16.102 Y112.057 E16.46545
G1 X16.176 Y108.914 E16.57002
G1 X16.11 Y91.533 E17.14811
G1 X16.147 Y90.819 E17.17189
G1 X16.264 Y90.113 E17.1957
G1 X16.459 Y89.425 E17.21948
G1 X16.729 Y88.763 E17.24326
G1 X17.072 Y88.135 E17.26706
G1 X17.482 Y87.549 E17.29085
G1 X17.955 Y87.013 E17.31462
G1 X18.486 Y86.533 E17.33843
G1 X19.066 Y86.115 E17.36221
G1 X19.689 Y85.764 E17.38599
G1 X20.348 Y85.485 E17.40979
G1 X21.034 Y85.282 E17.43359
M204 S5000
M205 X30 Y30
G0 F3600 X21.384 Y85.616
M204 S500
M205 X20 Y20
G1 F1800 X22.071 Y85.525 E17.45664
G1 X22.51 Y85.509 E17.47125
G1 X212.491 Y85.51 E23.79004
G1 X213.182 Y85.55 E23.81306
G1 X213.865 Y85.669 E23.83612
G1 X214.528 Y85.867 E23.85914
G1 X215.165 Y86.139 E23.88217
G1 X215.766 Y86.483 E23.90521
G1 X216.324 Y86.894 E23.92826
G1 X216.83 Y87.366 E23.95127
G1 X217.279 Y87.894 E23.97432
G1 X217.664 Y88.469 E23.99734
G1 X217.979 Y89.086 E24.02038
G1 X218.222 Y89.734 E24.0434
G1 X218.389 Y90.407 E24.06646
G1 X218.477 Y91.094 E24.0895
G1 X218.491 Y91.505 E24.10318
G1 X218.5 Y102.769 E24.47782
G1 X218.498 Y102.914 E24.48264
G1 X218.424 Y106.075 E24.58781
G1 X218.5 Y122.747 E25.14232
G1 X218.498 Y122.914 E25.14788
G1 X218.424 Y126.077 E25.25311
G1 X218.49 Y143.468 E25.83154
G1 X218.453 Y144.16 E25.85459
G1 X218.336 Y144.842 E25.8776
G1 X218.141 Y145.507 E25.90065
G1 X217.871 Y146.145 E25.9237
G1 X217.53 Y146.747 E25.94671
G1 X217.121 Y147.306 E25.96975
G1 X216.65 Y147.814 E25.99279
G1 X216.124 Y148.265 E26.01583
G1 X215.55 Y148.652 E26.03886
G1 X214.935 Y148.97 E26.06188
G1 X214.287 Y149.215 E26.08493
G1 X213.616 Y149.384 E26.10794
G1 X212.929 Y149.475 E26.13099
G1 X212.489 Y149.491 E26.14563
G1 X129.303 Y149.48 E28.91241
G1 X128.669 Y149.446 E28.93353
G1 X126.497 Y149.215 E29.00618
G1 X121.158 Y148.855 E29.18416
G1 X115.828 Y148.8 E29.36144
G1 X110.476 Y149.046 E29.53964
G1 X105.946 Y149.468 E29.69096
G1 X105.389 Y149.494 E29.70951
G1 X22.508 Y149.478 E32.46614
G1 X21.816 Y149.438 E32.48919
G1 X21.134 Y149.318 E32.51222
G1 X20.47 Y149.121 E32.53526
G1 X19.834 Y148.849 E32.55827
G1 X19.233 Y148.505 E32.5813
G1 X18.675 Y148.094 E32.60435
G1 X18.169 Y147.621 E32.62739
G1 X17.721 Y147.093 E32.65042
G1 X17.336 Y146.518 E32.67343
G1 X17.02 Y145.901 E32.69649
G1 X16.777 Y145.253 E32.71951
G1 X16.611 Y144.58 E32.74256
G1 X16.523 Y143.893 E32.7656
G1 X16.509 Y143.483 E32.77924
G1 X16.5 Y132.212 E33.15412
G1 X16.502 Y132.066 E33.15898
G1 X16.576 Y128.924 E33.26351
G1 X16.5 Y112.234 E33.81863
G1 X16.502 Y112.066 E33.82421
G1 X16.576 Y108.921 E33.92885
G1 X16.51 Y91.532 E34.50721
G1 X16.547 Y90.84 E34.53026
G1 X16.664 Y90.158 E34.55327
G1 X16.859 Y89.493 E34.57632
G1 X17.129 Y88.855 E34.59937
G1 X17.47 Y88.253 E34.62238
G1 X17.879 Y87.694 E34.64542
G1 X18.35 Y87.186 E34.66846
G1 X18.876 Y86.735 E34.6915
G1 X19.45 Y86.348 E34.71453
G1 X20.065 Y86.03 E34.73755
G1 X20.713 Y85.785 E34.7606
G1 X21.384 Y85.616 E34.78361
M204 S5000
M205 X30 Y30
G0 F3600 X21.072 Y86.097
M204 S500
M205 X20 Y20
G1 F1800 X21.728 Y85.964 E34.80587
G1 X22.51 Y85.909 E34.83195
G1 X212.491 Y85.91 E41.15074
G1 X213.159 Y85.95 E41.173
G1 X213.817 Y86.069 E41.19524
G1 X214.457 Y86.266 E41.21751
G1 X215.068 Y86.538 E41.23975
G1 X215.642 Y86.881 E41.26199
G1 X216.172 Y87.29 E41.28426
G1 X216.649 Y87.759 E41.30651
G1 X217.067 Y88.281 E41.32875
G1 X217.419 Y88.85 E41.35101
G1 X217.701 Y89.457 E41.37327
G1 X217.909 Y90.093 E41.39552
G1 X218.039 Y90.749 E41.41777
G1 X218.091 Y91.506 E41.443
G1 X218.1 Y102.77 E41.81765
G1 X218.098 Y102.905 E41.82214
G1 X218.024 Y106.068 E41.92737
G1 X218.1 Y122.749 E42.48219
G1 X218.098 Y122.905 E42.48737
G1 X218.024 Y126.07 E42.59267
G1 X218.09 Y143.47 E43.1714
G1 X218.053 Y144.138 E43.19365
G1 X217.936 Y144.797 E43.21592
G1 X217.741 Y145.437 E43.23817
G1 X217.472 Y146.049 E43.2604
G1 X217.131 Y146.625 E43.28267
G1 X216.724 Y147.156 E43.30492
G1 X216.257 Y147.635 E43.32717
G1 X215.736 Y148.054 E43.34941
G1 X215.168 Y148.409 E43.37168
G1 X214.563 Y148.693 E43.39391
G1 X213.928 Y148.903 E43.41616
G1 X213.272 Y149.036 E43.43842
G1 X212.489 Y149.091 E43.46453
G1 X129.303 Y149.08 E46.2313
G1 X128.712 Y149.049 E46.25099
G1 X126.516 Y148.815 E46.32444
G1 X121.171 Y148.455 E46.50262
G1 X115.813 Y148.4 E46.68084
G1 X110.464 Y148.646 E46.85893
G1 X105.909 Y149.07 E47.01109
G1 X105.389 Y149.094 E47.0284
G1 X22.508 Y149.078 E49.78504
G1 X21.84 Y149.038 E49.80729
G1 X21.182 Y148.918 E49.82954
G1 X20.542 Y148.721 E49.85181
G1 X19.931 Y148.449 E49.87406
G1 X19.357 Y148.107 E49.89628
G1 X18.827 Y147.698 E49.91855
G1 X18.35 Y147.228 E49.94082
G1 X17.933 Y146.706 E49.96304
G1 X17.58 Y146.137 E49.98531
G1 X17.299 Y145.53 E50.00756
G1 X17.091 Y144.894 E50.02981
G1 X16.961 Y144.238 E50.05206
G1 X16.909 Y143.482 E50.07726
G1 X16.9 Y132.211 E50.45214
G1 X16.902 Y132.076 E50.45663
G1 X16.976 Y128.932 E50.56123
G1 X16.9 Y112.232 E51.11668
G1 X16.902 Y112.076 E51.12186
G1 X16.976 Y108.93 E51.22653
G1 X16.91 Y91.53 E51.80526
G1 X16.947 Y90.862 E51.82751
G1 X17.064 Y90.203 E51.84977
G1 X17.259 Y89.563 E51.87203
G1 X17.528 Y88.951 E51.89426
G1 X17.869 Y88.375 E51.91652
G1 X18.276 Y87.844 E51.93878
G1 X18.743 Y87.365 E51.96103
G1 X19.264 Y86.946 E51.98326
G1 X19.832 Y86.591 E52.00554
G1 X20.437 Y86.307 E52.02777
G1 X21.072 Y86.097 E52.05002
M204 S5000
M205 X30 Y30
G0 F3600 X21.426 Y86.423
M204 S500
M205 X20 Y20
G1 F1800 X22.064 Y86.328 E52.07147
G1 X22.51 Y86.309 E52.08632
G1 X212.491 Y86.31 E58.40511
G1 X213.134 Y86.35 E58.42654
G1 X213.768 Y86.469 E58.44799
G1 X214.382 Y86.666 E58.46944
G1 X214.967 Y86.937 E58.49088
G1 X215.514 Y87.279 E58.51234
G1 X216.014 Y87.685 E58.53376
G1 X216.46 Y88.15 E58.55519
G1 X216.845 Y88.667 E58.57663
G1 X217.164 Y89.228 E58.5981
G1 X217.41 Y89.824 E58.61954
G1 X217.581 Y90.445 E58.64097
G1 X217.673 Y91.083 E58.66241
G1 X217.691 Y91.506 E58.67649
G1 X217.7 Y102.77 E59.05113
G1 X217.699 Y102.895 E59.05529
G1 X217.624 Y106.095 E59.16175
G1 X217.7 Y122.75 E59.7157
G1 X217.699 Y122.895 E59.72052
G1 X217.624 Y126.098 E59.82709
G1 X217.69 Y143.471 E60.40492
G1 X217.652 Y144.115 E60.42638
G1 X217.536 Y144.749 E60.44781
G1 X217.341 Y145.364 E60.46927
G1 X217.072 Y145.949 E60.49069
G1 X216.733 Y146.498 E60.51215
G1 X216.328 Y146.999 E60.53357
G1 X215.865 Y147.447 E60.555
G1 X215.349 Y147.834 E60.57646
G1 X214.79 Y148.155 E60.59789
G1 X214.195 Y148.404 E60.61935
G1 X213.574 Y148.577 E60.64079
G1 X212.936 Y148.672 E60.66224
G1 X212.489 Y148.691 E60.67712
G1 X129.303 Y148.68 E63.4439
G1 X128.754 Y148.651 E63.46219
G1 X126.559 Y148.417 E63.53561
G1 X121.185 Y148.056 E63.71475
G1 X115.817 Y148 E63.8933
G1 X110.43 Y148.247 E64.07266
G1 X105.872 Y148.672 E64.22492
G1 X105.389 Y148.694 E64.241
G1 X22.508 Y148.678 E66.99763
G1 X21.865 Y148.638 E67.01906
G1 X21.231 Y148.519 E67.04051
G1 X20.617 Y148.322 E67.06196
G1 X20.032 Y148.05 E67.08342
G1 X19.486 Y147.709 E67.10483
G1 X18.985 Y147.302 E67.1263
G1 X18.539 Y146.837 E67.14773
G1 X18.154 Y146.32 E67.16917
G1 X17.836 Y145.759 E67.19062
G1 X17.59 Y145.163 E67.21206
G1 X17.419 Y144.542 E67.23348
G1 X17.326 Y143.904 E67.25493
G1 X17.309 Y143.482 E67.26898
G1 X17.3 Y132.211 E67.64385
G1 X17.301 Y132.085 E67.64804
G1 X17.376 Y128.903 E67.75391
G1 X17.3 Y112.231 E68.30842
G1 X17.301 Y112.085 E68.31328
G1 X17.376 Y108.9 E68.41924
G1 X17.31 Y91.529 E68.99701
G1 X17.348 Y90.885 E69.01847
G1 X17.464 Y90.251 E69.0399
G1 X17.659 Y89.636 E69.06136
G1 X17.928 Y89.051 E69.08278
G1 X18.267 Y88.502 E69.10424
G1 X18.672 Y88.001 E69.12566
G1 X19.135 Y87.553 E69.14709
G1 X19.651 Y87.166 E69.16855
G1 X20.21 Y86.845 E69.18999
G1 X20.805 Y86.596 E69.21144
G1 X21.426 Y86.423 E69.23288
M204 S5000
M205 X30 Y30
G1 F2400 E64.23288
;MESH:dupont-organizer_bridge20190316-61-16jcwwf.stl(2)
G0 F3600 X30.835 Y92.114
G0 X32.114 Y92.114
G0 X128.17 Y96.83
G0 X128.1 Y96.9
M204 S500
M205 X20 Y20
;TYPE:WALL-INNER
G1 F2400 E69.23288
G1 F1800 X106.9 Y96.9 E69.93799
G1 X106.9 Y101.489 E70.09062
G1 X106.892 Y101.639 E70.09562
G1 X106.868 Y101.792 E70.10077
G1 X106.83 Y101.934 E70.10566
G1 X106.776 Y102.073 E70.11062
G1 X106.716 Y102.191 E70.11502
G1 X106.624 Y102.334 E70.12068
G1 X106.542 Y102.434 E70.12498
G1 X106.434 Y102.542 E70.13006
G1 X106.334 Y102.624 E70.13436
G1 X106.194 Y102.714 E70.1399
G1 X106.069 Y102.779 E70.14458
G1 X105.927 Y102.833 E70.14964
G1 X105.802 Y102.866 E70.15394
G1 X105.639 Y102.892 E70.15943
G1 X105.489 Y102.9 E70.16442
G1 X23.1 Y102.9 E72.90469
G1 X23.1 Y92.1 E73.2639
G1 X26.9 Y92.1 E73.39029
G1 X26.9 Y99.1 E73.62311
G1 X32.1 Y99.1 E73.79606
G1 X32.1 Y92.1 E74.02888
G1 X202.9 Y92.1 E79.70971
G1 X202.9 Y99.1 E79.94254
G1 X208.1 Y99.1 E80.11549
G1 X208.1 Y92.1 E80.34831
G1 X211.9 Y92.1 E80.4747
G1 X211.9 Y102.9 E80.83391
G1 X129.511 Y102.9 E83.57418
G1 X129.361 Y102.892 E83.57917
G1 X129.198 Y102.866 E83.58466
G1 X129.073 Y102.833 E83.58896
G1 X128.931 Y102.779 E83.59402
G1 X128.806 Y102.714 E83.5987
G1 X128.666 Y102.624 E83.60424
G1 X128.566 Y102.542 E83.60854
G1 X128.458 Y102.434 E83.61362
G1 X128.376 Y102.334 E83.61792
G1 X128.284 Y102.191 E83.62358
G1 X128.224 Y102.073 E83.62798
G1 X128.17 Y101.934 E83.63294
G1 X128.132 Y101.792 E83.63783
G1 X128.108 Y101.639 E83.64298
G1 X128.1 Y101.489 E83.64797
G1 X128.1 Y96.9 E83.80061
M204 S5000
M205 X30 Y30
G0 F3600 X127.7 Y97.3
M204 S500
M205 X20 Y20
;TYPE:WALL-OUTER
G1 F1800 X107.3 Y97.3 E84.47911
G1 X107.3 Y101.489 E84.61844
G1 X107.29 Y101.687 E84.62503
G1 X107.259 Y101.879 E84.6315
G1 X107.213 Y102.052 E84.63745
G1 X107.142 Y102.236 E84.64401
G1 X107.06 Y102.397 E84.65002
G1 X106.953 Y102.562 E84.65656
G1 X106.835 Y102.707 E84.66278
G1 X106.707 Y102.835 E84.6688
G1 X106.562 Y102.953 E84.67502
G1 X106.397 Y103.06 E84.68156
G1 X106.234 Y103.144 E84.68766
G1 X106.055 Y103.212 E84.69403
G1 X105.879 Y103.259 E84.70009
G1 X105.687 Y103.29 E84.70656
G1 X105.489 Y103.3 E84.71315
G1 X22.7 Y103.3 E87.46672
G1 X22.7 Y91.7 E87.85254
G1 X27.3 Y91.7 E88.00554
G1 X27.3 Y98.7 E88.23836
G1 X31.7 Y98.7 E88.3847
G1 X31.7 Y91.7 E88.61753
G1 X203.3 Y91.7 E94.32496
G1 X203.3 Y98.7 E94.55779
G1 X207.7 Y98.7 E94.70413
G1 X207.7 Y91.7 E94.93695
G1 X212.3 Y91.7 E95.08995
G1 X212.3 Y103.3 E95.47577
G1 X129.511 Y103.3 E98.22934
G1 X129.313 Y103.29 E98.23593
G1 X129.121 Y103.259 E98.2424
G1 X128.945 Y103.212 E98.24846
G1 X128.766 Y103.144 E98.25483
G1 X128.603 Y103.06 E98.26093
G1 X128.438 Y102.953 E98.26747
G1 X128.293 Y102.835 E98.27369
G1 X128.165 Y102.707 E98.27971
G1 X128.047 Y102.562 E98.28592
G1 X127.94 Y102.397 E98.29247
G1 X127.858 Y102.236 E98.29848
G1 X127.787 Y102.052 E98.30503
G1 X127.741 Y101.879 E98.31099
G1 X127.71 Y101.687 E98.31746
G1 X127.7 Y101.489 E98.32405
G1 X127.7 Y97.3 E98.46338
M204 S5000
M205 X30 Y30
G0 F3600 X127.5 Y97.3
G0 X127.5 Y96.8
G0 X128.49 Y96.51
M204 S500
M205 X20 Y20
;TYPE:SKIN
G1 F1800 X106.51 Y96.51 E99.19444
G1 X106.51 Y101.468 E99.35934
G1 X106.504 Y101.596 E99.3636
G1 X106.485 Y101.715 E99.36761
G1 X106.458 Y101.817 E99.37112
G1 X106.377 Y101.999 E99.37774
G1 X106.31 Y102.101 E99.3818
G1 X106.244 Y102.182 E99.38528
G1 X106.105 Y102.307 E99.3915
G1 X105.917 Y102.42 E99.39879
G1 X105.804 Y102.463 E99.40281
G1 X105.594 Y102.504 E99.40993
G1 X105.468 Y102.51 E99.41413
G1 X23.49 Y102.51 E102.14072
G1 X23.49 Y92.49 E102.47399
G1 X26.51 Y92.49 E102.57444
G1 X26.51 Y99.49 E102.80726
G1 X32.49 Y99.49 E103.00615
G1 X32.49 Y92.49 E103.23897
G1 X202.51 Y92.49 E108.89386
G1 X202.51 Y99.49 E109.12668
G1 X208.49 Y99.49 E109.32558
G1 X208.49 Y92.49 E109.5584
G1 X211.51 Y92.49 E109.65885
G1 X211.51 Y102.51 E109.99211
G1 X129.532 Y102.51 E112.71871
G1 X129.406 Y102.504 E112.72291
G1 X129.196 Y102.463 E112.73002
G1 X129.083 Y102.42 E112.73404
G1 X128.895 Y102.307 E112.74134
G1 X128.818 Y102.244 E112.74465
G1 X128.756 Y102.182 E112.74757
G1 X128.69 Y102.101 E112.75104
G1 X128.623 Y101.999 E112.7551
G1 X128.542 Y101.817 E112.76173
G1 X128.515 Y101.715 E112.76523
G1 X128.496 Y101.596 E112.76924
G1 X128.49 Y101.468 E112.7735
G1 X128.49 Y96.51 E112.93841
M204 S5000
M205 X30 Y30
G0 F3600 X202.872 Y99.128
G0 X208.128 Y99.128
G0 X211.329 Y93.101
M204 S500
M205 X20 Y20
G1 F1800 X210.898 Y92.669 E112.95871
M204 S5000
M205 X30 Y30
G0 F3600 X210.332 Y92.669
M204 S500
M205 X20 Y20
G1 F1800 X211.329 Y93.666 E113.0056
M204 S5000
M205 X30 Y30
G0 F3600 X211.329 Y94.232
M204 S500
M205 X20 Y20
G1 F1800 X209.766 Y92.669 E113.07912
M204 S5000
M205 X30 Y30
G0 F3600 X209.201 Y92.669
M204 S500
M205 X20 Y20
G1 F1800 X211.329 Y94.798 E113.17924
M204 S5000
M205 X30 Y30
G0 F3600 X211.329 Y95.363
M204 S500
M205 X20 Y20
G1 F1800 X208.669 Y92.703 E113.30436
M204 S5000
M205 X30 Y30
G0 F3600 X208.669 Y93.269
M204 S500
M205 X20 Y20
G1 F1800 X211.329 Y95.929 E113.42947
M204 S5000
M205 X30 Y30
G0 F3600 X211.329 Y96.495
M204 S500
M205 X20 Y20
G1 F1800 X208.669 Y93.835 E113.55459
M204 S5000
M205 X30 Y30
G0 F3600 X208.669 Y94.4
M204 S500
M205 X20 Y20
G1 F1800 X211.329 Y97.061 E113.67973
M204 S5000
M205 X30 Y30
G0 F3600 X211.329 Y97.626
M204 S500
M205 X20 Y20
G1 F1800 X208.669 Y94.966 E113.80485
M204 S5000
M205 X30 Y30
G0 F3600 X208.669 Y95.532
M204 S500
M205 X20 Y20
G1 F1800 X211.329 Y98.192 E113.92997
M204 S5000
M205 X30 Y30
G0 F3600 X211.329 Y98.758
M204 S500
M205 X20 Y20
G1 F1800 X208.669 Y96.097 E114.05511
M204 S5000
M205 X30 Y30
G0 F3600 X208.669 Y96.663
M204 S500
M205 X20 Y20
G1 F1800 X211.329 Y99.323 E114.18023
M204 S5000
M205 X30 Y30
G0 F3600 X211.329 Y99.889
M204 S500
