;FLAVOR:Marlin
;TIME:2755
;Filament used: 3.60364m
;Layer height: 0.3
;Generated with Cura_SteamEngine 3.6.0
M140 S60
M105
M190 S60
M104 S200
M105
M109 S200
M82 ;absolute extrusion mode
; Ender 3 Custom Start G-code
G28 ; Home all axes
G92 E0 ; Reset Extruder
G1 Z2.0 F3000 ; Move Z Axis up little to prevent scratching of Heat Bed
G1 X0.1 Y20 Z0.3 F5000.0 ; Move to start position
G1 X0.1 Y200.0 Z0.3 F1500.0 E15 ; Draw the first line
G1 X0.4 Y200.0 Z0.3 F5000.0 ; Move to side a little
G1 X0.4 Y20 Z0.3 F1500.0 E30 ; Draw the second line
G92 E0 ; Reset Extruder
G1 Z2.0 F3000 ; Move Z Axis up little to prevent scratching of Heat Bed
; End of custom start GCode
G92 E0
G1 F2400 E-5
;LAYER_COUNT:87
;LAYER:0
M107
M204 S5000
M205 X30 Y30
G0 F3600 X53.471 Y92.248 Z0.2
M204 S500
M205 X20 Y20
;TYPE:SKIRT
G1 F2400 E0
G1 F1800 X53.995 Y91.962 E0.01986
G1 X55.728 Y91.119 E0.08395
G1 X56.277 Y90.883 E0.10383
G1 X58.401 Y90.085 E0.17929
G1 X59.028 Y89.885 E0.20118
G1 X61.369 Y89.271 E0.28168
G1 X61.99 Y89.141 E0.30278
G1 X63.918 Y88.835 E0.36771
G1 X64.499 Y88.77 E0.38715
G1 X66.678 Y88.626 E0.45979
G1 X67.305 Y88.615 E0.48064
G1 X69.587 Y88.688 E0.55658
G1 X70.1 Y88.725 E0.57369
G1 X71.367 Y88.868 E0.6161
G1 X71.837 Y88.939 E0.63191
G1 X75.556 Y89.642 E0.75779
G1 X80.844 Y90.457 E0.93575
G1 X86.11 Y90.967 E1.11172
G1 X91.408 Y91.178 E1.28807
G1 X96.694 Y91.09 E1.4639
G1 X101.984 Y90.702 E1.64032
G1 X107.232 Y90.017 E1.81635
G1 X112.665 Y89.015 E2.0001
G1 X113.103 Y88.95 E2.01483
G1 X115.373 Y88.692 E2.09082
G1 X116.008 Y88.652 E2.11198
G1 X118.196 Y88.622 E2.18476
G1 X118.689 Y88.634 E2.20116
G1 X119.983 Y88.716 E2.24429
G1 X120.604 Y88.786 E2.26507
G1 X123.634 Y89.278 E2.36717
G1 X124.251 Y89.409 E2.38815
G1 X125.565 Y89.758 E2.43337
G1 X126.046 Y89.907 E2.45012
G1 X128.129 Y90.64 E2.52356
G1 X128.71 Y90.877 E2.54443
G1 X130.698 Y91.804 E2.61739
G1 X131.256 Y92.099 E2.63838
G1 X133.164 Y93.23 E2.71215
G1 X133.688 Y93.576 E2.73304
G1 X135.486 Y94.896 E2.80722
G1 X136.066 Y95.377 E2.83229
G1 X138.291 Y97.454 E2.93352
G1 X138.726 Y97.901 E2.95427
G1 X139.586 Y98.877 E2.99753
G1 X139.9 Y99.262 E3.01406
G1 X141.245 Y101.051 E3.0885
G1 X141.598 Y101.572 E3.10943
G1 X142.738 Y103.447 E3.18242
G1 X143.09 Y104.113 E3.20747
G1 X144.366 Y106.906 E3.3096
G1 X144.598 Y107.486 E3.33038
G1 X145.035 Y108.758 E3.37511
G1 X145.209 Y109.357 E3.39586
G1 X145.915 Y112.328 E3.49743
G1 X146.031 Y112.956 E3.51867
G1 X146.216 Y114.333 E3.56488
G1 X146.264 Y114.846 E3.58202
G1 X146.383 Y117.091 E3.65679
G1 X146.385 Y117.722 E3.67778
G1 X146.285 Y119.914 E3.75076
G1 X146.225 Y120.544 E3.77181
G1 X145.903 Y122.756 E3.84615
G1 X145.793 Y123.327 E3.86549
G1 X145.351 Y125.169 E3.9285
G1 X145.22 Y125.637 E3.94466
G1 X144.776 Y127.016 E3.99285
G1 X144.608 Y127.478 E4.0092
G1 X143.813 Y129.422 E4.07905
G1 X143.549 Y129.986 E4.09977
G1 X142.514 Y131.947 E4.17352
G1 X142.129 Y132.584 E4.19827
G1 X140.418 Y135.075 E4.29878
G1 X139.961 Y135.664 E4.32358
G1 X138.483 Y137.354 E4.39825
G1 X138.037 Y137.815 E4.41959
G1 X136.408 Y139.339 E4.49378
G1 X135.936 Y139.74 E4.51438
G1 X134.252 Y141.034 E4.58502
G1 X133.737 Y141.391 E4.60586
G1 X131.771 Y142.616 E4.6829
G1 X131.209 Y142.928 E4.70428
G1 X129.276 Y143.878 E4.77592
G1 X128.822 Y144.079 E4.79243
G1 X127.547 Y144.587 E4.83808
G1 X126.948 Y144.792 E4.85914
G1 X124.002 Y145.64 E4.9611
G1 X123.38 Y145.786 E4.98235
G1 X122.025 Y146.033 E5.02816
G1 X121.533 Y146.103 E5.04469
G1 X119.377 Y146.325 E5.11678
G1 X118.753 Y146.359 E5.13756
G1 X116.535 Y146.37 E5.21134
G1 X115.908 Y146.342 E5.23221
G1 X113.714 Y146.137 E5.3055
G1 X113.179 Y146.064 E5.32346
G1 X111.44 Y145.752 E5.38222
G1 X111.321 Y145.73 E5.38625
G1 X109.627 Y145.393 E5.4437
G1 X104.355 Y144.569 E5.62117
G1 X99.076 Y144.046 E5.79761
G1 X93.796 Y143.824 E5.97338
G1 X88.509 Y143.901 E6.14925
G1 X83.222 Y144.277 E6.32554
G1 X77.954 Y144.954 E6.50219
G1 X72.355 Y145.98 E6.69152
G1 X71.94 Y146.042 E6.70547
G1 X69.712 Y146.301 E6.78007
G1 X69.081 Y146.343 E6.80111
G1 X66.882 Y146.38 E6.87426
G1 X66.254 Y146.36 E6.89516
G1 X64.069 Y146.182 E6.96807
G1 X63.409 Y146.093 E6.99022
G1 X60.94 Y145.63 E7.07377
G1 X60.324 Y145.483 E7.09483
G1 X58.474 Y144.942 E7.15894
G1 X58.034 Y144.796 E7.17436
G1 X56.787 Y144.331 E7.21863
G1 X56.323 Y144.136 E7.23537
G1 X54.301 Y143.195 E7.30954
G1 X53.737 Y142.898 E7.33075
G1 X51.831 Y141.768 E7.40444
G1 X51.337 Y141.444 E7.42409
G1 X49.768 Y140.306 E7.48856
G1 X49.27 Y139.905 E7.50982
G1 X47.374 Y138.217 E7.59426
G1 X46.931 Y137.782 E7.61491
G1 X45.63 Y136.375 E7.67864
G1 X45.25 Y135.924 E7.69826
G1 X43.942 Y134.218 E7.76976
G1 X43.579 Y133.693 E7.79099
G1 X42.342 Y131.695 E7.86915
G1 X42.03 Y131.128 E7.89067
G1 X41.061 Y129.138 E7.96429
G1 X40.861 Y128.683 E7.98082
G1 X40.405 Y127.526 E8.02218
G1 X40.242 Y127.062 E8.03854
G1 X39.585 Y124.928 E8.1128
G1 X39.438 Y124.358 E8.13238
G1 X39.038 Y122.449 E8.19726
G1 X38.957 Y121.97 E8.21341
G1 X38.778 Y120.608 E8.2591
G1 X38.732 Y120.115 E8.27557
G1 X38.617 Y117.959 E8.34738
G1 X38.614 Y117.334 E8.36817
G1 X38.713 Y115.102 E8.44248
G1 X38.772 Y114.477 E8.46336
G1 X39.082 Y112.316 E8.53597
G1 X39.192 Y111.74 E8.55548
G1 X39.642 Y109.854 E8.61996
G1 X39.806 Y109.285 E8.63966
G1 X40.517 Y107.187 E8.71334
G1 X40.745 Y106.607 E8.73407
G1 X41.642 Y104.621 E8.80655
G1 X41.872 Y104.163 E8.82359
G1 X42.543 Y102.947 E8.86978
G1 X42.806 Y102.512 E8.88669
G1 X44.022 Y100.671 E8.96007
G1 X44.394 Y100.163 E8.98102
G1 X45.787 Y98.448 E9.0545
G1 X46.181 Y98.007 E9.07417
G1 X47.558 Y96.6 E9.13965
G1 X47.901 Y96.274 E9.15539
G1 X48.877 Y95.414 E9.19866
G1 X49.26 Y95.102 E9.21509
G1 X51.042 Y93.761 E9.28926
G1 X51.566 Y93.406 E9.31032
G1 X53.471 Y92.248 E9.38446
M204 S5000
M205 X30 Y30
G0 F3600 X53.678 Y92.59
M204 S500
M205 X20 Y20
G1 F1800 X54.17 Y92.321 E9.40311
G1 X55.903 Y91.478 E9.46721
G1 X56.418 Y91.257 E9.48585
G1 X58.542 Y90.459 E9.56132
G1 X59.13 Y90.272 E9.58184
G1 X61.471 Y89.658 E9.66233
G1 X62.052 Y89.536 E9.68208
G1 X63.98 Y89.23 E9.74701
G1 X64.525 Y89.169 E9.76525
G1 X66.704 Y89.025 E9.83788
G1 X67.292 Y89.015 E9.85744
G1 X69.574 Y89.088 E9.93338
G1 X70.055 Y89.123 E9.94942
G1 X71.322 Y89.266 E9.99183
G1 X71.763 Y89.332 E10.00666
G1 X75.482 Y90.035 E10.13254
G1 X80.798 Y90.855 E10.31144
G1 X86.09 Y91.367 E10.48828
G1 X91.398 Y91.578 E10.66496
G1 X96.712 Y91.49 E10.84173
G1 X102.011 Y91.101 E11.01845
G1 X107.303 Y90.41 E11.19596
G1 X112.738 Y89.408 E11.37977
G1 X113.148 Y89.347 E11.39356
G1 X115.418 Y89.089 E11.46955
G1 X116.014 Y89.052 E11.48941
G1 X118.202 Y89.022 E11.56219
G1 X118.663 Y89.033 E11.57753
G1 X119.957 Y89.115 E11.62065
G1 X120.54 Y89.181 E11.64017
G1 X123.57 Y89.673 E11.74226
G1 X124.148 Y89.796 E11.76192
G1 X125.462 Y90.145 E11.80714
G1 X125.914 Y90.284 E11.82287
G1 X127.997 Y91.017 E11.89631
G1 X128.541 Y91.239 E11.91585
G1 X130.529 Y92.166 E11.98881
G1 X131.052 Y92.443 E12.00849
G1 X132.96 Y93.574 E12.08227
G1 X133.452 Y93.898 E12.10186
G1 X135.25 Y95.218 E12.17605
G1 X135.793 Y95.669 E12.19952
G1 X138.018 Y97.746 E12.30076
G1 X138.426 Y98.165 E12.32021
G1 X139.286 Y99.141 E12.36348
G1 X139.58 Y99.502 E12.37896
G1 X140.925 Y101.291 E12.45341
G1 X141.256 Y101.78 E12.47304
G1 X142.396 Y103.655 E12.54603
G1 X142.726 Y104.279 E12.56951
G1 X144.002 Y107.072 E12.67164
G1 X144.219 Y107.616 E12.69112
G1 X144.656 Y108.888 E12.73585
G1 X144.819 Y109.45 E12.75532
G1 X145.525 Y112.421 E12.85688
G1 X145.635 Y113.009 E12.87678
G1 X145.82 Y114.386 E12.92299
G1 X145.865 Y114.867 E12.93906
G1 X145.984 Y117.112 E13.01383
G1 X145.986 Y117.703 E13.03349
G1 X145.886 Y119.895 E13.10647
G1 X145.829 Y120.486 E13.12622
G1 X145.507 Y122.698 E13.20056
G1 X145.404 Y123.234 E13.21872
G1 X144.962 Y125.076 E13.28172
G1 X144.839 Y125.515 E13.29689
G1 X144.395 Y126.894 E13.34507
G1 X144.238 Y127.326 E13.36036
G1 X143.443 Y129.27 E13.43021
G1 X143.195 Y129.8 E13.44968
G1 X142.16 Y131.761 E13.52343
G1 X141.8 Y132.357 E13.54659
G1 X140.089 Y134.848 E13.6471
G1 X139.659 Y135.401 E13.6704
G1 X138.181 Y137.091 E13.74507
G1 X137.764 Y137.522 E13.76502
G1 X136.135 Y139.046 E13.83921
G1 X135.692 Y139.423 E13.85856
G1 X134.008 Y140.717 E13.92919
G1 X133.525 Y141.051 E13.94873
G1 X131.559 Y142.276 E14.02577
G1 X131.032 Y142.569 E14.04583
G1 X129.099 Y143.519 E14.11746
G1 X128.674 Y143.708 E14.13293
G1 X127.399 Y144.216 E14.17858
G1 X126.838 Y144.408 E14.1983
G1 X123.892 Y145.256 E14.30027
G1 X123.308 Y145.393 E14.32022
G1 X121.953 Y145.64 E14.36603
G1 X121.492 Y145.705 E14.38151
G1 X119.336 Y145.927 E14.4536
G1 X118.751 Y145.959 E14.47309
G1 X116.533 Y145.97 E14.54686
G1 X115.945 Y145.944 E14.56643
G1 X113.751 Y145.739 E14.63972
G1 X113.249 Y145.671 E14.65657
G1 X111.51 Y145.359 E14.71534
G1 X111.399 Y145.338 E14.71909
G1 X109.694 Y144.999 E14.77691
G1 X104.405 Y144.172 E14.95496
G1 X99.114 Y143.648 E15.1318
G1 X93.789 Y143.424 E15.30907
G1 X88.491 Y143.501 E15.4853
G1 X83.179 Y143.879 E15.66243
G1 X77.903 Y144.557 E15.83935
G1 X72.282 Y145.587 E16.02942
G1 X71.894 Y145.645 E16.04247
G1 X69.666 Y145.904 E16.11707
G1 X69.074 Y145.943 E16.1368
G1 X66.875 Y145.98 E16.20995
G1 X66.287 Y145.961 E16.22952
G1 X64.102 Y145.783 E16.30243
G1 X63.483 Y145.7 E16.3232
G1 X61.014 Y145.237 E16.40675
G1 X60.436 Y145.099 E16.42652
G1 X58.586 Y144.558 E16.49063
G1 X58.174 Y144.421 E16.50507
G1 X56.927 Y143.956 E16.54933
G1 X56.491 Y143.774 E16.56505
G1 X54.469 Y142.833 E16.63923
G1 X53.941 Y142.554 E16.65909
G1 X52.035 Y141.424 E16.73279
G1 X51.572 Y141.12 E16.75121
G1 X50.003 Y139.982 E16.81567
G1 X49.536 Y139.606 E16.83561
G1 X47.64 Y137.918 E16.92005
G1 X47.225 Y137.51 E16.9394
G1 X45.924 Y136.103 E17.00314
G1 X45.567 Y135.681 E17.02152
G1 X44.259 Y133.975 E17.09302
G1 X43.92 Y133.482 E17.11292
G1 X42.683 Y131.484 E17.19108
G1 X42.39 Y130.953 E17.21125
G1 X41.421 Y128.963 E17.28487
G1 X41.233 Y128.536 E17.30039
G1 X40.777 Y127.379 E17.34175
G1 X40.625 Y126.944 E17.35708
G1 X39.968 Y124.81 E17.43134
G1 X39.83 Y124.275 E17.44972
G1 X39.43 Y122.366 E17.51459
G1 X39.353 Y121.918 E17.52971
G1 X39.174 Y120.556 E17.5754
G1 X39.132 Y120.094 E17.59083
G1 X39.017 Y117.938 E17.66264
G1 X39.014 Y117.352 E17.68213
G1 X39.113 Y115.12 E17.75644
G1 X39.168 Y114.534 E17.77602
G1 X39.478 Y112.373 E17.84863
G1 X39.581 Y111.832 E17.86695
G1 X40.031 Y109.946 E17.93144
G1 X40.184 Y109.413 E17.94988
G1 X40.895 Y107.315 E18.02356
G1 X41.11 Y106.771 E18.04301
G1 X42.007 Y104.785 E18.11549
G1 X42.222 Y104.356 E18.13145
G1 X42.893 Y103.14 E18.17765
G1 X43.14 Y102.732 E18.19351
G1 X44.356 Y100.891 E18.26689
G1 X44.705 Y100.415 E18.28652
G1 X46.098 Y98.7 E18.36001
G1 X46.467 Y98.286 E18.37846
G1 X47.844 Y96.879 E18.44393
G1 X48.165 Y96.574 E18.45866
G1 X49.141 Y95.714 E18.50193
G1 X49.5 Y95.422 E18.51732
G1 X51.282 Y94.081 E18.5915
G1 X51.773 Y93.748 E18.61123
G1 X53.678 Y92.59 E18.68538
M204 S5000
M205 X30 Y30
G0 F3600 X53.886 Y92.932
M204 S500
M205 X20 Y20
G1 F1800 X54.345 Y92.681 E18.70278
G1 X56.078 Y91.838 E18.76687
G1 X56.558 Y91.632 E18.78425
G1 X58.682 Y90.834 E18.85971
G1 X59.231 Y90.659 E18.87888
G1 X61.572 Y90.045 E18.95937
G1 X62.115 Y89.931 E18.97783
G1 X64.043 Y89.625 E19.04276
G1 X64.552 Y89.568 E19.05979
G1 X66.731 Y89.424 E19.13242
G1 X67.279 Y89.415 E19.15065
G1 X69.561 Y89.488 E19.22659
G1 X70.01 Y89.52 E19.24156
G1 X71.277 Y89.663 E19.28397
G1 X71.689 Y89.725 E19.29783
G1 X75.408 Y90.428 E19.42371
G1 X80.75 Y91.252 E19.60349
G1 X86.054 Y91.765 E19.78072
G1 X91.407 Y91.978 E19.95891
G1 X96.73 Y91.89 E20.13597
G1 X102.057 Y91.499 E20.31363
G1 X107.368 Y90.806 E20.49177
G1 X112.81 Y89.802 E20.67583
G1 X113.194 Y89.745 E20.68874
G1 X115.464 Y89.487 E20.76472
G1 X116.019 Y89.452 E20.78322
G1 X118.207 Y89.422 E20.856
G1 X118.638 Y89.432 E20.87034
G1 X119.932 Y89.514 E20.91346
G1 X120.476 Y89.575 E20.93167
G1 X123.506 Y90.067 E21.03377
G1 X124.046 Y90.183 E21.05214
G1 X125.36 Y90.532 E21.09736
G1 X125.781 Y90.662 E21.11201
G1 X127.864 Y91.395 E21.18546
G1 X128.372 Y91.602 E21.2037
G1 X130.36 Y92.529 E21.27666
G1 X130.849 Y92.787 E21.29505
G1 X132.757 Y93.918 E21.36882
G1 X133.215 Y94.221 E21.38709
G1 X135.013 Y95.541 E21.46127
G1 X135.52 Y95.961 E21.48317
G1 X137.745 Y98.038 E21.58441
G1 X138.126 Y98.43 E21.60259
G1 X138.986 Y99.406 E21.64586
G1 X139.26 Y99.743 E21.6603
G1 X140.605 Y101.532 E21.73474
G1 X140.914 Y101.988 E21.75306
G1 X142.054 Y103.863 E21.82605
G1 X142.363 Y104.445 E21.84797
G1 X143.639 Y107.238 E21.9501
G1 X143.841 Y107.745 E21.96825
G1 X144.278 Y109.017 E22.01298
G1 X144.43 Y109.542 E22.03116
G1 X145.136 Y112.513 E22.13273
G1 X145.238 Y113.062 E22.1513
G1 X145.423 Y114.439 E22.19751
G1 X145.465 Y114.889 E22.21254
G1 X145.584 Y117.134 E22.28732
G1 X145.586 Y117.685 E22.30564
G1 X145.486 Y119.877 E22.37863
G1 X145.434 Y120.429 E22.39707
G1 X145.112 Y122.641 E22.47141
G1 X145.015 Y123.141 E22.48835
G1 X144.573 Y124.983 E22.55136
G1 X144.459 Y125.392 E22.56548
G1 X144.015 Y126.771 E22.61367
G1 X143.867 Y127.175 E22.62798
G1 X143.072 Y129.119 E22.69783
G1 X142.842 Y129.613 E22.71596
G1 X141.807 Y131.574 E22.78971
G1 X141.47 Y132.131 E22.81136
G1 X139.759 Y134.622 E22.91187
G1 X139.358 Y135.138 E22.93361
G1 X137.88 Y136.828 E23.00828
G1 X137.491 Y137.23 E23.02689
G1 X135.862 Y138.754 E23.10108
G1 X135.448 Y139.105 E23.11913
G1 X133.764 Y140.399 E23.18977
G1 X133.313 Y140.712 E23.20803
G1 X131.347 Y141.937 E23.28507
G1 X130.856 Y142.21 E23.30376
G1 X128.923 Y143.16 E23.37539
G1 X128.526 Y143.336 E23.38984
G1 X127.251 Y143.844 E23.43549
G1 X126.727 Y144.023 E23.4539
G1 X123.781 Y144.871 E23.55587
G1 X123.236 Y144.999 E23.57449
G1 X121.881 Y145.246 E23.6203
G1 X121.451 Y145.308 E23.63475
G1 X119.295 Y145.53 E23.70683
G1 X118.749 Y145.559 E23.72502
G1 X116.531 Y145.57 E23.79879
G1 X115.982 Y145.546 E23.81707
G1 X113.788 Y145.341 E23.89036
G1 X113.32 Y145.277 E23.90607
G1 X111.581 Y144.965 E23.96483
G1 X111.477 Y144.945 E23.96836
G1 X109.783 Y144.608 E24.0258
G1 X104.454 Y143.775 E24.2052
G1 X99.135 Y143.248 E24.38297
G1 X93.8 Y143.023 E24.56057
G1 X88.475 Y143.102 E24.7377
G1 X83.134 Y143.481 E24.91579
G1 X77.836 Y144.162 E25.09346
G1 X72.21 Y145.193 E25.28369
G1 X71.848 Y145.248 E25.29587
G1 X69.62 Y145.507 E25.37047
G1 X69.067 Y145.543 E25.38891
G1 X66.868 Y145.58 E25.46206
G1 X66.319 Y145.563 E25.48032
G1 X64.134 Y145.385 E25.55324
G1 X63.557 Y145.307 E25.5726
G1 X61.088 Y144.844 E25.65615
G1 X60.548 Y144.715 E25.67462
G1 X58.698 Y144.174 E25.73873
G1 X58.313 Y144.046 E25.75222
G1 X57.066 Y143.581 E25.79649
G1 X56.66 Y143.411 E25.81113
G1 X54.638 Y142.47 E25.88531
G1 X54.145 Y142.21 E25.90384
G1 X52.239 Y141.08 E25.97754
G1 X51.807 Y140.796 E25.99474
G1 X50.238 Y139.658 E26.0592
G1 X49.802 Y139.308 E26.0778
G1 X47.906 Y137.62 E26.16223
G1 X47.518 Y137.239 E26.18032
G1 X46.217 Y135.832 E26.24405
G1 X45.885 Y135.437 E26.26122
G1 X44.577 Y133.731 E26.33272
G1 X44.26 Y133.272 E26.35127
G1 X43.023 Y131.274 E26.42943
G1 X42.749 Y130.778 E26.44828
G1 X41.78 Y128.788 E26.52189
G1 X41.605 Y128.389 E26.53638
G1 X41.149 Y127.232 E26.57775
G1 X41.007 Y126.827 E26.59202
G1 X40.35 Y124.693 E26.66629
G1 X40.221 Y124.193 E26.68346
G1 X39.821 Y122.284 E26.74833
G1 X39.75 Y121.866 E26.76243
G1 X39.571 Y120.504 E26.80812
G1 X39.531 Y120.072 E26.82255
G1 X39.416 Y117.916 E26.89436
G1 X39.414 Y117.37 E26.91253
G1 X39.513 Y115.138 E26.98683
G1 X39.564 Y114.591 E27.00511
G1 X39.874 Y112.43 E27.07772
G1 X39.97 Y111.925 E27.09482
G1 X40.42 Y110.039 E27.1593
G1 X40.563 Y109.542 E27.17651
G1 X41.274 Y107.444 E27.25018
G1 X41.474 Y106.936 E27.26834
G1 X42.371 Y104.95 E27.34082
G1 X42.572 Y104.549 E27.35574
G1 X43.243 Y103.333 E27.40193
G1 X43.473 Y102.953 E27.41671
G1 X44.689 Y101.112 E27.49009
G1 X45.015 Y100.667 E27.50844
G1 X46.408 Y98.952 E27.58192
G1 X46.753 Y98.566 E27.59914
G1 X48.13 Y97.159 E27.66462
G1 X48.43 Y96.874 E27.67839
G1 X49.406 Y96.014 E27.72165
G1 X49.741 Y95.741 E27.73603
G1 X51.523 Y94.4 E27.8102
G1 X51.981 Y94.09 E27.8286
G1 X53.886 Y92.932 E27.90274
M204 S5000
M205 X30 Y30
G0 F3600 X54.094 Y93.274
M204 S500
M205 X20 Y20
G1 F1800 X54.52 Y93.041 E27.91889
G1 X56.253 Y92.198 E27.98299
G1 X56.699 Y92.006 E27.99914
