;FLAVOR:Marlin
;TIME:1322
;Filament used: 1.91256m
;Layer height: 0.3
;Generated with Cura_SteamEngine 3.6.0
M140 S60
M105
M190 S60
M104 S200
M105
M109 S200
M82 ;absolute extrusion mode
; Ender 3 Custom Start G-code
G28 ; Home all axes
G92 E0 ; Reset Extruder
G1 Z2.0 F3000 ; Move Z Axis up little to prevent scratching of Heat Bed
G1 X0.1 Y20 Z0.3 F5000.0 ; Move to start position
G1 X0.1 Y200.0 Z0.3 F1500.0 E15 ; Draw the first line
G1 X0.4 Y200.0 Z0.3 F5000.0 ; Move to side a little
G1 X0.4 Y20 Z0.3 F1500.0 E30 ; Draw the second line
G92 E0 ; Reset Extruder
G1 Z2.0 F3000 ; Move Z Axis up little to prevent scratching of Heat Bed
; End of custom start GCode
G92 E0
G1 F2400 E-5
;LAYER_COUNT:14
;LAYER:0
M107
M204 S5000
M205 X30 Y30
G0 F3600 X64.066 Y106.115 Z0.2
M204 S500
M205 X20 Y20
;TYPE:SKIRT
G1 F2400 E0
G1 F1800 X64.689 Y105.764 E0.02378
G1 X65.348 Y105.485 E0.04759
G1 X66.034 Y105.282 E0.07138
G1 X66.738 Y105.156 E0.09517
G1 X67.51 Y105.109 E0.12089
G1 X167.491 Y105.11 E3.44627
G1 X168.205 Y105.15 E3.47006
G1 X168.91 Y105.269 E3.49384
G1 X169.598 Y105.467 E3.51765
G1 X170.259 Y105.74 E3.54144
G1 X170.886 Y106.085 E3.56524
G1 X171.47 Y106.497 E3.58901
G1 X172.004 Y106.972 E3.61278
G1 X172.483 Y107.504 E3.63659
G1 X172.898 Y108.086 E3.66036
G1 X173.247 Y108.711 E3.68417
G1 X173.523 Y109.371 E3.70797
G1 X173.724 Y110.057 E3.73174
G1 X173.847 Y110.762 E3.75555
G1 X173.891 Y111.505 E3.7803
G1 X173.9 Y122.769 E4.15494
G1 X173.898 Y122.923 E4.16007
G1 X173.824 Y126.085 E4.26526
G1 X173.89 Y143.467 E4.8434
G1 X173.853 Y144.181 E4.86717
G1 X173.736 Y144.887 E4.89098
G1 X173.541 Y145.575 E4.91476
G1 X173.271 Y146.237 E4.93854
G1 X172.928 Y146.865 E4.96234
G1 X172.518 Y147.451 E4.98613
G1 X172.045 Y147.987 E5.0099
G1 X171.514 Y148.467 E5.03371
G1 X170.934 Y148.885 E5.05749
G1 X170.311 Y149.236 E5.08127
G1 X169.652 Y149.515 E5.10507
G1 X168.966 Y149.718 E5.12887
G1 X168.262 Y149.844 E5.15266
G1 X167.488 Y149.891 E5.17845
G1 X129.302 Y149.88 E6.44852
G1 X128.627 Y149.844 E6.471
G1 X126.48 Y149.616 E6.54281
G1 X121.126 Y149.255 E6.72129
G1 X115.824 Y149.2 E6.89765
G1 X110.512 Y149.444 E7.07451
G1 X105.984 Y149.866 E7.22577
G1 X105.387 Y149.894 E7.24564
G1 X67.506 Y149.878 E8.50557
G1 X66.792 Y149.838 E8.52936
G1 X66.087 Y149.718 E8.55314
G1 X65.4 Y149.52 E8.57692
G1 X64.739 Y149.247 E8.60071
G1 X64.112 Y148.902 E8.62451
G1 X63.528 Y148.489 E8.6483
G1 X62.994 Y148.014 E8.67207
G1 X62.516 Y147.481 E8.69588
G1 X62.1 Y146.899 E8.71968
G1 X61.752 Y146.274 E8.74347
G1 X61.476 Y145.615 E8.76723
G1 X61.275 Y144.928 E8.79104
G1 X61.153 Y144.223 E8.81484
G1 X61.109 Y143.483 E8.83949
G1 X61.1 Y132.212 E9.21437
G1 X61.102 Y132.057 E9.21952
G1 X61.176 Y128.914 E9.32409
G1 X61.11 Y111.533 E9.90219
G1 X61.147 Y110.819 E9.92597
G1 X61.264 Y110.113 E9.94977
G1 X61.459 Y109.425 E9.97355
G1 X61.729 Y108.763 E9.99733
G1 X62.072 Y108.135 E10.02113
G1 X62.482 Y107.549 E10.04492
G1 X62.955 Y107.013 E10.0687
G1 X63.486 Y106.533 E10.0925
G1 X64.066 Y106.115 E10.11628
M204 S5000
M205 X30 Y30
G0 F3600 X64.45 Y106.348
M204 S500
M205 X20 Y20
G1 F1800 X65.065 Y106.03 E10.13931
G1 X65.713 Y105.785 E10.16235
G1 X66.384 Y105.616 E10.18537
G1 X67.071 Y105.525 E10.20842
G1 X67.51 Y105.509 E10.22303
G1 X167.491 Y105.51 E13.54841
G1 X168.182 Y105.55 E13.57143
G1 X168.865 Y105.669 E13.59449
G1 X169.528 Y105.867 E13.6175
G1 X170.165 Y106.139 E13.64054
G1 X170.766 Y106.483 E13.66357
G1 X171.324 Y106.894 E13.68662
G1 X171.83 Y107.366 E13.70964
G1 X172.279 Y107.894 E13.73269
G1 X172.664 Y108.469 E13.7557
G1 X172.979 Y109.086 E13.77875
G1 X173.222 Y109.734 E13.80176
G1 X173.389 Y110.407 E13.82483
G1 X173.477 Y111.094 E13.84786
G1 X173.491 Y111.505 E13.86154
G1 X173.5 Y122.769 E14.23618
G1 X173.498 Y122.914 E14.24101
G1 X173.424 Y126.077 E14.34624
G1 X173.49 Y143.468 E14.92467
G1 X173.453 Y144.16 E14.94772
G1 X173.336 Y144.842 E14.97073
G1 X173.141 Y145.507 E14.99378
G1 X172.871 Y146.145 E15.01682
G1 X172.53 Y146.747 E15.03984
G1 X172.121 Y147.306 E15.06287
G1 X171.65 Y147.814 E15.08591
G1 X171.124 Y148.265 E15.10896
G1 X170.55 Y148.652 E15.13198
G1 X169.935 Y148.97 E15.15501
G1 X169.287 Y149.215 E15.17805
G1 X168.616 Y149.384 E15.20107
G1 X167.929 Y149.475 E15.22412
G1 X167.488 Y149.491 E15.23879
G1 X129.302 Y149.48 E16.50887
G1 X128.669 Y149.446 E16.52995
G1 X126.497 Y149.215 E16.6026
G1 X121.158 Y148.855 E16.78058
G1 X115.828 Y148.8 E16.95786
G1 X110.476 Y149.046 E17.13606
G1 X105.946 Y149.468 E17.28738
G1 X105.387 Y149.494 E17.30599
G1 X67.506 Y149.478 E18.56592
G1 X66.815 Y149.438 E18.58894
G1 X66.133 Y149.318 E18.61197
G1 X65.469 Y149.121 E18.63501
G1 X64.833 Y148.848 E18.65803
G1 X64.232 Y148.504 E18.68106
G1 X63.674 Y148.093 E18.70411
G1 X63.168 Y147.62 E18.72715
G1 X62.72 Y147.092 E18.75018
G1 X62.335 Y146.516 E18.77322
G1 X62.02 Y145.9 E18.79624
G1 X61.777 Y145.251 E18.81928
G1 X61.611 Y144.579 E18.84231
G1 X61.523 Y143.892 E18.86534
G1 X61.509 Y143.483 E18.87896
G1 X61.5 Y132.212 E19.25383
G1 X61.502 Y132.066 E19.25869
G1 X61.576 Y128.921 E19.36332
G1 X61.51 Y111.532 E19.94168
G1 X61.547 Y110.84 E19.96473
G1 X61.664 Y110.158 E19.98775
G1 X61.859 Y109.493 E20.0108
G1 X62.129 Y108.855 E20.03384
G1 X62.47 Y108.253 E20.05685
G1 X62.879 Y107.694 E20.07989
G1 X63.35 Y107.186 E20.10293
G1 X63.876 Y106.735 E20.12597
G1 X64.45 Y106.348 E20.149
M204 S5000
M205 X30 Y30
G0 F3600 X64.264 Y106.946
M204 S500
M205 X20 Y20
G1 F1800 X64.832 Y106.591 E20.17128
G1 X65.437 Y106.307 E20.19351
G1 X66.072 Y106.097 E20.21575
G1 X66.728 Y105.964 E20.23801
G1 X67.51 Y105.909 E20.26409
G1 X167.491 Y105.91 E23.58947
G1 X168.159 Y105.95 E23.61173
G1 X168.817 Y106.069 E23.63397
G1 X169.457 Y106.266 E23.65624
G1 X170.068 Y106.538 E23.67848
G1 X170.642 Y106.881 E23.70072
G1 X171.172 Y107.29 E23.72299
G1 X171.649 Y107.759 E23.74524
G1 X172.067 Y108.281 E23.76748
G1 X172.419 Y108.85 E23.78974
G1 X172.701 Y109.457 E23.812
G1 X172.909 Y110.093 E23.83425
G1 X173.039 Y110.749 E23.8565
G1 X173.091 Y111.506 E23.88173
G1 X173.1 Y122.77 E24.25638
G1 X173.098 Y122.905 E24.26087
G1 X173.024 Y126.07 E24.36616
G1 X173.09 Y143.47 E24.94489
G1 X173.053 Y144.138 E24.96715
G1 X172.936 Y144.797 E24.98941
G1 X172.741 Y145.437 E25.01166
G1 X172.472 Y146.049 E25.03389
G1 X172.131 Y146.625 E25.05616
G1 X171.724 Y147.156 E25.07841
G1 X171.257 Y147.635 E25.10066
G1 X170.736 Y148.054 E25.1229
G1 X170.168 Y148.409 E25.14518
G1 X169.563 Y148.693 E25.1674
G1 X168.928 Y148.903 E25.18965
G1 X168.272 Y149.036 E25.21191
G1 X167.488 Y149.091 E25.23805
G1 X129.302 Y149.08 E26.50812
G1 X128.712 Y149.049 E26.52777
G1 X126.516 Y148.815 E26.60123
G1 X121.171 Y148.455 E26.77941
G1 X115.813 Y148.4 E26.95762
G1 X110.464 Y148.646 E27.13572
G1 X105.909 Y149.07 E27.28787
G1 X105.388 Y149.094 E27.30522
G1 X67.507 Y149.078 E28.56515
G1 X66.839 Y149.038 E28.58741
G1 X66.181 Y148.918 E28.60965
G1 X65.541 Y148.721 E28.63192
G1 X64.93 Y148.449 E28.65417
G1 X64.356 Y148.106 E28.67641
G1 X63.826 Y147.697 E28.69867
G1 X63.349 Y147.227 E28.72095
G1 X62.932 Y146.705 E28.74317
G1 X62.58 Y146.136 E28.76542
G1 X62.298 Y145.529 E28.78768
G1 X62.091 Y144.893 E28.80993
G1 X61.961 Y144.237 E28.83217
G1 X61.909 Y143.482 E28.85734
G1 X61.9 Y132.211 E29.23222
G1 X61.902 Y132.076 E29.23671
G1 X61.976 Y128.93 E29.34137
G1 X61.91 Y111.53 E29.9201
G1 X61.947 Y110.862 E29.94236
G1 X62.064 Y110.203 E29.96462
G1 X62.259 Y109.563 E29.98687
G1 X62.528 Y108.951 E30.00911
G1 X62.869 Y108.375 E30.03137
G1 X63.276 Y107.844 E30.05362
G1 X63.743 Y107.365 E30.07587
G1 X64.264 Y106.946 E30.09811
M204 S5000
M205 X30 Y30
G0 F3600 X64.651 Y107.166
M204 S500
M205 X20 Y20
G1 F1800 X65.21 Y106.845 E30.11955
G1 X65.805 Y106.596 E30.141
G1 X66.426 Y106.423 E30.16244
G1 X67.064 Y106.328 E30.1839
G1 X67.51 Y106.309 E30.19874
G1 X167.491 Y106.31 E33.52412
G1 X168.134 Y106.35 E33.54555
G1 X168.768 Y106.469 E33.56701
G1 X169.382 Y106.666 E33.58845
G1 X169.967 Y106.937 E33.6099
G1 X170.514 Y107.279 E33.63135
G1 X171.014 Y107.685 E33.65278
G1 X171.46 Y108.151 E33.67423
G1 X171.845 Y108.667 E33.69564
G1 X172.164 Y109.228 E33.71711
G1 X172.41 Y109.824 E33.73855
G1 X172.581 Y110.445 E33.75998
G1 X172.673 Y111.083 E33.78142
G1 X172.691 Y111.506 E33.7955
G1 X172.7 Y122.77 E34.17014
G1 X172.699 Y122.895 E34.1743
G1 X172.624 Y126.098 E34.28086
G1 X172.69 Y143.471 E34.85869
G1 X172.652 Y144.115 E34.88015
G1 X172.536 Y144.749 E34.90159
G1 X172.341 Y145.364 E34.92304
G1 X172.072 Y145.949 E34.94446
G1 X171.733 Y146.498 E34.96592
G1 X171.328 Y146.999 E34.98735
G1 X170.865 Y147.447 E35.00878
G1 X170.349 Y147.834 E35.03023
G1 X169.79 Y148.155 E35.05167
G1 X169.195 Y148.404 E35.07312
G1 X168.574 Y148.577 E35.09456
G1 X167.936 Y148.672 E35.11602
G1 X167.489 Y148.691 E35.1309
G1 X129.303 Y148.68 E36.40097
G1 X128.754 Y148.651 E36.41925
G1 X126.559 Y148.417 E36.49267
G1 X121.185 Y148.056 E36.67182
G1 X115.817 Y148 E36.85037
G1 X110.43 Y148.247 E37.02973
G1 X105.872 Y148.672 E37.18198
G1 X105.388 Y148.694 E37.1981
G1 X67.507 Y148.678 E38.45803
G1 X66.863 Y148.638 E38.47949
G1 X66.23 Y148.518 E38.50092
G1 X65.616 Y148.321 E38.52236
G1 X65.031 Y148.05 E38.54381
G1 X64.485 Y147.708 E38.56523
G1 X63.985 Y147.301 E38.58668
G1 X63.539 Y146.836 E38.60811
G1 X63.154 Y146.319 E38.62955
G1 X62.835 Y145.758 E38.65101
G1 X62.589 Y145.162 E38.67246
G1 X62.419 Y144.54 E38.6939
G1 X62.326 Y143.902 E38.71535
G1 X62.309 Y143.482 E38.72933
G1 X62.3 Y132.211 E39.1042
G1 X62.301 Y132.085 E39.10839
G1 X62.376 Y128.9 E39.21436
G1 X62.31 Y111.529 E39.79212
G1 X62.348 Y110.885 E39.81358
G1 X62.464 Y110.251 E39.83502
G1 X62.659 Y109.636 E39.85648
G1 X62.928 Y109.051 E39.87789
G1 X63.267 Y108.502 E39.89935
G1 X63.672 Y108.001 E39.92078
G1 X64.135 Y107.553 E39.94221
G1 X64.651 Y107.166 E39.96366
M204 S5000
M205 X30 Y30
G1 F2400 E34.96366
;MESH:dupont-organizer_bridge20190316-67-b2a2rm.stl
G0 F3600 X75.835 Y112.114
G0 X77.114 Y112.114
G0 X128.17 Y116.83
G0 X128.1 Y116.9
M204 S500
M205 X20 Y20
;TYPE:WALL-INNER
G1 F2400 E39.96366
G1 F1800 X106.9 Y116.9 E40.66877
G1 X106.9 Y121.489 E40.82141
G1 X106.892 Y121.639 E40.8264
G1 X106.868 Y121.792 E40.83155
G1 X106.83 Y121.934 E40.83644
G1 X106.776 Y122.073 E40.8414
G1 X106.716 Y122.191 E40.8458
G1 X106.624 Y122.334 E40.85146
G1 X106.542 Y122.434 E40.85576
G1 X106.434 Y122.542 E40.86084
G1 X106.334 Y122.624 E40.86514
G1 X106.194 Y122.714 E40.87068
G1 X106.069 Y122.779 E40.87536
G1 X105.927 Y122.833 E40.88042
G1 X105.802 Y122.866 E40.88472
G1 X105.639 Y122.892 E40.89021
G1 X105.489 Y122.9 E40.8952
G1 X68.1 Y122.9 E42.13877
G1 X68.1 Y112.1 E42.49798
G1 X71.9 Y112.1 E42.62436
G1 X71.9 Y119.1 E42.85718
G1 X77.1 Y119.1 E43.03014
G1 X77.1 Y112.1 E43.26296
G1 X157.9 Y112.1 E45.95038
G1 X157.9 Y119.1 E46.1832
G1 X163.1 Y119.1 E46.35615
G1 X163.1 Y112.1 E46.58897
G1 X166.9 Y112.1 E46.71536
G1 X166.9 Y122.9 E47.07457
G1 X129.511 Y122.9 E48.31813
G1 X129.361 Y122.892 E48.32313
G1 X129.198 Y122.866 E48.32862
G1 X129.073 Y122.833 E48.33292
G1 X128.931 Y122.779 E48.33797
G1 X128.806 Y122.714 E48.34266
G1 X128.666 Y122.624 E48.34819
G1 X128.566 Y122.542 E48.3525
G1 X128.458 Y122.434 E48.35758
G1 X128.376 Y122.334 E48.36188
G1 X128.284 Y122.191 E48.36753
G1 X128.224 Y122.073 E48.37193
G1 X128.17 Y121.934 E48.37689
G1 X128.132 Y121.792 E48.38178
G1 X128.108 Y121.639 E48.38693
G1 X128.1 Y121.489 E48.39193
G1 X128.1 Y116.9 E48.54456
M204 S5000
M205 X30 Y30
G0 F3600 X127.7 Y117.3
M204 S500
M205 X20 Y20
;TYPE:WALL-OUTER
G1 F1800 X107.3 Y117.3 E49.22307
G1 X107.3 Y121.489 E49.36239
G1 X107.29 Y121.687 E49.36899
G1 X107.259 Y121.879 E49.37546
G1 X107.213 Y122.052 E49.38141
G1 X107.142 Y122.236 E49.38797
G1 X107.06 Y122.397 E49.39398
G1 X106.953 Y122.562 E49.40052
G1 X106.835 Y122.707 E49.40674
G1 X106.707 Y122.835 E49.41276
G1 X106.562 Y122.953 E49.41898
G1 X106.397 Y123.06 E49.42552
G1 X106.234 Y123.144 E49.43162
G1 X106.055 Y123.212 E49.43799
G1 X105.879 Y123.259 E49.44405
G1 X105.687 Y123.29 E49.45051
G1 X105.489 Y123.3 E49.45711
G1 X67.7 Y123.3 E50.71398
G1 X67.7 Y111.7 E51.09979
G1 X72.3 Y111.7 E51.25279
G1 X72.3 Y118.7 E51.48561
G1 X76.7 Y118.7 E51.63195
G1 X76.7 Y111.7 E51.86478
G1 X158.3 Y111.7 E54.5788
G1 X158.3 Y118.7 E54.81162
G1 X162.7 Y118.7 E54.95797
G1 X162.7 Y111.7 E55.19079
G1 X167.3 Y111.7 E55.34379
G1 X167.3 Y123.3 E55.7296
G1 X129.511 Y123.3 E56.98647
G1 X129.313 Y123.29 E56.99306
G1 X129.121 Y123.259 E56.99953
G1 X128.945 Y123.212 E57.00559
G1 X128.766 Y123.144 E57.01196
G1 X128.603 Y123.06 E57.01806
G1 X128.438 Y122.953 E57.0246
G1 X128.293 Y122.835 E57.03082
G1 X128.165 Y122.707 E57.03684
G1 X128.047 Y122.562 E57.04306
G1 X127.94 Y122.397 E57.0496
G1 X127.858 Y122.236 E57.05561
G1 X127.787 Y122.052 E57.06217
G1 X127.741 Y121.879 E57.06812
G1 X127.71 Y121.687 E57.07459
G1 X127.7 Y121.489 E57.08118
G1 X127.7 Y117.3 E57.22051
M204 S5000
M205 X30 Y30
G0 F3600 X127.5 Y117.3
G0 X127.5 Y116.8
G0 X128.49 Y116.51
M204 S500
M205 X20 Y20
;TYPE:SKIN
G1 F1800 X106.51 Y116.51 E57.95157
G1 X106.51 Y121.468 E58.11647
G1 X106.504 Y121.596 E58.12073
G1 X106.485 Y121.715 E58.12474
G1 X106.458 Y121.817 E58.12825
G1 X106.377 Y121.999 E58.13488
G1 X106.31 Y122.101 E58.13894
G1 X106.244 Y122.182 E58.14241
G1 X106.105 Y122.307 E58.14863
G1 X105.917 Y122.42 E58.15592
G1 X105.804 Y122.463 E58.15995
G1 X105.594 Y122.504 E58.16706
G1 X105.468 Y122.51 E58.17126
G1 X68.49 Y122.51 E59.40115
G1 X68.49 Y112.49 E59.73442
G1 X71.51 Y112.49 E59.83486
G1 X71.51 Y119.49 E60.06768
G1 X77.49 Y119.49 E60.26658
G1 X77.49 Y112.49 E60.4994
G1 X157.51 Y112.49 E63.16088
G1 X157.51 Y119.49 E63.3937
G1 X163.49 Y119.49 E63.59259
G1 X163.49 Y112.49 E63.82541
G1 X166.51 Y112.49 E63.92586
G1 X166.51 Y122.51 E64.25913
G1 X129.532 Y122.51 E65.48902
G1 X129.406 Y122.504 E65.49321
G1 X129.196 Y122.463 E65.50033
G1 X129.083 Y122.42 E65.50435
G1 X128.895 Y122.307 E65.51165
G1 X128.818 Y122.244 E65.51496
G1 X128.756 Y122.182 E65.51787
G1 X128.69 Y122.101 E65.52135
G1 X128.623 Y121.999 E65.52541
G1 X128.542 Y121.817 E65.53203
G1 X128.515 Y121.715 E65.53554
G1 X128.496 Y121.596 E65.53955
G1 X128.49 Y121.468 E65.54381
G1 X128.49 Y116.51 E65.70872
M204 S5000
M205 X30 Y30
G0 F3600 X157.872 Y119.128
G0 X163.128 Y119.128
G0 X166.329 Y113.154
M204 S500
M205 X20 Y20
G1 F1800 X165.844 Y112.669 E65.73153
M204 S5000
M205 X30 Y30
G0 F3600 X165.278 Y112.669
M204 S500
M205 X20 Y20
G1 F1800 X166.329 Y113.72 E65.78097
M204 S5000
M205 X30 Y30
G0 F3600 X166.329 Y114.286
M204 S500
M205 X20 Y20
G1 F1800 X164.712 Y112.669 E65.85702
M204 S5000
M205 X30 Y30
G0 F3600 X164.147 Y112.669
M204 S500
M205 X20 Y20
G1 F1800 X166.329 Y114.851 E65.95966
M204 S5000
M205 X30 Y30
G0 F3600 X166.329 Y115.417
M204 S500
M205 X20 Y20
G1 F1800 X163.669 Y112.757 E66.08478
M204 S5000
M205 X30 Y30
G0 F3600 X163.669 Y113.323
M204 S500
M205 X20 Y20
G1 F1800 X166.329 Y115.983 E66.2099
M204 S5000
M205 X30 Y30
G0 F3600 X166.329 Y116.548
M204 S500
M205 X20 Y20
G1 F1800 X163.669 Y113.888 E66.33501
M204 S5000
M205 X30 Y30
G0 F3600 X163.669 Y114.454
M204 S500
M205 X20 Y20
G1 F1800 X166.329 Y117.114 E66.46013
M204 S5000
M205 X30 Y30
G0 F3600 X166.329 Y117.68
M204 S500
M205 X20 Y20
G1 F1800 X163.669 Y115.02 E66.58525
M204 S5000
M205 X30 Y30
G0 F3600 X163.669 Y115.585
M204 S500
M205 X20 Y20
G1 F1800 X166.329 Y118.245 E66.71037
M204 S5000
M205 X30 Y30
G0 F3600 X166.329 Y118.811
M204 S500
M205 X20 Y20
G1 F1800 X163.669 Y116.151 E66.83549
M204 S5000
M205 X30 Y30
G0 F3600 X163.669 Y116.717
M204 S500
M205 X20 Y20
G1 F1800 X166.329 Y119.377 E66.9606
M204 S5000
M205 X30 Y30
G0 F3600 X166.329 Y119.942
M204 S500
M205 X20 Y20
G1 F1800 X163.669 Y117.282 E67.08572
M204 S5000
M205 X30 Y30
G0 F3600 X163.669 Y117.848
M204 S500
M205 X20 Y20
G1 F1800 X166.329 Y120.508 E67.21084
M204 S5000
M205 X30 Y30
G0 F3600 X166.329 Y121.074
M204 S500
M205 X20 Y20
G1 F1800 X163.669 Y118.414 E67.33596
M204 S5000
M205 X30 Y30
G0 F3600 X163.669 Y118.979
M204 S500
M205 X20 Y20
G1 F1800 X166.329 Y121.64 E67.4611
M204 S5000
M205 X30 Y30
G0 F3600 X166.329 Y122.205
M204 S500
M205 X20 Y20
G1 F1800 X163.669 Y119.545 E67.58622
M204 S5000
M205 X30 Y30
G0 F3600 X163.227 Y119.67
M204 S500
M205 X20 Y20
