;FLAVOR:Marlin
;TIME:6111
;Filament used: 8.02843m
;Layer height: 0.3
;Generated with Cura_SteamEngine 3.6.0
M140 S60
M105
M190 S60
M104 S200
M105
M109 S200
M82 ;absolute extrusion mode
; Ender 3 Custom Start G-code
G28 ; Home all axes
G92 E0 ; Reset Extruder
G1 Z2.0 F3000 ; Move Z Axis up little to prevent scratching of Heat Bed
G1 X0.1 Y20 Z0.3 F5000.0 ; Move to start position
G1 X0.1 Y200.0 Z0.3 F1500.0 E15 ; Draw the first line
G1 X0.4 Y200.0 Z0.3 F5000.0 ; Move to side a little
G1 X0.4 Y20 Z0.3 F1500.0 E30 ; Draw the second line
G92 E0 ; Reset Extruder
G1 Z2.0 F3000 ; Move Z Axis up little to prevent scratching of Heat Bed
; End of custom start GCode
G92 E0
G1 F2400 E-5
;LAYER_COUNT:14
;LAYER:0
M107
M204 S5000
M205 X30 Y30
G0 F3600 X70.419 Y63.157 Z0.2
M204 S500
M205 X20 Y20
;TYPE:SKIRT
G1 F2400 E0
G1 F1800 X70.934 Y62.66 E0.0238
G1 X71.501 Y62.225 E0.04757
G1 X72.113 Y61.855 E0.07136
G1 X72.763 Y61.555 E0.09517
G1 X73.442 Y61.331 E0.11895
G1 X74.141 Y61.183 E0.14272
G1 X75.111 Y61.109 E0.17507
G1 X159.894 Y61.11 E2.99497
G1 X160.608 Y61.15 E3.01875
G1 X161.313 Y61.269 E3.04253
G1 X162.001 Y61.467 E3.06634
G1 X162.662 Y61.74 E3.09013
G1 X163.289 Y62.085 E3.11393
G1 X163.873 Y62.497 E3.1377
G1 X164.407 Y62.972 E3.16147
G1 X164.886 Y63.504 E3.18528
G1 X165.301 Y64.086 E3.20906
G1 X165.65 Y64.711 E3.23287
G1 X165.993 Y65.572 E3.26369
G1 X167.932 Y71.673 E3.47661
G1 X169.829 Y76.587 E3.65181
G1 X172.017 Y81.419 E3.82823
G1 X174.478 Y86.13 E4.00501
G1 X177.18 Y90.654 E4.18028
G1 X180.147 Y95.039 E4.35637
G1 X183.362 Y99.259 E4.53282
G1 X186.803 Y103.278 E4.70879
G1 X190.498 Y107.132 E4.88637
G1 X192.34 Y108.895 E4.97118
G1 X196.354 Y112.426 E5.14899
G1 X200.529 Y115.7 E5.32545
G1 X204.179 Y118.275 E5.47402
G1 X204.74 Y118.72 E5.49784
G1 X205.247 Y119.224 E5.52162
G1 X205.695 Y119.782 E5.54542
G1 X206.078 Y120.386 E5.5692
G1 X206.392 Y121.029 E5.59301
G1 X206.631 Y121.703 E5.61679
G1 X206.794 Y122.399 E5.64057
G1 X206.878 Y123.109 E5.66434
G1 X206.89 Y123.505 E5.67752
G1 X206.89 Y167.491 E7.1405
G1 X206.85 Y168.205 E7.16429
G1 X206.731 Y168.91 E7.18807
G1 X206.533 Y169.598 E7.21188
G1 X206.26 Y170.259 E7.23567
G1 X205.916 Y170.886 E7.25945
G1 X205.503 Y171.47 E7.28324
G1 X205.028 Y172.004 E7.30701
G1 X204.496 Y172.483 E7.33082
G1 X203.914 Y172.898 E7.3546
G1 X203.289 Y173.247 E7.37841
G1 X202.629 Y173.523 E7.4022
G1 X201.943 Y173.724 E7.42598
G1 X201.238 Y173.847 E7.44978
G1 X200.489 Y173.891 E7.47473
G1 X129.303 Y173.88 E9.84239
G1 X128.627 Y173.844 E9.8649
G1 X126.48 Y173.616 E9.93672
G1 X121.126 Y173.255 E10.11519
G1 X115.824 Y173.2 E10.29155
G1 X110.512 Y173.444 E10.46841
G1 X105.984 Y173.866 E10.61967
G1 X105.389 Y173.894 E10.63948
G1 X34.508 Y173.878 E12.99699
G1 X33.793 Y173.838 E13.02081
G1 X33.088 Y173.718 E13.0446
G1 X32.401 Y173.521 E13.06837
G1 X31.74 Y173.248 E13.09215
G1 X31.113 Y172.903 E13.11595
G1 X30.529 Y172.49 E13.13975
G1 X29.995 Y172.015 E13.16352
G1 X29.517 Y171.482 E13.18733
G1 X29.101 Y170.9 E13.21112
G1 X28.753 Y170.276 E13.23489
G1 X28.477 Y169.616 E13.25868
G1 X28.276 Y168.929 E13.28249
G1 X28.153 Y168.225 E13.30626
G1 X28.109 Y167.478 E13.33115
G1 X28.11 Y123.505 E14.79369
G1 X28.15 Y122.791 E14.81748
G1 X28.269 Y122.085 E14.84129
G1 X28.467 Y121.398 E14.86507
G1 X28.74 Y120.737 E14.88886
G1 X29.085 Y120.11 E14.91266
G1 X29.497 Y119.526 E14.93643
G1 X29.973 Y118.992 E14.96022
G1 X30.785 Y118.301 E14.99569
G1 X35.608 Y114.849 E15.19295
G1 X39.729 Y111.516 E15.36924
G1 X43.678 Y107.937 E15.5465
G1 X45.496 Y106.143 E15.63145
G1 X49.141 Y102.226 E15.80941
G1 X52.52 Y98.155 E15.98538
G1 X55.665 Y93.898 E16.16142
G1 X58.566 Y89.468 E16.33754
G1 X61.208 Y84.888 E16.5134
G1 X63.594 Y80.15 E16.68984
G1 X65.696 Y75.318 E16.8651
G1 X67.539 Y70.323 E17.04218
G1 X68.998 Y65.614 E17.20615
G1 X69.247 Y64.944 E17.22992
G1 X69.57 Y64.306 E17.25371
G1 X69.962 Y63.708 E17.27749
G1 X70.419 Y63.157 E17.3013
M204 S5000
M205 X30 Y30
G0 F3600 X70.772 Y63.365
M204 S500
M205 X20 Y20
G1 F1800 X71.279 Y62.892 E17.32436
G1 X71.836 Y62.482 E17.34736
G1 X72.437 Y62.138 E17.3704
G1 X73.074 Y61.865 E17.39345
G1 X73.738 Y61.668 E17.41648
G1 X74.42 Y61.549 E17.43951
G1 X75.111 Y61.509 E17.46253
G1 X159.894 Y61.51 E20.28243
G1 X160.585 Y61.55 E20.30545
G1 X161.268 Y61.669 E20.32851
G1 X161.931 Y61.867 E20.35152
G1 X162.568 Y62.139 E20.37456
G1 X163.169 Y62.483 E20.39759
G1 X163.727 Y62.894 E20.42064
G1 X164.233 Y63.366 E20.44365
G1 X164.682 Y63.894 E20.46671
G1 X165.067 Y64.47 E20.48975
G1 X165.382 Y65.086 E20.51276
G1 X165.612 Y65.693 E20.53435
G1 X167.555 Y71.807 E20.74772
G1 X169.465 Y76.753 E20.92407
G1 X171.658 Y81.598 E21.10095
G1 X174.118 Y86.307 E21.27766
G1 X176.851 Y90.882 E21.45491
G1 X179.827 Y95.28 E21.63153
G1 X183.04 Y99.497 E21.80786
G1 X186.51 Y103.55 E21.98532
G1 X190.204 Y107.403 E22.16285
G1 X192.07 Y109.19 E22.24878
G1 X196.097 Y112.732 E22.42716
G1 X200.294 Y116.024 E22.60457
G1 X203.949 Y118.602 E22.75334
G1 X204.491 Y119.034 E22.77639
G1 X204.979 Y119.524 E22.79939
G1 X205.408 Y120.068 E22.82243
G1 X205.771 Y120.658 E22.84547
G1 X206.064 Y121.285 E22.86849
G1 X206.283 Y121.942 E22.89152
G1 X206.424 Y122.62 E22.91456
G1 X206.49 Y123.505 E22.94407
G1 X206.49 Y167.491 E24.40705
G1 X206.45 Y168.182 E24.43008
G1 X206.331 Y168.865 E24.45313
G1 X206.133 Y169.528 E24.47615
G1 X205.861 Y170.165 E24.49919
G1 X205.517 Y170.766 E24.52222
G1 X205.106 Y171.324 E24.54527
G1 X204.634 Y171.83 E24.56828
G1 X204.106 Y172.279 E24.59134
G1 X203.531 Y172.664 E24.61435
G1 X202.914 Y172.979 E24.63739
G1 X202.266 Y173.222 E24.66041
G1 X201.593 Y173.389 E24.68347
G1 X200.907 Y173.477 E24.70648
G1 X200.489 Y173.491 E24.72039
G1 X129.303 Y173.48 E27.08804
G1 X128.669 Y173.446 E27.10916
G1 X126.497 Y173.215 E27.18181
G1 X121.158 Y172.855 E27.35979
G1 X115.828 Y172.8 E27.53707
G1 X110.476 Y173.046 E27.71527
G1 X105.946 Y173.468 E27.86659
G1 X105.389 Y173.494 E27.88514
G1 X34.508 Y173.478 E30.24265
G1 X33.816 Y173.438 E30.2657
G1 X33.134 Y173.318 E30.28874
G1 X32.47 Y173.121 E30.31177
G1 X31.834 Y172.849 E30.33478
G1 X31.233 Y172.504 E30.35783
G1 X30.675 Y172.093 E30.38088
G1 X30.169 Y171.621 E30.40389
G1 X29.72 Y171.093 E30.42694
G1 X29.336 Y170.517 E30.44997
G1 X29.02 Y169.901 E30.473
G1 X28.777 Y169.252 E30.49605
G1 X28.611 Y168.58 E30.51907
G1 X28.523 Y167.893 E30.5421
G1 X28.509 Y167.478 E30.55592
G1 X28.51 Y123.505 E32.01846
G1 X28.55 Y122.813 E32.04152
G1 X28.669 Y122.131 E32.06454
G1 X28.867 Y121.467 E32.08759
G1 X29.139 Y120.831 E32.1106
G1 X29.483 Y120.23 E32.13363
G1 X29.894 Y119.672 E32.15668
G1 X30.366 Y119.166 E32.17969
G1 X31.018 Y118.626 E32.20785
G1 X35.856 Y115.163 E32.40574
G1 X39.987 Y111.823 E32.58243
G1 X43.957 Y108.225 E32.76063
G1 X45.775 Y106.429 E32.84563
G1 X49.44 Y102.491 E33.02455
G1 X52.836 Y98.401 E33.20137
G1 X55.998 Y94.121 E33.37836
G1 X58.897 Y89.694 E33.55436
G1 X61.565 Y85.067 E33.73201
G1 X63.957 Y80.317 E33.90889
G1 X66.067 Y75.467 E34.08481
G1 X67.919 Y70.448 E34.26274
G1 X69.38 Y65.733 E34.42692
G1 X69.623 Y65.084 E34.44997
G1 X69.939 Y64.468 E34.473
G1 X70.324 Y63.892 E34.49604
G1 X70.772 Y63.365 E34.51905
M204 S5000
M205 X30 Y30
G0 F3600 X71.125 Y63.576
M204 S500
M205 X20 Y20
G1 F1800 X71.622 Y63.129 E34.54128
G1 X72.17 Y62.744 E34.56355
G1 X72.759 Y62.427 E34.5858
G1 X73.382 Y62.183 E34.60805
G1 X74.029 Y62.014 E34.6303
G1 X74.692 Y61.925 E34.65254
G1 X75.111 Y61.909 E34.66649
G1 X159.894 Y61.91 E37.48639
G1 X160.562 Y61.95 E37.50864
G1 X161.22 Y62.069 E37.53088
G1 X161.86 Y62.266 E37.55315
G1 X162.471 Y62.538 E37.5754
G1 X163.045 Y62.881 E37.59764
G1 X163.575 Y63.29 E37.61991
G1 X164.052 Y63.759 E37.64216
G1 X164.47 Y64.282 E37.66442
G1 X164.822 Y64.85 E37.68665
G1 X165.104 Y65.457 E37.70891
G1 X165.231 Y65.814 E37.72151
G1 X167.178 Y71.941 E37.93534
G1 X169.095 Y76.905 E38.11233
G1 X171.303 Y81.784 E38.29045
G1 X173.77 Y86.505 E38.46761
G1 X176.506 Y91.085 E38.64506
G1 X179.501 Y95.512 E38.82283
G1 X182.733 Y99.754 E39.0002
G1 X186.209 Y103.814 E39.17797
G1 X189.921 Y107.686 E39.35637
G1 X191.8 Y109.485 E39.4429
G1 X195.85 Y113.048 E39.62231
G1 X200.056 Y116.346 E39.80008
G1 X203.718 Y118.929 E39.94913
G1 X204.241 Y119.347 E39.9714
G1 X204.71 Y119.824 E39.99364
G1 X205.119 Y120.353 E40.01588
G1 X205.462 Y120.928 E40.03815
G1 X205.734 Y121.539 E40.0604
G1 X205.931 Y122.179 E40.08267
G1 X206.05 Y122.837 E40.10491
G1 X206.09 Y123.505 E40.12717
G1 X206.09 Y167.491 E41.59015
G1 X206.05 Y168.159 E41.61241
G1 X205.931 Y168.817 E41.63465
G1 X205.734 Y169.457 E41.65692
G1 X205.462 Y170.068 E41.67916
G1 X205.119 Y170.642 E41.7014
G1 X204.71 Y171.172 E41.72367
G1 X204.241 Y171.649 E41.74592
G1 X203.719 Y172.067 E41.76816
G1 X203.15 Y172.419 E41.79041
G1 X202.543 Y172.701 E41.81268
G1 X201.907 Y172.909 E41.83493
G1 X201.251 Y173.039 E41.85717
G1 X200.489 Y173.091 E41.88258
G1 X129.303 Y173.08 E44.25023
G1 X128.712 Y173.049 E44.26992
G1 X126.516 Y172.815 E44.34337
G1 X121.171 Y172.455 E44.52155
G1 X115.813 Y172.4 E44.69977
G1 X110.464 Y172.646 E44.87786
G1 X105.909 Y173.07 E45.03002
G1 X105.389 Y173.094 E45.04733
G1 X34.508 Y173.078 E47.40484
G1 X33.84 Y173.038 E47.4271
G1 X33.182 Y172.918 E47.44935
G1 X32.542 Y172.721 E47.47162
G1 X31.931 Y172.449 E47.49386
G1 X31.357 Y172.106 E47.5161
G1 X30.827 Y171.697 E47.53837
G1 X30.35 Y171.228 E47.56062
G1 X29.933 Y170.706 E47.58284
G1 X29.58 Y170.137 E47.60511
G1 X29.298 Y169.53 E47.62737
G1 X29.091 Y168.894 E47.64962
G1 X28.961 Y168.238 E47.67186
G1 X28.909 Y167.478 E47.6972
G1 X28.91 Y123.505 E49.15975
G1 X28.95 Y122.837 E49.182
G1 X29.069 Y122.179 E49.20424
G1 X29.266 Y121.539 E49.22652
G1 X29.538 Y120.928 E49.24876
G1 X29.881 Y120.354 E49.271
G1 X30.29 Y119.824 E49.29327
G1 X30.759 Y119.347 E49.31552
G1 X31.251 Y118.951 E49.33652
G1 X36.095 Y115.484 E49.53465
G1 X40.251 Y112.123 E49.71242
G1 X44.224 Y108.522 E49.89077
G1 X46.078 Y106.692 E49.97741
G1 X49.734 Y102.764 E50.15589
G1 X53.157 Y98.64 E50.33415
G1 X56.316 Y94.364 E50.51097
G1 X59.248 Y89.887 E50.68897
G1 X61.919 Y85.255 E50.86681
G1 X64.318 Y80.493 E51.04415
G1 X66.433 Y75.629 E51.22056
G1 X68.299 Y70.573 E51.39981
G1 X69.762 Y65.851 E51.56423
G1 X69.998 Y65.225 E51.58649
G1 X70.307 Y64.632 E51.60873
G1 X70.684 Y64.079 E51.63099
G1 X71.125 Y63.576 E51.65324
M204 S5000
M205 X30 Y30
G0 F3600 X71.476 Y63.791
M204 S500
M205 X20 Y20
G1 F1800 X71.964 Y63.369 E51.67469
G1 X72.5 Y63.012 E51.69611
G1 X73.077 Y62.723 E51.71758
G1 X73.685 Y62.508 E51.73903
G1 X74.315 Y62.37 E51.76048
G1 X75.111 Y62.309 E51.78703
G1 X159.894 Y62.31 E54.60692
G1 X160.537 Y62.35 E54.62835
G1 X161.171 Y62.469 E54.64981
G1 X161.785 Y62.666 E54.67125
G1 X162.37 Y62.937 E54.6927
G1 X162.917 Y63.279 E54.71415
G1 X163.417 Y63.685 E54.73558
G1 X163.863 Y64.151 E54.75703
G1 X164.248 Y64.667 E54.77844
G1 X164.567 Y65.228 E54.79991
G1 X164.85 Y65.935 E54.82524
G1 X166.801 Y72.075 E55.03951
G1 X168.731 Y77.072 E55.21768
G1 X170.935 Y81.941 E55.39544
G1 X173.422 Y86.702 E55.5741
G1 X176.17 Y91.301 E55.75229
G1 X179.176 Y95.745 E55.93073
G1 X182.427 Y100.011 E56.10913
G1 X185.907 Y104.077 E56.28713
G1 X189.639 Y107.969 E56.46648
G1 X191.543 Y109.792 E56.55415
G1 X195.585 Y113.348 E56.73321
G1 X199.819 Y116.668 E56.91216
G1 X203.488 Y119.256 E57.0615
G1 X203.99 Y119.66 E57.08293
G1 X204.439 Y120.122 E57.10436
G1 X204.828 Y120.637 E57.12582
G1 X205.149 Y121.196 E57.14726
G1 X205.399 Y121.79 E57.1687
G1 X205.574 Y122.411 E57.19016
G1 X205.67 Y123.048 E57.21158
G1 X205.69 Y123.505 E57.2268
G1 X205.69 Y167.491 E58.68978
G1 X205.65 Y168.134 E58.71121
G1 X205.531 Y168.768 E58.73266
G1 X205.334 Y169.382 E58.75411
G1 X205.063 Y169.967 E58.77555
G1 X204.721 Y170.514 E58.79701
G1 X204.315 Y171.014 E58.81843
G1 X203.85 Y171.46 E58.83986
G1 X203.333 Y171.845 E58.8613
G1 X202.772 Y172.164 E58.88276
G1 X202.176 Y172.41 E58.90421
G1 X201.555 Y172.581 E58.92563
G1 X200.917 Y172.673 E58.94707
G1 X200.489 Y172.691 E58.96132
G1 X129.303 Y172.68 E61.32898
G1 X128.754 Y172.651 E61.34726
G1 X126.559 Y172.417 E61.42068
G1 X121.185 Y172.056 E61.59982
G1 X115.817 Y172 E61.77837
G1 X110.43 Y172.247 E61.95773
G1 X105.872 Y172.672 E62.10999
G1 X105.389 Y172.694 E62.12607
G1 X34.508 Y172.678 E64.48359
G1 X33.864 Y172.638 E64.50505
G1 X33.231 Y172.518 E64.52647
G1 X32.617 Y172.322 E64.54791
G1 X32.032 Y172.05 E64.56937
G1 X31.486 Y171.709 E64.59078
G1 X30.985 Y171.302 E64.61225
G1 X30.539 Y170.837 E64.63368
G1 X30.154 Y170.32 E64.65512
G1 X29.836 Y169.759 E64.67657
G1 X29.59 Y169.163 E64.69801
G1 X29.419 Y168.541 E64.71947
G1 X29.326 Y167.903 E64.74091
G1 X29.309 Y167.478 E64.75506
G1 X29.31 Y123.505 E66.21761
G1 X29.35 Y122.861 E66.23907
G1 X29.469 Y122.228 E66.26049
G1 X29.666 Y121.614 E66.28194
G1 X29.937 Y121.029 E66.30338
G1 X30.279 Y120.482 E66.32484
G1 X30.685 Y119.982 E66.34626
G1 X31.151 Y119.536 E66.36771
G1 X31.483 Y119.277 E66.38172
G1 X36.339 Y115.801 E66.58034
G1 X40.507 Y112.431 E66.75862
G1 X44.503 Y108.809 E66.938
G1 X46.346 Y106.99 E67.02412
G1 X50.051 Y103.009 E67.205
G1 X53.463 Y98.899 E67.38267
G1 X56.65 Y94.583 E67.56111
G1 X59.583 Y90.105 E67.73916
G1 X62.273 Y85.442 E67.9182
G1 X64.674 Y80.675 E68.09573
G1 X66.816 Y75.748 E68.27442
G1 X68.673 Y70.715 E68.45285
G1 X70.144 Y65.97 E68.61808
G1 X70.373 Y65.367 E68.63953
G1 X70.674 Y64.797 E68.66097
G1 X71.044 Y64.269 E68.68241
G1 X71.476 Y63.791 E68.70384
M204 S5000
M205 X30 Y30
G1 F2400 E63.70384
;MESH:dupont-organizer_plate20190316-55-1k9w5m6.stl
G0 F3600 X75.709 Y66.835
G0 X75.709 Y68.109
G0 X159.205 Y73.905
G0 X159.295 Y73.905
M204 S500
M205 X20 Y20
;TYPE:WALL-INNER
G1 F2400 E68.70384
G1 F1800 X154.105 Y73.905 E68.87646
G1 X154.105 Y85.252 E69.25387
G1 X154.149 Y85.333 E69.25693
G1 X154.193 Y85.412 E69.25994
G1 X154.193 Y91.188 E69.45205
G1 X154.151 Y91.265 E69.45497
G1 X154.1 Y91.358 E69.4585
G1 X154.05 Y91.266 E69.45927
G1 X154.007 Y91.187 E69.46034
G1 X154.007 Y85.412 E69.54964
G1 X154.05 Y85.334 E69.55082
G1 X154.095 Y85.252 E69.55158
G1 X154.095 Y73.905 E69.56101
G1 X150.705 Y73.905 E69.67376
G1 X150.705 Y85.252 E70.05117
G1 X150.749 Y85.333 E70.05423
G1 X150.793 Y85.412 E70.05724
G1 X150.793 Y91.188 E70.24935
G1 X150.751 Y91.265 E70.25227
G1 X150.7 Y91.358 E70.2558
G1 X150.65 Y91.266 E70.25657
G1 X150.607 Y91.187 E70.25764
G1 X150.607 Y85.412 E70.34694
G1 X150.65 Y85.334 E70.34812
G1 X150.695 Y85.252 E70.34888
G1 X150.695 Y73.905 E70.35831
G1 X147.305 Y73.905 E70.47106
G1 X147.305 Y85.252 E70.84847
G1 X147.349 Y85.333 E70.85153
G1 X147.393 Y85.412 E70.85454
G1 X147.393 Y91.188 E71.04665
G1 X147.351 Y91.265 E71.04957
G1 X147.3 Y91.358 E71.0531
G1 X147.25 Y91.266 E71.05387
G1 X147.207 Y91.187 E71.05494
G1 X147.207 Y85.412 E71.14424
G1 X147.25 Y85.334 E71.14542
G1 X147.295 Y85.252 E71.14618
G1 X147.295 Y73.905 E71.15561
G1 X143.905 Y73.905 E71.26836
G1 X143.905 Y85.252 E71.64577
G1 X143.949 Y85.333 E71.64883
G1 X143.993 Y85.412 E71.65184
G1 X143.993 Y91.188 E71.84395
G1 X143.951 Y91.265 E71.84687
G1 X143.9 Y91.358 E71.8504
G1 X143.85 Y91.266 E71.85117
G1 X143.807 Y91.187 E71.85224
G1 X143.807 Y85.412 E71.94154
G1 X143.85 Y85.334 E71.94272
G1 X143.895 Y85.252 E71.94348
G1 X143.895 Y73.905 E71.95291
G1 X140.505 Y73.905 E72.06566
G1 X140.505 Y85.252 E72.44307
G1 X140.549 Y85.333 E72.44613
G1 X140.593 Y85.412 E72.44914
G1 X140.593 Y91.188 E72.64125
G1 X140.551 Y91.265 E72.64417
G1 X140.5 Y91.358 E72.6477
G1 X140.45 Y91.266 E72.64847
G1 X140.407 Y91.187 E72.64954
G1 X140.407 Y85.412 E72.73884
G1 X140.45 Y85.334 E72.74002
G1 X140.495 Y85.252 E72.74078
G1 X140.495 Y73.905 E72.75021
G1 X137.105 Y73.905 E72.86296
G1 X137.105 Y85.252 E73.24037
G1 X137.149 Y85.333 E73.24343
G1 X137.193 Y85.412 E73.24644
G1 X137.193 Y91.188 E73.43855
G1 X137.151 Y91.265 E73.44147
G1 X137.1 Y91.358 E73.445
G1 X137.05 Y91.266 E73.44577
G1 X137.007 Y91.187 E73.44684
G1 X137.007 Y85.412 E73.53614
G1 X137.05 Y85.334 E73.53732
G1 X137.095 Y85.252 E73.53808
G1 X137.095 Y73.905 E73.54751
G1 X133.705 Y73.905 E73.66026
G1 X133.705 Y85.252 E74.03767
G1 X133.749 Y85.333 E74.04073
G1 X133.793 Y85.412 E74.04374
G1 X133.793 Y91.188 E74.23585
G1 X133.751 Y91.265 E74.23877
G1 X133.7 Y91.358 E74.2423
