;FLAVOR:Marlin
;TIME:1724
;Filament used: 2.7214m
;Layer height: 0.3
;Generated with Cura_SteamEngine 3.6.0
M140 S60
M105
M190 S60
M104 S200
M105
M109 S200
M82 ;absolute extrusion mode
; Ender 3 Custom Start G-code
G28 ; Home all axes
G92 E0 ; Reset Extruder
G1 Z2.0 F3000 ; Move Z Axis up little to prevent scratching of Heat Bed
G1 X0.1 Y20 Z0.3 F5000.0 ; Move to start position
G1 X0.1 Y200.0 Z0.3 F1500.0 E15 ; Draw the first line
G1 X0.4 Y200.0 Z0.3 F5000.0 ; Move to side a little
G1 X0.4 Y20 Z0.3 F1500.0 E30 ; Draw the second line
G92 E0 ; Reset Extruder
G1 Z2.0 F3000 ; Move Z Axis up little to prevent scratching of Heat Bed
; End of custom start GCode
G92 E0
G1 F2400 E-5
;LAYER_COUNT:34
;LAYER:0
M107
M204 S5000
M205 X30 Y30
G0 F3600 X66.222 Y105.976 Z0.2
M204 S500
M205 X20 Y20
;TYPE:SKIRT
G1 F2400 E0
G1 F1800 X66.844 Y105.622 E0.0238
G1 X67.501 Y105.34 E0.04758
G1 X68.186 Y105.133 E0.07138
G1 X68.889 Y105.004 E0.09516
G1 X69.455 Y104.957 E0.11405
G1 X71.49 Y104.881 E0.18178
G1 X76.82 Y104.504 E0.3595
G1 X82.081 Y103.833 E0.5359
G1 X87.326 Y102.86 E0.71332
G1 X89.802 Y102.29 E0.79783
G1 X94.977 Y100.866 E0.97635
G1 X100.03 Y99.163 E1.1537
G1 X102.432 Y98.238 E1.23931
G1 X104.865 Y97.222 E1.327
G1 X109.707 Y94.953 E1.50485
G1 X114.35 Y92.464 E1.68007
G1 X114.998 Y92.161 E1.70386
G1 X115.676 Y91.933 E1.72765
G1 X116.266 Y91.801 E1.74776
G1 X116.431 Y91.772 E1.75334
G1 X117.141 Y91.687 E1.77712
G1 X117.857 Y91.683 E1.80093
G1 X118.568 Y91.758 E1.82471
G1 X119.266 Y91.913 E1.84849
G1 X119.943 Y92.144 E1.87229
G1 X120.603 Y92.456 E1.89657
G1 X123.421 Y93.993 E2.00333
G1 X128.218 Y96.369 E2.18138
G1 X133.081 Y98.445 E2.35724
G1 X138.124 Y100.268 E2.53559
G1 X140.527 Y101.023 E2.61937
G1 X145.763 Y102.429 E2.79969
G1 X148.234 Y102.979 E2.88389
G1 X153.507 Y103.923 E3.06206
G1 X158.745 Y104.558 E3.23755
G1 X165.812 Y105.01 E3.47308
G1 X166.522 Y105.095 E3.49686
G1 X167.219 Y105.26 E3.52068
G1 X167.892 Y105.5 E3.54445
G1 X168.535 Y105.815 E3.56826
G1 X169.138 Y106.199 E3.59204
G1 X169.695 Y106.648 E3.61584
G1 X170.198 Y107.157 E3.63964
G1 X170.513 Y107.542 E3.65618
G1 X172.008 Y109.524 E3.73876
G1 X175.406 Y113.692 E3.91761
G1 X178.99 Y117.612 E4.09427
G1 X180.815 Y119.456 E4.18056
G1 X181.289 Y119.992 E4.20436
G1 X181.7 Y120.577 E4.22814
G1 X182.044 Y121.205 E4.25196
G1 X182.315 Y121.867 E4.27575
G1 X182.514 Y122.573 E4.30015
G1 X182.563 Y122.794 E4.30768
G1 X182.679 Y123.5 E4.33147
G1 X182.715 Y124.214 E4.35525
G1 X182.671 Y124.928 E4.37904
G1 X182.548 Y125.632 E4.40281
G1 X182.347 Y126.319 E4.42662
G1 X181.94 Y127.231 E4.45984
G1 X181.889 Y127.325 E4.46339
G1 X181.514 Y127.934 E4.48718
G1 X181.072 Y128.497 E4.51099
G1 X180.571 Y129.007 E4.53477
G1 X180.016 Y129.458 E4.55855
G1 X179.414 Y129.844 E4.58234
G1 X178.773 Y130.161 E4.60612
G1 X178.1 Y130.404 E4.62992
G1 X177.404 Y130.571 E4.65373
G1 X176.762 Y130.654 E4.67526
G1 X175.531 Y130.75 E4.71632
G1 X175.07 Y130.769 E4.73167
G1 X168.307 Y130.808 E4.95661
G1 X162.995 Y131.109 E5.13357
G1 X157.745 Y131.705 E5.30931
G1 X152.52 Y132.601 E5.48563
G1 X147.338 Y133.794 E5.66249
G1 X144.868 Y134.472 E5.74769
G1 X139.757 Y136.117 E5.92627
G1 X134.831 Y138.013 E6.10182
G1 X129.991 Y140.201 E6.27849
G1 X125.273 Y142.618 E6.4548
G1 X124.62 Y142.908 E6.47857
G1 X123.937 Y143.123 E6.50238
G1 X123.236 Y143.261 E6.52614
G1 X122.265 Y143.321 E6.5585
G1 X115.557 Y143.227 E6.78163
G1 X112.67 Y143.29 E6.87768
G1 X111.955 Y143.266 E6.90147
G1 X111.247 Y143.162 E6.92527
G1 X110.555 Y142.98 E6.94907
G1 X109.605 Y142.585 E6.98329
G1 X104.227 Y139.823 E7.18437
G1 X99.379 Y137.687 E7.36058
G1 X94.411 Y135.825 E7.53704
G1 X89.375 Y134.257 E7.71247
G1 X84.171 Y132.952 E7.89091
G1 X81.684 Y132.443 E7.97534
G1 X76.4 Y131.587 E8.15338
G1 X71.158 Y131.04 E8.32868
G1 X65.803 Y130.786 E8.50699
G1 X58.76 Y130.726 E8.74125
G1 X58.046 Y130.68 E8.76504
G1 X57.342 Y130.554 E8.78883
G1 X56.656 Y130.351 E8.81262
G1 X55.997 Y130.073 E8.83641
G1 X55.373 Y129.722 E8.86023
G1 X54.793 Y129.305 E8.88398
G1 X54.262 Y128.825 E8.90779
G1 X53.608 Y128.049 E8.94155
G1 X53.475 Y127.863 E8.94915
G1 X53.092 Y127.258 E8.97297
G1 X52.779 Y126.615 E8.99675
G1 X52.54 Y125.941 E9.02054
G1 X52.377 Y125.245 E9.04431
G1 X52.293 Y124.534 E9.06812
G1 X52.289 Y123.819 E9.09191
G1 X52.378 Y123.028 E9.11838
G1 X52.402 Y122.892 E9.12297
G1 X52.566 Y122.195 E9.14679
G1 X52.806 Y121.522 E9.17055
G1 X53.12 Y120.879 E9.19435
G1 X53.503 Y120.275 E9.21814
G1 X54.147 Y119.512 E9.25135
G1 X55.831 Y117.803 E9.33115
G1 X59.48 Y113.832 E9.51052
G1 X62.888 Y109.673 E9.68936
G1 X64.646 Y107.418 E9.78446
G1 X65.116 Y106.88 E9.80822
G1 X65.644 Y106.397 E9.83202
G1 X66.222 Y105.976 E9.85581
M204 S5000
M205 X30 Y30
G0 F3600 X66.495 Y106.276
M204 S500
M205 X20 Y20
G1 F1800 X67.101 Y105.942 E9.87882
G1 X67.742 Y105.679 E9.90186
G1 X68.409 Y105.492 E9.9249
G1 X69.093 Y105.383 E9.94794
G1 X69.47 Y105.357 E9.96051
G1 X71.502 Y105.281 E10.02814
G1 X76.862 Y104.902 E10.20686
G1 X82.153 Y104.227 E10.38427
G1 X87.391 Y103.255 E10.56146
G1 X89.912 Y102.675 E10.6475
G1 X95.085 Y101.251 E10.82595
G1 X100.174 Y99.537 E11.00455
G1 X102.563 Y98.617 E11.0897
G1 X105.029 Y97.587 E11.17859
G1 X109.88 Y95.314 E11.35677
G1 X114.539 Y92.816 E11.53259
G1 X115.167 Y92.525 E11.55561
G1 X115.825 Y92.307 E11.57867
G1 X116.335 Y92.195 E11.59604
G1 X116.5 Y92.166 E11.60161
G1 X117.188 Y92.085 E11.62465
G1 X117.881 Y92.085 E11.6477
G1 X118.569 Y92.164 E11.67073
G1 X119.243 Y92.322 E11.69376
G1 X119.895 Y92.557 E11.71681
G1 X120.411 Y92.807 E11.73588
G1 X123.25 Y94.355 E11.84343
G1 X128.04 Y96.728 E12.02122
G1 X132.931 Y98.816 E12.1981
G1 X137.987 Y100.644 E12.37692
G1 X140.422 Y101.409 E12.46181
G1 X145.664 Y102.816 E12.64233
G1 X148.169 Y103.374 E12.72769
G1 X153.445 Y104.318 E12.90596
G1 X158.704 Y104.956 E13.08215
G1 X165.787 Y105.409 E13.31822
G1 X166.474 Y105.493 E13.34124
G1 X167.147 Y105.656 E13.36427
G1 X167.797 Y105.895 E13.3873
G1 X168.415 Y106.207 E13.41033
G1 X168.993 Y106.589 E13.43337
G1 X169.523 Y107.035 E13.45641
G1 X170.193 Y107.783 E13.48981
G1 X171.686 Y109.761 E13.57224
G1 X175.093 Y113.941 E13.75159
G1 X178.718 Y117.905 E13.93025
G1 X180.531 Y119.738 E14.016
G1 X180.989 Y120.257 E14.03903
G1 X181.384 Y120.826 E14.06206
G1 X181.71 Y121.437 E14.0851
G1 X181.965 Y122.081 E14.10814
G1 X182.124 Y122.659 E14.12807
G1 X182.173 Y122.88 E14.1356
G1 X182.283 Y123.564 E14.15865
G1 X182.315 Y124.256 E14.18169
G1 X182.266 Y124.947 E14.20473
G1 X182.138 Y125.627 E14.22774
G1 X181.932 Y126.288 E14.25077
G1 X181.589 Y127.04 E14.27826
G1 X181.538 Y127.134 E14.28182
G1 X181.173 Y127.723 E14.30486
G1 X180.743 Y128.266 E14.3279
G1 X180.253 Y128.755 E14.35092
G1 X179.71 Y129.185 E14.37396
G1 X179.121 Y129.549 E14.39699
G1 X178.494 Y129.843 E14.42002
G1 X177.837 Y130.063 E14.44307
G1 X177.159 Y130.206 E14.46611
G1 X176.73 Y130.255 E14.48048
G1 X175.499 Y130.351 E14.52154
G1 X175.068 Y130.369 E14.53589
G1 X168.283 Y130.408 E14.76157
G1 X162.979 Y130.709 E14.93826
G1 X157.684 Y131.31 E15.1155
G1 X152.437 Y132.21 E15.29257
G1 X147.257 Y133.402 E15.46936
G1 X144.73 Y134.096 E15.55652
G1 X139.632 Y135.736 E15.73464
G1 X134.687 Y137.641 E15.91089
G1 X129.807 Y139.846 E16.089
G1 X125.091 Y142.262 E16.26524
G1 X124.457 Y142.542 E16.28829
G1 X123.796 Y142.746 E16.3113
G1 X123.115 Y142.874 E16.33435
G1 X122.271 Y142.921 E16.36246
G1 X115.582 Y142.827 E16.58496
G1 X112.661 Y142.891 E16.68214
G1 X111.969 Y142.866 E16.70517
G1 X111.284 Y142.761 E16.72822
G1 X110.616 Y142.579 E16.75125
G1 X109.788 Y142.229 E16.78114
G1 X104.405 Y139.464 E16.98242
G1 X99.523 Y137.314 E17.15985
G1 X94.56 Y135.453 E17.33614
G1 X89.466 Y133.867 E17.51359
G1 X84.263 Y132.563 E17.69199
G1 X81.755 Y132.049 E17.77714
G1 X76.471 Y131.193 E17.95518
G1 X71.165 Y130.639 E18.13262
G1 X65.826 Y130.386 E18.31039
G1 X58.763 Y130.326 E18.54532
G1 X58.072 Y130.28 E18.56835
G1 X57.391 Y130.155 E18.59138
G1 X56.729 Y129.952 E18.61441
G1 X56.094 Y129.674 E18.63747
G1 X55.496 Y129.325 E18.6605
G1 X54.942 Y128.91 E18.68352
G1 X54.44 Y128.433 E18.70655
G1 X53.933 Y127.816 E18.73311
G1 X53.8 Y127.63 E18.74072
G1 X53.431 Y127.044 E18.76375
G1 X53.131 Y126.42 E18.78678
G1 X52.905 Y125.765 E18.80982
G1 X52.757 Y125.089 E18.83284
G1 X52.687 Y124.4 E18.85587
G1 X52.697 Y123.707 E18.87893
G1 X52.772 Y123.097 E18.89937
G1 X52.796 Y122.961 E18.90396
G1 X52.956 Y122.287 E18.927
G1 X53.192 Y121.636 E18.95003
G1 X53.501 Y121.017 E18.97304
G1 X53.88 Y120.437 E18.99609
G1 X54.432 Y119.792 E19.02432
G1 X56.128 Y118.071 E19.10469
G1 X59.775 Y114.102 E19.28396
G1 X63.208 Y109.912 E19.46413
G1 X64.961 Y107.664 E19.55894
G1 X65.418 Y107.143 E19.58199
G1 X65.931 Y106.679 E19.605
G1 X66.495 Y106.276 E19.62805
M204 S5000
M205 X30 Y30
G0 F3600 X66.766 Y106.579
M204 S500
M205 X20 Y20
G1 F1800 X67.356 Y106.264 E19.6503
G1 X67.98 Y106.022 E19.67256
G1 X68.628 Y105.855 E19.69482
G1 X69.485 Y105.757 E19.72351
G1 X71.515 Y105.682 E19.79107
G1 X76.907 Y105.3 E19.97086
G1 X82.205 Y104.624 E20.1485
G1 X87.462 Y103.648 E20.32634
G1 X90.033 Y103.057 E20.41408
G1 X95.198 Y101.636 E20.59225
G1 X100.305 Y99.915 E20.77149
G1 X102.712 Y98.988 E20.85728
G1 X105.193 Y97.952 E20.94671
G1 X110.067 Y95.668 E21.12573
G1 X114.728 Y93.169 E21.30164
G1 X115.335 Y92.888 E21.32388
G1 X115.972 Y92.682 E21.34615
G1 X116.405 Y92.589 E21.36088
G1 X116.57 Y92.56 E21.36645
G1 X117.234 Y92.483 E21.38868
G1 X117.903 Y92.487 E21.41094
G1 X118.567 Y92.57 E21.43319
G1 X119.216 Y92.732 E21.45544
G1 X119.841 Y92.97 E21.47768
G1 X120.22 Y93.158 E21.49176
G1 X123.061 Y94.707 E21.59938
G1 X127.885 Y97.096 E21.77842
G1 X132.795 Y99.193 E21.956
G1 X137.85 Y101.021 E22.13479
G1 X140.296 Y101.789 E22.22006
G1 X145.587 Y103.209 E22.40226
G1 X148.085 Y103.765 E22.48738
G1 X153.378 Y104.713 E22.66623
G1 X158.666 Y105.354 E22.8434
G1 X165.761 Y105.808 E23.07986
G1 X166.425 Y105.891 E23.10212
G1 X167.075 Y106.052 E23.12439
G1 X167.7 Y106.289 E23.14662
G1 X168.293 Y106.6 E23.16889
G1 X168.844 Y106.978 E23.19112
G1 X169.347 Y107.42 E23.21339
G1 X169.874 Y108.024 E23.24005
G1 X171.376 Y110.015 E23.323
G1 X174.787 Y114.199 E23.50254
G1 X178.433 Y118.187 E23.68226
G1 X180.246 Y120.019 E23.76799
G1 X180.688 Y120.522 E23.79026
G1 X181.066 Y121.074 E23.81251
G1 X181.376 Y121.667 E23.83477
G1 X181.613 Y122.292 E23.857
G1 X181.733 Y122.746 E23.87262
G1 X181.782 Y122.967 E23.88015
G1 X181.888 Y123.627 E23.90238
G1 X181.914 Y124.296 E23.92465
G1 X181.86 Y124.963 E23.94691
G1 X181.727 Y125.619 E23.96917
G1 X181.517 Y126.254 E23.99141
G1 X181.237 Y126.85 E24.01332
G1 X181.186 Y126.944 E24.01687
G1 X180.833 Y127.512 E24.03912
G1 X180.414 Y128.033 E24.06135
G1 X179.936 Y128.501 E24.0836
G1 X179.405 Y128.909 E24.10588
G1 X178.83 Y129.251 E24.12813
G1 X178.218 Y129.521 E24.15038
G1 X177.578 Y129.717 E24.17264
G1 X176.699 Y129.856 E24.20224
G1 X175.468 Y129.952 E24.2433
G1 X175.065 Y129.969 E24.25672
G1 X168.278 Y130.008 E24.48246
G1 X162.93 Y130.311 E24.66062
G1 X157.623 Y130.914 E24.83827
G1 X152.368 Y131.815 E25.0156
G1 X147.158 Y133.014 E25.19341
G1 X144.621 Y133.711 E25.28092
G1 X139.509 Y135.355 E25.45952
G1 X134.515 Y137.279 E25.63753
G1 X129.646 Y139.479 E25.81523
G1 X124.909 Y141.906 E25.99226
G1 X124.296 Y142.175 E26.01453
G1 X123.656 Y142.369 E26.03677
G1 X122.997 Y142.485 E26.05903
G1 X122.276 Y142.521 E26.08304
G1 X115.578 Y142.427 E26.30583
G1 X112.652 Y142.491 E26.40318
G1 X111.983 Y142.465 E26.42544
G1 X111.323 Y142.361 E26.44767
G1 X110.679 Y142.178 E26.46993
G1 X109.971 Y141.873 E26.49557
G1 X104.578 Y139.103 E26.69722
G1 X99.689 Y136.95 E26.8749
G1 X94.677 Y135.071 E27.05293
G1 X89.577 Y133.482 E27.2306
G1 X84.348 Y132.172 E27.40989
G1 X81.825 Y131.655 E27.49555
G1 X76.522 Y130.796 E27.67423
G1 X71.208 Y130.242 E27.85193
G1 X65.823 Y129.986 E28.03124
G1 X58.766 Y129.926 E28.26597
G1 X58.099 Y129.88 E28.2882
G1 X57.442 Y129.755 E28.31045
G1 X56.804 Y129.553 E28.3327
G1 X56.195 Y129.276 E28.35496
G1 X55.623 Y128.928 E28.37723
G1 X55.097 Y128.515 E28.39947
G1 X54.624 Y128.042 E28.42172
G1 X54.259 Y127.583 E28.44122
G1 X54.126 Y127.397 E28.44883
G1 X53.77 Y126.831 E28.47107
G1 X53.484 Y126.226 E28.49332
G1 X53.272 Y125.591 E28.51559
G1 X53.138 Y124.936 E28.53783
G1 X53.082 Y124.269 E28.56009
G1 X53.107 Y123.601 E28.58232
G1 X53.166 Y123.167 E28.59689
G1 X53.19 Y123.031 E28.60148
G1 X53.346 Y122.38 E28.62375
G1 X53.578 Y121.753 E28.64599
G1 X53.883 Y121.157 E28.66825
G1 X54.257 Y120.602 E28.69051
G1 X54.717 Y120.073 E28.71383
G1 X56.41 Y118.355 E28.79405
G1 X60.079 Y114.362 E28.97441
G1 X63.523 Y110.159 E29.15514
G1 X65.276 Y107.91 E29.24998
G1 X65.719 Y107.408 E29.27225
G1 X66.217 Y106.962 E29.29449
G1 X66.766 Y106.579 E29.31675
M204 S5000
M205 X30 Y30
G0 F3600 X67.035 Y106.884
M204 S500
M205 X20 Y20
G1 F1800 X67.609 Y106.589 E29.33822
G1 X68.214 Y106.368 E29.35964
G1 X68.842 Y106.223 E29.38107
G1 X69.5 Y106.157 E29.40307
G1 X71.528 Y106.082 E29.47057
G1 X76.951 Y105.698 E29.65139
G1 X82.258 Y105.021 E29.82933
G1 X87.556 Y104.038 E30.00855
G1 X90.11 Y103.45 E30.09572
G1 X95.327 Y102.014 E30.27569
G1 X100.436 Y100.293 E30.455
G1 X102.874 Y99.354 E30.54189
G1 X105.339 Y98.325 E30.63074
G1 X110.247 Y96.025 E30.81101
G1 X114.917 Y93.521 E30.98726
G1 X115.503 Y93.252 E31.0087
G1 X116.118 Y93.058 E31.03015
G1 X116.474 Y92.983 E31.04225
G1 X116.639 Y92.954 E31.04782
G1 X117.279 Y92.881 E31.06925
G1 X117.924 Y92.889 E31.0907
G1 X118.563 Y92.977 E31.11216
G1 X119.186 Y93.143 E31.1336
G1 X120.028 Y93.51 E31.16415
G1 X122.85 Y95.049 E31.27106
G1 X127.722 Y97.462 E31.45189
G1 X132.644 Y99.564 E31.6299
G1 X137.714 Y101.396 E31.8092
G1 X140.207 Y102.18 E31.89612
G1 X145.471 Y103.593 E32.0774
G1 X147.997 Y104.155 E32.16347
G1 X153.331 Y105.11 E32.3437
G1 X158.645 Y105.755 E32.52174
G1 X165.736 Y106.208 E32.75807
G1 X166.375 Y106.289 E32.77949
G1 X167 Y106.448 E32.80094
G1 X167.6 Y106.683 E32.82237
G1 X168.166 Y106.991 E32.84381
G1 X168.69 Y107.367 E32.86526
G1 X169.164 Y107.805 E32.88672
G1 X169.555 Y108.265 E32.9068
G1 X171.069 Y110.272 E32.99042
G1 X174.48 Y114.456 E33.16996
G1 X178.137 Y118.456 E33.35023
G1 X179.962 Y120.3 E33.43652
G1 X180.386 Y120.786 E33.45797
G1 X180.747 Y121.32 E33.47941
G1 X181.039 Y121.895 E33.50086
G1 X181.258 Y122.501 E33.52229
G1 X181.343 Y122.832 E33.53365
G1 X181.392 Y123.053 E33.54118
G1 X181.492 Y123.69 E33.56263
G1 X181.513 Y124.335 E33.58409
G1 X181.453 Y124.977 E33.60554
G1 X181.315 Y125.606 E33.62696
G1 X181.1 Y126.214 E33.64841
G1 X180.886 Y126.659 E33.66483
G1 X180.835 Y126.753 E33.66839
G1 X180.493 Y127.299 E33.68982
G1 X180.086 Y127.799 E33.71126
G1 X179.62 Y128.245 E33.73271
G1 X179.103 Y128.63 E33.75415
G1 X178.542 Y128.948 E33.7756
G1 X177.946 Y129.193 E33.79703
G1 X177.324 Y129.364 E33.81849
G1 X176.668 Y129.457 E33.84053
G1 X175.437 Y129.553 E33.88159
G1 X175.063 Y129.569 E33.89404
G1 X168.272 Y129.608 E34.11992
G1 X162.896 Y129.913 E34.29901
G1 X157.566 Y130.518 E34.47743
G1 X152.296 Y131.422 E34.65527
G1 X147.036 Y132.632 E34.83478
G1 X144.505 Y133.328 E34.92209
G1 X139.385 Y134.975 E35.10098
G1 X134.363 Y136.909 E35.27997
G1 X129.461 Y139.124 E35.45888
G1 X124.726 Y141.55 E35.63583
G1 X124.135 Y141.808 E35.65728
G1 X123.517 Y141.99 E35.67871
G1 X122.881 Y142.095 E35.70015
G1 X122.282 Y142.121 E35.72009
G1 X115.575 Y142.027 E35.94319
G1 X112.643 Y142.091 E36.04073
G1 X111.999 Y142.065 E36.06217
G1 X111.363 Y141.96 E36.08361
G1 X110.745 Y141.776 E36.10505
G1 X110.153 Y141.518 E36.12653
G1 X104.736 Y138.736 E36.32907
G1 X99.827 Y136.573 E36.50749
G1 X94.816 Y134.695 E36.68548
G1 X89.688 Y133.098 E36.86412
G1 X84.429 Y131.78 E37.04444
G1 X81.901 Y131.261 E37.13028
G1 X76.576 Y130.399 E37.30969
G1 X71.233 Y129.842 E37.48837
G1 X65.845 Y129.586 E37.66777
G1 X58.77 Y129.526 E37.9031
G1 X58.127 Y129.48 E37.92454
G1 X57.494 Y129.356 E37.94599
G1 X56.882 Y129.154 E37.96743
G1 X56.299 Y128.878 E37.98888
G1 X55.756 Y128.531 E38.01031
G1 X55.259 Y128.121 E38.03174
G1 X54.816 Y127.652 E38.0532
G1 X54.584 Y127.351 E38.06584
G1 X54.451 Y127.165 E38.07345
G1 X54.109 Y126.618 E38.0949
G1 X53.838 Y126.033 E38.11635
G1 X53.641 Y125.419 E38.13779
