;FLAVOR:Marlin
;TIME:1069
;Filament used: 0.723401m
;Layer height: 0.2
;MINX:76.5
;MINY:89
;MINZ:0.2
;MAXX:143.5
;MAXY:131
;MAXZ:3
;POSTPROCESSED
;Generated with Cura_SteamEngine 4.3.0
M140 S50
M105
M190 S50
M104 S200
M105
M109 S200
M82 ;absolute extrusion mode
M201 X500.00 Y500.00 Z100.00 E5000.00 ;Setup machine max acceleration
M203 X500.00 Y500.00 Z10.00 E50.00 ;Setup machine max feedrate
M204 P500.00 R1000.00 T500.00 ;Setup Print/Retract/Travel acceleration
M205 X8.00 Y8.00 Z0.40 E5.00 ;Setup Jerk
M220 S100 ;Reset Feedrate
M221 S100 ;Reset Flowrate

G28 ;Home

G92 E0 ;Reset Extruder
G1 Z2.0 F3000 ;Move Z Axis up
G1 X10.1 Y20 Z0.28 F5000.0 ;Move to start position
G1 X10.1 Y200.0 Z0.28 F1500.0 E15 ;Draw the first line
G1 X10.4 Y200.0 Z0.28 F5000.0 ;Move to side a little
G1 X10.4 Y20 Z0.28 F1500.0 E30 ;Draw the second line
G92 E0 ;Reset Extruder
G1 Z2.0 F3000 ;Move Z Axis up

G92 E0
G92 E0
G1 F2700 E-5
;LAYER_COUNT:15
;LAYER:0
M107
G0 F6000 X80.386 Y91.627 Z0.2
;TYPE:SKIRT
G1 F2700 E0
G1 F1200 X81.126 Y91.051 E0.03119
G1 X81.912 Y90.539 E0.06239
G1 X82.739 Y90.097 E0.09358
G1 X83.601 Y89.727 E0.12478
G1 X84.491 Y89.431 E0.15597
G1 X85.403 Y89.213 E0.18716
G1 X86.33 Y89.072 E0.21835
G1 X87.201 Y89.013 E0.24738
G1 X87.522 Y89.004 E0.25806
G1 X87.83 Y89 E0.26831
G1 X131.793 Y89 E1.73052
G1 X131.951 Y89.001 E1.73578
G1 X132.649 Y89.011 E1.759
G1 X133.585 Y89.065 E1.79018
G1 X134.513 Y89.197 E1.82136
G1 X135.427 Y89.409 E1.85256
G1 X136.319 Y89.698 E1.88375
G1 X137.184 Y90.061 E1.91495
G1 X138.014 Y90.497 E1.94613
G1 X138.805 Y91.002 E1.97735
G1 X139.549 Y91.573 E2.00854
G1 X140.242 Y92.205 E2.03974
G1 X140.879 Y92.893 E2.07092
G1 X141.454 Y93.634 E2.10212
G1 X141.965 Y94.42 E2.1333
G1 X142.407 Y95.248 E2.16452
G1 X142.776 Y96.11 E2.1957
G1 X143.071 Y97 E2.22689
G1 X143.289 Y97.912 E2.25807
G1 X143.429 Y98.84 E2.28929
G1 X143.487 Y99.701 E2.31799
G1 X143.496 Y100.021 E2.32864
G1 X143.5 Y100.33 E2.33892
G1 X143.5 Y119.264 E2.96866
G1 X143.499 Y119.4 E2.97319
G1 X143.49 Y120.127 E2.99737
G1 X143.439 Y121.064 E3.02858
G1 X143.307 Y121.992 E3.05976
G1 X143.098 Y122.906 E3.09094
G1 X142.811 Y123.799 E3.12214
G1 X142.449 Y124.665 E3.15336
G1 X142.015 Y125.496 E3.18454
G1 X141.511 Y126.287 E3.21573
G1 X140.942 Y127.032 E3.24691
G1 X140.311 Y127.727 E3.27814
G1 X139.624 Y128.365 E3.30932
G1 X138.885 Y128.942 E3.3405
G1 X138.099 Y129.454 E3.3717
G1 X137.273 Y129.897 E3.40288
G1 X136.411 Y130.269 E3.4341
G1 X135.522 Y130.565 E3.46527
G1 X134.61 Y130.785 E3.49647
G1 X133.683 Y130.926 E3.52766
G1 X132.799 Y130.987 E3.55713
G1 X132.478 Y130.996 E3.56781
G1 X132.17 Y131 E3.57805
G1 X88.207 Y131 E5.04027
G1 X88.065 Y130.999 E5.04499
G1 X87.367 Y130.99 E5.06821
G1 X86.431 Y130.938 E5.09939
G1 X85.502 Y130.806 E5.1306
G1 X84.588 Y130.596 E5.16179
G1 X83.695 Y130.309 E5.19299
G1 X82.83 Y129.946 E5.22419
G1 X81.999 Y129.512 E5.25537
G1 X81.208 Y129.008 E5.28657
G1 X80.463 Y128.438 E5.31777
G1 X79.769 Y127.807 E5.34896
G1 X79.132 Y127.12 E5.38012
G1 X78.555 Y126.38 E5.41133
G1 X78.043 Y125.594 E5.44253
G1 X77.6 Y124.767 E5.47374
G1 X77.229 Y123.906 E5.50492
G1 X76.933 Y123.016 E5.53612
G1 X76.714 Y122.104 E5.56731
G1 X76.573 Y121.177 E5.5985
G1 X76.513 Y120.288 E5.62813
G1 X76.504 Y119.955 E5.63921
G1 X76.5 Y119.658 E5.64909
G1 X76.5 Y100.674 E6.2805
G1 X76.501 Y100.525 E6.28546
G1 X76.51 Y99.86 E6.30758
G1 X76.563 Y98.924 E6.33876
G1 X76.695 Y97.995 E6.36997
G1 X76.906 Y97.081 E6.40117
G1 X77.194 Y96.189 E6.43234
G1 X77.557 Y95.324 E6.46354
G1 X77.992 Y94.493 E6.49474
G1 X78.496 Y93.703 E6.52591
G1 X79.066 Y92.958 E6.55711
G1 X79.698 Y92.264 E6.58833
G1 X80.386 Y91.627 E6.61951
G0 F6000 X80.774 Y91.823
G1 F1200 X81.51 Y91.27 E6.65013
G1 X82.291 Y90.782 E6.68076
G1 X83.111 Y90.364 E6.71138
G1 X83.965 Y90.019 E6.74201
G1 X84.845 Y89.749 E6.77263
G1 X85.745 Y89.557 E6.80323
G1 X86.659 Y89.443 E6.83387
G1 X87.212 Y89.413 E6.85229
G1 X87.533 Y89.404 E6.86297
G1 X87.83 Y89.4 E6.87285
G1 X131.793 Y89.4 E8.33506
G1 X131.945 Y89.401 E8.34012
G1 X132.643 Y89.411 E8.36334
G1 X133.562 Y89.464 E8.39395
G1 X134.473 Y89.597 E8.42457
G1 X135.369 Y89.808 E8.45519
G1 X136.243 Y90.096 E8.4858
G1 X137.09 Y90.459 E8.51645
G1 X137.901 Y90.894 E8.54706
G1 X138.671 Y91.398 E8.57767
G1 X139.395 Y91.967 E8.60829
G1 X140.067 Y92.597 E8.63893
G1 X140.682 Y93.282 E8.66955
G1 X141.235 Y94.018 E8.70017
G1 X141.722 Y94.799 E8.73078
G1 X142.139 Y95.62 E8.76141
G1 X142.484 Y96.474 E8.79204
G1 X142.753 Y97.354 E8.82265
G1 X142.945 Y98.255 E8.85329
G1 X143.058 Y99.168 E8.88389
G1 X143.087 Y99.712 E8.902
G1 X143.096 Y100.032 E8.91265
G1 X143.1 Y100.33 E8.92256
G1 X143.1 Y119.264 E9.55231
G1 X143.099 Y119.395 E9.55667
G1 X143.09 Y120.122 E9.58085
G1 X143.039 Y121.041 E9.61146
G1 X142.908 Y121.953 E9.64211
G1 X142.698 Y122.849 E9.67272
G1 X142.412 Y123.724 E9.70333
G1 X142.051 Y124.571 E9.73396
G1 X141.617 Y125.383 E9.76458
G1 X141.115 Y126.155 E9.79521
G1 X140.547 Y126.88 E9.82584
G1 X139.919 Y127.553 E9.85646
G1 X139.235 Y128.169 E9.88707
G1 X138.5 Y128.723 E9.91769
G1 X137.72 Y129.212 E9.94831
G1 X136.9 Y129.631 E9.97893
G1 X136.047 Y129.977 E10.00955
G1 X135.167 Y130.248 E10.04017
G1 X134.267 Y130.441 E10.07079
G1 X133.353 Y130.556 E10.10143
G1 X132.788 Y130.587 E10.12025
G1 X132.467 Y130.596 E10.13093
G1 X132.17 Y130.6 E10.14081
G1 X88.207 Y130.6 E11.60302
G1 X88.07 Y130.599 E11.60758
G1 X87.372 Y130.59 E11.6308
G1 X86.453 Y130.538 E11.66141
G1 X85.542 Y130.407 E11.69202
G1 X84.646 Y130.197 E11.72263
G1 X83.771 Y129.91 E11.75326
G1 X82.924 Y129.548 E11.7839
G1 X82.112 Y129.114 E11.81452
G1 X81.341 Y128.612 E11.84512
G1 X80.616 Y128.044 E11.87575
G1 X79.943 Y127.415 E11.90639
G1 X79.328 Y126.731 E11.93699
G1 X78.774 Y125.996 E11.9676
G1 X78.286 Y125.215 E11.99823
G1 X77.867 Y124.395 E12.02886
G1 X77.521 Y123.542 E12.05947
G1 X77.251 Y122.662 E12.09009
G1 X77.058 Y121.761 E12.12074
G1 X76.944 Y120.848 E12.15134
G1 X76.913 Y120.277 E12.17036
G1 X76.904 Y119.944 E12.18144
G1 X76.9 Y119.658 E12.19095
G1 X76.9 Y100.674 E12.82236
G1 X76.901 Y100.531 E12.82712
G1 X76.91 Y99.866 E12.84924
G1 X76.962 Y98.946 E12.87988
G1 X77.094 Y98.035 E12.9105
G1 X77.305 Y97.139 E12.94112
G1 X77.592 Y96.264 E12.97175
G1 X77.955 Y95.418 E13.00236
G1 X78.389 Y94.606 E13.03299
G1 X78.892 Y93.835 E13.06361
G1 X79.461 Y93.111 E13.09423
G1 X80.089 Y92.439 E13.12482
G1 X80.774 Y91.823 E13.15546
G0 F6000 X81.162 Y92.024
G1 F1200 X81.894 Y91.494 E13.18552
G1 X82.669 Y91.031 E13.21555
G1 X83.482 Y90.638 E13.24558
G1 X84.327 Y90.318 E13.27564
G1 X85.196 Y90.075 E13.30565
G1 X86.084 Y89.909 E13.33569
G1 X87.223 Y89.813 E13.37371
G1 X87.544 Y89.804 E13.38439
G1 X87.83 Y89.8 E13.39391
G1 X131.793 Y89.8 E14.85612
G1 X131.939 Y89.801 E14.86098
G1 X132.637 Y89.811 E14.8842
G1 X133.539 Y89.864 E14.91425
G1 X134.432 Y89.996 E14.94427
G1 X135.31 Y90.207 E14.97431
G1 X136.166 Y90.495 E15.00434
G1 X136.993 Y90.857 E15.03437
G1 X137.785 Y91.292 E15.06442
G1 X138.536 Y91.794 E15.09447
G1 X139.239 Y92.361 E15.12451
G1 X139.889 Y92.988 E15.15455
G1 X140.481 Y93.67 E15.18458
G1 X141.011 Y94.401 E15.21461
G1 X141.473 Y95.177 E15.24465
G1 X141.866 Y95.99 E15.27469
G1 X142.184 Y96.835 E15.30472
G1 X142.427 Y97.705 E15.33476
G1 X142.592 Y98.593 E15.3648
G1 X142.687 Y99.723 E15.40252
G1 X142.696 Y100.043 E15.41316
G1 X142.7 Y100.33 E15.42271
G1 X142.7 Y119.264 E16.05246
G1 X142.699 Y119.39 E16.05665
G1 X142.69 Y120.117 E16.08083
G1 X142.639 Y121.019 E16.11088
G1 X142.508 Y121.913 E16.14093
G1 X142.299 Y122.791 E16.17095
G1 X142.013 Y123.648 E16.201
G1 X141.652 Y124.476 E16.23104
G1 X141.22 Y125.268 E16.26105
G1 X140.719 Y126.02 E16.2911
G1 X140.153 Y126.724 E16.32115
G1 X139.528 Y127.375 E16.35116
G1 X138.847 Y127.969 E16.38122
G1 X138.116 Y128.5 E16.41127
G1 X137.342 Y128.964 E16.44128
G1 X136.529 Y129.358 E16.47133
G1 X135.685 Y129.678 E16.50135
G1 X134.815 Y129.923 E16.53142
G1 X133.928 Y130.089 E16.56143
G1 X132.777 Y130.187 E16.59985
G1 X132.456 Y130.196 E16.61053
G1 X132.17 Y130.2 E16.62004
G1 X88.207 Y130.2 E18.08226
G1 X88.075 Y130.199 E18.08665
G1 X87.377 Y130.19 E18.10987
G1 X86.476 Y130.139 E18.13988
G1 X85.582 Y130.007 E18.16994
G1 X84.704 Y129.798 E18.19996
G1 X83.847 Y129.511 E18.23002
G1 X83.02 Y129.15 E18.26003
G1 X82.227 Y128.717 E18.29008
G1 X81.476 Y128.216 E18.32011
G1 X80.772 Y127.65 E18.35015
G1 X80.121 Y127.024 E18.38019
G1 X79.528 Y126.343 E18.41022
G1 X78.998 Y125.612 E18.44026
G1 X78.534 Y124.837 E18.4703
G1 X78.14 Y124.024 E18.50035
G1 X77.82 Y123.18 E18.53037
G1 X77.576 Y122.31 E18.56042
G1 X77.41 Y121.422 E18.59047
G1 X77.313 Y120.267 E18.62902
G1 X77.304 Y119.934 E18.6401
G1 X77.3 Y119.658 E18.64928
G1 X77.3 Y100.674 E19.28069
G1 X77.301 Y100.536 E19.28528
G1 X77.31 Y99.871 E19.3074
G1 X77.362 Y98.969 E19.33745
G1 X77.494 Y98.076 E19.36747
G1 X77.704 Y97.198 E19.3975
G1 X77.991 Y96.341 E19.42756
G1 X78.353 Y95.514 E19.45759
G1 X78.786 Y94.722 E19.48761
G1 X79.288 Y93.971 E19.51765
G1 X79.855 Y93.267 E19.54772
G1 X80.481 Y92.617 E19.57773
G1 X81.162 Y92.024 E19.60777
G1 F2700 E14.60777
;MESH:Shiny Curcan-Wolt.stl
G0 F6000 X87.914 Y99.335
G0 X87.914 Y100.414
G0 X88.703 Y112.441
G0 X89.19 Y115.683
G0 X89.582 Y116.765
G0 X90.184 Y117.606
G0 X90.919 Y118.15
G0 X91.946 Y118.608
;TYPE:WALL-INNER
G1 F2700 E19.60777
G1 F1200 X92.97 Y118.406 E19.64248
G1 X93.858 Y117.798 E19.67828
G1 X94.528 Y116.888 E19.71586
G1 X94.968 Y115.724 E19.75725
G1 X95.106 Y114.5 E19.79822
G1 X94.968 Y113.28 E19.83905
G1 X94.561 Y112.159 E19.87872
G1 X93.933 Y111.28 E19.91465
G1 X93.069 Y110.641 E19.95039
G1 X92.115 Y110.407 E19.98306
G1 X91.898 Y110.406 E19.99028
G1 X90.978 Y110.61 E20.02162
G1 X90.139 Y111.207 E20.05587
G1 X89.472 Y112.112 E20.09327
G1 X89.032 Y113.276 E20.13465
G1 X88.893 Y114.5 E20.17563
G1 X89.032 Y115.72 E20.21647
G1 X89.439 Y116.841 E20.25613
G1 X90.067 Y117.72 E20.29206
G1 X90.931 Y118.359 E20.3278
G1 X91.946 Y118.608 E20.36256
G0 F6000 X91.955 Y118.198
;TYPE:WALL-OUTER
G1 F1200 X92.812 Y118.029 E20.39162
G1 X93.576 Y117.506 E20.42241
G1 X94.173 Y116.695 E20.45591
G1 X94.576 Y115.629 E20.49381
G1 X94.703 Y114.5 E20.5316
G1 X94.576 Y113.372 E20.56935
G1 X94.204 Y112.347 E20.60562
G1 X93.644 Y111.564 E20.63764
G1 X92.896 Y111.01 E20.6686
G1 X92.065 Y110.807 E20.69705
G1 X91.94 Y110.806 E20.70121
G1 X91.144 Y110.983 E20.72833
G1 X90.423 Y111.496 E20.75776
G1 X89.827 Y112.305 E20.79118
G1 X89.424 Y113.371 E20.82908
G1 X89.296 Y114.5 E20.86688
G1 X89.424 Y115.628 E20.90463
G1 X89.796 Y116.653 E20.9409
G1 X90.356 Y117.436 E20.97292
G1 X91.104 Y117.99 E21.00388
G1 X91.955 Y118.198 E21.03302
G0 F6000 X91.946 Y118.637
G0 X92.028 Y119
;TYPE:WALL-INNER
G1 F1200 X93.128 Y118.783 E21.07031
G1 X93.369 Y118.618 E21.08002
G1 X94.14 Y118.09 E21.1111
G1 X94.883 Y117.081 E21.15278
G1 X95.36 Y115.819 E21.19765
G1 X95.509 Y114.5 E21.2418
G1 X95.36 Y113.188 E21.28572
G1 X94.918 Y111.971 E21.32878
G1 X94.222 Y110.996 E21.36863
G1 X93.242 Y110.272 E21.40915
G1 X93.166 Y110.254 E21.41175
G1 X92.164 Y110.007 E21.44607
G1 X91.855 Y110.006 E21.45635
G1 X90.812 Y110.237 E21.49188
G1 X89.855 Y110.918 E21.53095
G1 X89.117 Y111.919 E21.57231
G1 X88.89 Y112.519 E21.59365
G1 X88.64 Y113.181 E21.61718
G1 X88.5 Y114.412 E21.65839
G1 X88.5 Y113.181 E21.66553
G1 X88.5 Y112.473 E21.68157
G1 X88.5 Y101 E22.06316
G1 X131.5 Y101 E23.49335
G1 X131.5 Y119 E24.09203
G1 X93.421 Y119 E25.35854
G1 X93.128 Y119 E25.36617
G1 X92.028 Y119 E25.376
G0 F6000 X91.864 Y119
G1 F1200 X90.758 Y119 E25.41278
G1 X90.566 Y119 E25.41917
G1 X88.5 Y119 E25.48789
G1 X88.5 Y116.547 E25.56947
G1 X88.5 Y115.812 E25.59392
G1 X88.5 Y114.587 E25.63466
G1 X88.64 Y115.812 E25.64201
G1 X88.891 Y116.503 E25.65865
G1 X89.082 Y117.029 E25.67726
G1 X89.778 Y118.004 E25.7171
G1 X90.604 Y118.614 E25.75126
G1 X90.758 Y118.728 E25.75666
G1 X90.834 Y118.746 E25.75884
G1 X91.864 Y119 E25.77021
G0 F6000 X88.1 Y119.4
G1 F1200 X88.1 Y100.6 E26.3955
G1 X131.9 Y100.6 E27.85229
G1 X131.9 Y119.4 E28.47758
G1 X88.1 Y119.4 E29.93438
G0 F6000 X87.7 Y119.8
;TYPE:WALL-OUTER
G1 F1200 X87.7 Y100.2 E30.58628
G1 X132.3 Y100.2 E32.06968
G1 X132.3 Y119.8 E32.72158
G1 X87.7 Y119.8 E34.20498
G0 F6000 X87.97 Y119.53
G0 X88.61 Y118.61
G0 X88.89 Y118.61
;TYPE:SKIN
G1 F1200 X88.89 Y117.432 E34.24416
G1 X89.497 Y118.281 E34.27887
G1 X89.942 Y118.61 E34.29728
G1 X88.89 Y118.61 E34.33227
G0 F6000 X88.61 Y118.61
G0 X88.674 Y118.797
G0 X90.105 Y118.89
G0 X90.105 Y118.673
;TYPE:SKIN
G1 F1200 X90.272 Y118.839 E34.33618
G0 F6000 X90.317 Y118.601
G1 F1200 X90.548 Y118.832 E34.34162
G0 F6000 X90.583 Y118.821
G0 X89.04 Y117.161
G0 X88.944 Y117.229
G1 F1200 X88.659 Y116.944 E34.34832
G0 F6000 X88.845 Y116.847
G1 F1200 X88.659 Y116.661 E34.35269
G0 F6000 X88.659 Y117.226
G1 F1200 X88.731 Y117.298 E34.35439
G0 F6000 X88.61 Y117.298
G0 X88.704 Y116.582
G0 X91.001 Y118.211
G0 X93.206 Y118.742
G0 X94.071 Y118.89
G0 X94.071 Y118.61
;TYPE:SKIN
G1 F1200 X94.415 Y118.375 E34.36824
G1 X95.228 Y117.269 E34.4139
G1 X95.742 Y115.911 E34.46219
G1 X95.901 Y114.5 E34.50942
G1 X95.742 Y113.098 E34.55635
G1 X95.267 Y111.788 E34.6027
G1 X94.503 Y110.719 E34.6464
G1 X93.411 Y109.912 E34.69156
G1 X92.212 Y109.617 E34.73263
G1 X91.812 Y109.616 E34.74593
G1 X90.65 Y109.874 E34.78552
G1 X89.578 Y110.637 E34.82929
G1 X88.89 Y111.571 E34.86787
G1 X88.89 Y101.39 E35.20649
G1 X131.11 Y101.39 E36.61073
G1 X131.11 Y118.61 E37.18347
G1 X94.071 Y118.61 E38.4154
G0 F6000 X94.614 Y118.373
G1 F1200 X94.69 Y118.449 E38.41897
G0 F6000 X94.853 Y118.046
G1 F1200 X95.256 Y118.449 E38.43793
G0 F6000 X95.822 Y118.449
G1 F1200 X95.093 Y117.72 E38.47222
G0 F6000 X95.332 Y117.393
G1 F1200 X96.387 Y118.449 E38.52186
G0 F6000 X96.953 Y118.449
G1 F1200 X95.501 Y116.997 E38.59016
G0 F6000 X95.655 Y116.586
G1 F1200 X97.519 Y118.449 E38.67781
G0 F6000 X98.084 Y118.449
G1 F1200 X95.811 Y116.176 E38.78473
G0 F6000 X95.923 Y115.722
G1 F1200 X98.65 Y118.449 E38.913
G0 F6000 X99.216 Y118.449
G1 F1200 X95.979 Y115.213 E39.06523
G0 F6000 X96.037 Y114.704
G1 F1200 X99.781 Y118.449 E39.24136
G0 F6000 X100.347 Y118.449
G1 F1200 X96.017 Y114.119 E39.44503
G0 F6000 X95.945 Y113.481
G1 F1200 X100.913 Y118.449 E39.67871
G0 F6000 X101.479 Y118.449
G1 F1200 X95.788 Y112.759 E39.94638
G0 F6000 X95.467 Y111.872
G1 F1200 X102.044 Y118.449 E40.25574
G0 F6000 X102.61 Y118.449
G1 F1200 X89.05 Y104.889 E40.89356
G0 F6000 X89.05 Y104.323
G1 F1200 X103.176 Y118.449 E41.558
G0 F6000 X103.741 Y118.449
G1 F1200 X89.05 Y103.758 E42.24902
G0 F6000 X89.05 Y103.192
G1 F1200 X104.307 Y118.449 E42.96667
G0 F6000 X104.873 Y118.449
G1 F1200 X89.05 Y102.626 E43.71093
G0 F6000 X89.05 Y102.06
G1 F1200 X105.438 Y118.449 E44.4818
G0 F6000 X106.004 Y118.449
G1 F1200 X89.104 Y101.549 E45.27672
G0 F6000 X89.67 Y101.549
G1 F1200 X106.57 Y118.449 E46.07164
G0 F6000 X107.135 Y118.449
G1 F1200 X90.236 Y101.549 E46.86654
G0 F6000 X90.801 Y101.549
G1 F1200 X107.701 Y118.449 E47.66147
G0 F6000 X108.267 Y118.449
G1 F1200 X91.367 Y101.549 E48.45639
G0 F6000 X91.933 Y101.549
G1 F1200 X108.832 Y118.449 E49.25129
G0 F6000 X109.398 Y118.449
G1 F1200 X92.498 Y101.549 E50.04622
G0 F6000 X93.064 Y101.549
G1 F1200 X109.964 Y118.449 E50.84114
G0 F6000 X110.529 Y118.449
G1 F1200 X93.63 Y101.549 E51.63604
G0 F6000 X94.195 Y101.549
G1 F1200 X111.095 Y118.449 E52.43097
G0 F6000 X111.661 Y118.449
G1 F1200 X94.761 Y101.549 E53.22589
G0 F6000 X95.327 Y101.549
G1 F1200 X112.227 Y118.449 E54.02082
G0 F6000 X112.792 Y118.449
G1 F1200 X95.892 Y101.549 E54.81574
G0 F6000 X96.458 Y101.549
G1 F1200 X113.358 Y118.449 E55.61066
G0 F6000 X113.924 Y118.449
G1 F1200 X97.024 Y101.549 E56.40559
G0 F6000 X97.589 Y101.549
G1 F1200 X114.489 Y118.449 E57.20051
G0 F6000 X115.055 Y118.449
G1 F1200 X98.155 Y101.549 E57.99544
G0 F6000 X98.721 Y101.549
G1 F1200 X115.621 Y118.449 E58.79036
G0 F6000 X116.186 Y118.449
G1 F1200 X99.286 Y101.549 E59.58528
G0 F6000 X99.852 Y101.549
G1 F1200 X116.752 Y118.449 E60.38021
G0 F6000 X117.318 Y118.449
G1 F1200 X100.418 Y101.549 E61.17513
G0 F6000 X100.984 Y101.549
G1 F1200 X117.883 Y118.449 E61.97003
G0 F6000 X118.449 Y118.449
G1 F1200 X101.549 Y101.549 E62.76496
G0 F6000 X102.115 Y101.549
