;FLAVOR:Marlin
;TIME:3779
;Filament used: 5.04752m
;Layer height: 0.3
;Generated with Cura_SteamEngine 4.0.0
M140 S60
M105
M190 S60
M104 S200
M105
M109 S200
M82 ;absolute extrusion mode
; Ender 3 Custom Start G-code
G28 ; Home all axes
G92 E0 ; Reset Extruder
G1 Z2.0 F3000 ; Move Z Axis up little to prevent scratching of Heat Bed
G1 X0.1 Y20 Z0.3 F5000.0 ; Move to start position
G1 X0.1 Y200.0 Z0.3 F1500.0 E15 ; Draw the first line
G1 X0.4 Y200.0 Z0.3 F5000.0 ; Move to side a little
G1 X0.4 Y20 Z0.3 F1500.0 E30 ; Draw the second line
G92 E0 ; Reset Extruder
G1 Z2.0 F3000 ; Move Z Axis up little to prevent scratching of Heat Bed
; End of custom start GCode
G92 E0
G1 F2400 E-5
;LAYER_COUNT:8
;LAYER:0
M107
M204 S5000
M205 X30 Y30
G0 F3600 X34.71 Y77.253 Z0.2
M204 S500
M205 X20 Y20
;TYPE:SKIRT
G1 F2400 E0
G1 F1800 X35.37 Y76.977 E0.02379
G1 X36.056 Y76.776 E0.04757
G1 X36.761 Y76.653 E0.07137
G1 X37.509 Y76.609 E0.09629
G1 X197.491 Y76.61 E5.41732
G1 X198.205 Y76.65 E5.4411
G1 X198.91 Y76.769 E5.46488
G1 X199.598 Y76.967 E5.48869
G1 X200.259 Y77.24 E5.51248
G1 X200.886 Y77.584 E5.53627
G1 X201.47 Y77.997 E5.56006
G1 X202.004 Y78.472 E5.58383
G1 X202.483 Y79.004 E5.60764
G1 X202.898 Y79.586 E5.63141
G1 X203.247 Y80.211 E5.65522
G1 X203.523 Y80.871 E5.67901
G1 X203.724 Y81.557 E5.70279
G1 X203.847 Y82.262 E5.72659
G1 X203.891 Y83.01 E5.75151
G1 X203.891 Y151.991 E8.04583
G1 X203.851 Y152.705 E8.06962
G1 X203.732 Y153.41 E8.0934
G1 X203.534 Y154.098 E8.11721
G1 X203.261 Y154.759 E8.14099
G1 X202.917 Y155.386 E8.16478
G1 X202.504 Y155.97 E8.18857
G1 X202.029 Y156.504 E8.21234
G1 X201.497 Y156.983 E8.23615
G1 X200.915 Y157.398 E8.25993
G1 X200.29 Y157.747 E8.28374
G1 X199.63 Y158.023 E8.30753
G1 X198.944 Y158.224 E8.3313
G1 X198.239 Y158.347 E8.35511
G1 X197.491 Y158.391 E8.38003
G1 X37.509 Y158.391 E13.70105
G1 X36.795 Y158.351 E13.72484
G1 X36.09 Y158.232 E13.74862
G1 X35.402 Y158.034 E13.77243
G1 X34.741 Y157.761 E13.79622
G1 X34.114 Y157.417 E13.82
G1 X33.53 Y157.004 E13.84379
G1 X32.996 Y156.529 E13.86756
G1 X32.517 Y155.997 E13.89137
G1 X32.102 Y155.415 E13.91515
G1 X31.753 Y154.79 E13.93896
G1 X31.477 Y154.13 E13.96275
G1 X31.276 Y153.444 E13.98653
G1 X31.153 Y152.739 E14.01033
G1 X31.109 Y151.991 E14.03525
G1 X31.109 Y83.009 E16.3296
G1 X31.149 Y82.295 E16.35339
G1 X31.268 Y81.59 E16.37717
G1 X31.466 Y80.902 E16.40098
G1 X31.739 Y80.241 E16.42476
G1 X32.083 Y79.614 E16.44855
G1 X32.496 Y79.03 E16.47234
G1 X32.971 Y78.496 E16.49611
G1 X33.503 Y78.017 E16.51992
G1 X34.085 Y77.602 E16.5437
G1 X34.71 Y77.253 E16.5675
M204 S5000
M205 X30 Y30
G0 F3600 X35.085 Y77.521
M204 S500
M205 X20 Y20
G1 F1800 X35.733 Y77.278 E16.59052
G1 X36.406 Y77.111 E16.61359
G1 X37.092 Y77.023 E16.63659
G1 X37.509 Y77.009 E16.65047
G1 X197.491 Y77.01 E21.97149
G1 X198.182 Y77.05 E21.99451
G1 X198.865 Y77.169 E22.01757
G1 X199.528 Y77.367 E22.04058
G1 X200.165 Y77.639 E22.06362
G1 X200.766 Y77.983 E22.08665
G1 X201.324 Y78.394 E22.1097
G1 X201.83 Y78.866 E22.13272
G1 X202.279 Y79.394 E22.15577
G1 X202.664 Y79.969 E22.17879
G1 X202.979 Y80.586 E22.20183
G1 X203.222 Y81.234 E22.22485
G1 X203.389 Y81.907 E22.24791
G1 X203.477 Y82.594 E22.27094
G1 X203.491 Y83.01 E22.28479
G1 X203.491 Y151.991 E24.57911
G1 X203.451 Y152.682 E24.60213
G1 X203.332 Y153.365 E24.62519
G1 X203.134 Y154.028 E24.6482
G1 X202.862 Y154.665 E24.67124
G1 X202.518 Y155.266 E24.69427
G1 X202.107 Y155.824 E24.71732
G1 X201.635 Y156.33 E24.74033
G1 X201.107 Y156.779 E24.76339
G1 X200.532 Y157.164 E24.7864
G1 X199.915 Y157.479 E24.80944
G1 X199.267 Y157.722 E24.83246
G1 X198.594 Y157.889 E24.85552
G1 X197.908 Y157.977 E24.87853
G1 X197.491 Y157.991 E24.89241
G1 X37.509 Y157.991 E30.21343
G1 X36.818 Y157.951 E30.23645
G1 X36.135 Y157.832 E30.25951
G1 X35.472 Y157.634 E30.28252
G1 X34.835 Y157.362 E30.30556
G1 X34.234 Y157.018 E30.32859
G1 X33.676 Y156.607 E30.35164
G1 X33.17 Y156.135 E30.37466
G1 X32.721 Y155.607 E30.39771
G1 X32.336 Y155.032 E30.42073
G1 X32.021 Y154.415 E30.44377
G1 X31.778 Y153.767 E30.46678
G1 X31.611 Y153.094 E30.48985
G1 X31.523 Y152.408 E30.51285
G1 X31.509 Y151.991 E30.52673
G1 X31.509 Y83.009 E32.82108
G1 X31.549 Y82.318 E32.8441
G1 X31.668 Y81.635 E32.86716
G1 X31.866 Y80.972 E32.89017
G1 X32.138 Y80.335 E32.91321
G1 X32.482 Y79.734 E32.93624
G1 X32.893 Y79.176 E32.95929
G1 X33.365 Y78.67 E32.98231
G1 X33.893 Y78.221 E33.00536
G1 X34.468 Y77.836 E33.02838
G1 X35.085 Y77.521 E33.05142
M204 S5000
M205 X30 Y30
G0 F3600 X34.849 Y78.081
M204 S500
M205 X20 Y20
G1 F1800 X35.456 Y77.799 E33.07368
G1 X36.092 Y77.591 E33.09593
G1 X36.748 Y77.461 E33.11818
G1 X37.509 Y77.409 E33.14355
G1 X197.491 Y77.41 E38.46457
G1 X198.159 Y77.45 E38.48683
G1 X198.817 Y77.569 E38.50907
G1 X199.457 Y77.766 E38.53134
G1 X200.068 Y78.038 E38.55358
G1 X200.642 Y78.381 E38.57582
G1 X201.172 Y78.79 E38.59809
G1 X201.649 Y79.259 E38.62034
G1 X202.067 Y79.781 E38.64258
G1 X202.419 Y80.35 E38.66484
G1 X202.701 Y80.957 E38.6871
G1 X202.909 Y81.593 E38.70935
G1 X203.039 Y82.249 E38.7316
G1 X203.091 Y83.01 E38.75697
G1 X203.091 Y151.991 E41.05128
G1 X203.051 Y152.659 E41.07354
G1 X202.932 Y153.317 E41.09578
G1 X202.735 Y153.957 E41.11805
G1 X202.463 Y154.568 E41.1403
G1 X202.12 Y155.142 E41.16254
G1 X201.711 Y155.672 E41.18481
G1 X201.242 Y156.149 E41.20705
G1 X200.72 Y156.567 E41.2293
G1 X200.151 Y156.919 E41.25155
G1 X199.544 Y157.201 E41.27381
G1 X198.908 Y157.409 E41.29607
G1 X198.252 Y157.539 E41.31831
G1 X197.491 Y157.591 E41.34368
G1 X37.509 Y157.591 E46.6647
G1 X36.841 Y157.551 E46.68696
G1 X36.183 Y157.432 E46.7092
G1 X35.543 Y157.235 E46.73147
G1 X34.932 Y156.963 E46.75372
G1 X34.358 Y156.62 E46.77596
G1 X33.828 Y156.211 E46.79822
G1 X33.351 Y155.742 E46.82047
G1 X32.933 Y155.22 E46.84272
G1 X32.581 Y154.651 E46.86497
G1 X32.299 Y154.044 E46.88723
G1 X32.091 Y153.408 E46.90949
G1 X31.961 Y152.752 E46.93173
G1 X31.909 Y151.991 E46.9571
G1 X31.909 Y83.009 E49.25145
G1 X31.949 Y82.341 E49.27371
G1 X32.068 Y81.683 E49.29595
G1 X32.265 Y81.043 E49.31822
G1 X32.537 Y80.432 E49.34047
G1 X32.88 Y79.858 E49.36271
G1 X33.289 Y79.328 E49.38497
G1 X33.758 Y78.851 E49.40722
G1 X34.28 Y78.433 E49.42946
G1 X34.849 Y78.081 E49.45172
M204 S5000
M205 X30 Y30
G0 F3600 X35.227 Y78.336
M204 S500
M205 X20 Y20
G1 F1800 X35.823 Y78.09 E49.47316
G1 X36.444 Y77.919 E49.49459
G1 X37.082 Y77.827 E49.51602
G1 X37.509 Y77.809 E49.53024
G1 X197.491 Y77.81 E54.85126
G1 X198.134 Y77.85 E54.87269
G1 X198.768 Y77.969 E54.89415
G1 X199.382 Y78.166 E54.91559
G1 X199.967 Y78.437 E54.93704
G1 X200.514 Y78.779 E54.95849
G1 X201.014 Y79.185 E54.97991
G1 X201.46 Y79.651 E55.00137
G1 X201.845 Y80.167 E55.02278
G1 X202.164 Y80.728 E55.04425
G1 X202.41 Y81.324 E55.06569
G1 X202.581 Y81.945 E55.08711
G1 X202.673 Y82.583 E55.10855
G1 X202.691 Y83.01 E55.12277
G1 X202.691 Y151.991 E57.41709
G1 X202.651 Y152.634 E57.43851
G1 X202.532 Y153.268 E57.45997
G1 X202.335 Y153.882 E57.48142
G1 X202.064 Y154.467 E57.50286
G1 X201.722 Y155.014 E57.52432
G1 X201.316 Y155.514 E57.54574
G1 X200.851 Y155.96 E57.56717
G1 X200.334 Y156.345 E57.58861
G1 X199.773 Y156.664 E57.61007
G1 X199.177 Y156.91 E57.63152
G1 X198.556 Y157.081 E57.65294
G1 X197.918 Y157.173 E57.67438
G1 X197.491 Y157.191 E57.6886
G1 X37.509 Y157.191 E63.00962
G1 X36.866 Y157.151 E63.03105
G1 X36.232 Y157.032 E63.0525
G1 X35.618 Y156.835 E63.07395
G1 X35.033 Y156.564 E63.09539
G1 X34.486 Y156.222 E63.11685
G1 X33.986 Y155.816 E63.13827
G1 X33.54 Y155.351 E63.1597
G1 X33.155 Y154.834 E63.18114
G1 X32.836 Y154.273 E63.2026
G1 X32.59 Y153.677 E63.22405
G1 X32.419 Y153.056 E63.24547
G1 X32.327 Y152.418 E63.26691
G1 X32.309 Y151.991 E63.28113
G1 X32.309 Y83.009 E65.57548
G1 X32.349 Y82.366 E65.59691
G1 X32.468 Y81.732 E65.61836
G1 X32.665 Y81.118 E65.63981
G1 X32.936 Y80.533 E65.66125
G1 X33.278 Y79.986 E65.68271
G1 X33.684 Y79.486 E65.70413
G1 X34.149 Y79.04 E65.72556
G1 X34.666 Y78.655 E65.747
G1 X35.227 Y78.336 E65.76846
M204 S5000
M205 X30 Y30
G1 F2400 E60.76846
;MESH:Gin Bar Sign (1).stl
G0 F3600 X40.569 Y82.372
G0 X40.604 Y82.398
G0 X52.584 Y91.45
G0 X52.619 Y91.476
G0 X54.835 Y93.151
G0 X56.111 Y93.29
G0 X62.929 Y99.482
G0 X62.893 Y99.575
M204 S500
M205 X20 Y20
;TYPE:WALL-INNER
G1 F2400 E65.76846
G1 F1800 X62.301 Y99.343 E65.78961
G1 X60.784 Y98.607 E65.84569
G1 X59.429 Y97.797 E65.8982
G1 X58.229 Y96.914 E65.94775
G1 X57.265 Y95.998 E65.99198
G1 X56.602 Y95.094 E66.02927
G1 X56.218 Y94.195 E66.06178
G1 X56.092 Y93.29 E66.09217
G1 X56.187 Y92.38 E66.1226
G1 X56.437 Y91.769 E66.14456
G1 X56.759 Y91.459 E66.15943
G1 X57.175 Y91.359 E66.17366
G1 X57.726 Y91.485 E66.19246
G1 X58.442 Y91.937 E66.22062
G1 X59.284 Y92.758 E66.25973
G1 X60.226 Y93.965 E66.31066
G1 X61.195 Y95.457 E66.36983
G1 X62.132 Y97.146 E66.43407
G1 X63.032 Y99.027 E66.50343
G1 X63.151 Y99.312 E66.5137
G1 X63.152 Y99.313 E66.51375
G1 X63.33 Y99.745 E66.52929
G1 X62.894 Y99.576 E66.53769
G1 X62.893 Y99.575 E66.53773
M204 S5000
M205 X30 Y30
G0 F3600 X62.929 Y99.482
G0 X63.871 Y100.279
G0 X63.832 Y100.371
M204 S500
M205 X20 Y20
;TYPE:WALL-OUTER
G1 F1800 X63.587 Y100.275 E66.54649
G1 X62.133 Y99.706 E66.59842
G1 X60.601 Y98.963 E66.65505
G1 X59.206 Y98.129 E66.70911
G1 X57.973 Y97.222 E66.76002
G1 X56.962 Y96.262 E66.80639
G1 X56.252 Y95.293 E66.84634
G1 X55.83 Y94.304 E66.8821
G1 X55.689 Y93.295 E66.91599
G1 X55.795 Y92.283 E66.94983
G1 X56.099 Y91.54 E66.97653
G1 X56.561 Y91.095 E66.99787
G1 X57.172 Y90.948 E67.01877
G1 X57.882 Y91.11 E67.04299
G1 X58.689 Y91.62 E67.07474
G1 X59.583 Y92.492 E67.11628
G1 X60.552 Y93.733 E67.16865
G1 X61.542 Y95.257 E67.22909
G1 X62.489 Y96.965 E67.29405
G1 X63.393 Y98.854 E67.3637
G1 X63.893 Y100.06 E67.40712
G1 X63.994 Y100.303 E67.41361
G1 X64.067 Y100.479 E67.41995
G1 X63.832 Y100.371 E67.42311
M204 S5000
M205 X30 Y30
G0 F3600 X63.646 Y100.298
G0 X63.683 Y100.206
G0 X62.609 Y99.045
M204 S500
M205 X20 Y20
;TYPE:SKIN
G1 F1800 X62.459 Y98.986 E67.42847
G1 X60.977 Y98.267 E67.48325
G1 X59.644 Y97.47 E67.53491
G1 X58.481 Y96.614 E67.58294
G1 X57.555 Y95.734 E67.62543
G1 X56.946 Y94.905 E67.65964
G1 X56.596 Y94.086 E67.68926
G1 X56.484 Y93.285 E67.71616
G1 X56.569 Y92.476 E67.74322
G1 X56.767 Y91.993 E67.76058
G1 X56.954 Y91.813 E67.76921
G1 X57.176 Y91.759 E67.77681
G1 X57.574 Y91.851 E67.7904
G1 X58.198 Y92.245 E67.81495
G1 X58.992 Y93.018 E67.8518
G1 X59.913 Y94.198 E67.90159
G1 X60.861 Y95.658 E67.95949
G1 X61.791 Y97.335 E68.02327
G1 X62.609 Y99.045 E68.08631
M204 S5000
M205 X30 Y30
G0 F3600 X57.624 Y95.525
M204 S500
M205 X20 Y20
G1 F1800 X58.128 Y96.029 E68.11002
M204 S5000
M205 X30 Y30
G0 F3600 X56.823 Y94.158
M204 S500
M205 X20 Y20
G1 F1800 X60.34 Y97.676 E68.27547
G1 X60.41 Y97.746
M204 S5000
M205 X30 Y30
G0 F3600 X61.448 Y97.086
M204 S500
M205 X20 Y20
G1 F1800 X56.784 Y92.422 E68.49485
M204 S5000
M205 X30 Y30
G0 F3600 X56.972 Y92.044
M204 S500
M205 X20 Y20
G1 F1800 X60.744 Y95.816 E68.67228
G1 X60.814 Y95.886
M204 S5000
M205 X30 Y30
G0 F3600 X59.665 Y94.172
M204 S500
M205 X20 Y20
G1 F1800 X57.523 Y92.03 E68.77303
G1 X57.453 Y91.96
M204 S5000
M205 X30 Y30
G0 F3600 X56.704 Y92.908
M204 S500
M205 X20 Y20
G1 F1800 X62.016 Y98.219 E69.02287
M204 S5000
M205 X30 Y30
G0 F3600 X61.599 Y98.369
M204 S500
M205 X20 Y20
G1 F1800 X56.69 Y93.46 E69.25377
G1 X56.62 Y93.39
M204 S5000
M205 X30 Y30
G1 F2400 E64.25377
G0 F3600 X58.241 Y96.899
G0 X57.481 Y97.932
G0 X66.136 Y104.285
G0 X66.488 Y104.62
G0 X67.105 Y106.916
G0 X67.567 Y109.036
G0 X67.906 Y111.077
G0 X68.099 Y112.939
G0 X66.988 Y113.459
G0 X56.067 Y110.235
G0 X60.886 Y139.121
G0 X73.296 Y145.856
G0 X75.287 Y134.783
G0 X63.615 Y126.444
G0 X61.132 Y126.486
G0 X60.863 Y127.725
G0 X61.164 Y127.879
G0 X61.184 Y127.782
M204 S500
M205 X20 Y20
;TYPE:WALL-INNER
G1 F2400 E69.25377
G1 F1800 X61.331 Y127.813 E69.25877
G1 X61.465 Y127.851 E69.2634
G1 X62.918 Y128.37 E69.31472
G1 X64.449 Y129.144 E69.37178
G1 X65.978 Y130.142 E69.43251
G1 X67.444 Y131.312 E69.49489
G1 X68.76 Y132.569 E69.55542
G1 X69.928 Y133.915 E69.61469
G1 X70.943 Y135.347 E69.67307
G1 X71.77 Y136.803 E69.72877
G1 X72.349 Y138.181 E69.77848
G1 X72.694 Y139.511 E69.82418
G1 X72.806 Y140.751 E69.86559
G1 X72.713 Y141.544 E69.89215
G1 X72.473 Y142.084 E69.9118
G1 X72.15 Y142.375 E69.92626
G1 X71.706 Y142.474 E69.94139
G1 X70.923 Y142.36 E69.96771
G1 X70.029 Y141.989 E69.9999
G1 X69.042 Y141.341 E70.03917
G1 X67.967 Y140.401 E70.08667
G1 X66.87 Y139.223 E70.14021
G1 X65.801 Y137.86 E70.19782
G1 X64.755 Y136.304 E70.26018
G1 X63.727 Y134.537 E70.32817
G1 X62.787 Y132.693 E70.39701
G1 X61.926 Y130.743 E70.46791
G1 X61.188 Y128.785 E70.53751
G1 X60.952 Y128.038 E70.56356
G1 X60.849 Y127.712 E70.57493
G1 X61.183 Y127.781 E70.58138
G1 X61.184 Y127.782 E70.58142
M204 S5000
M205 X30 Y30
G0 F3600 X60.596 Y127.251
M204 S500
M205 X20 Y20
;TYPE:WALL-OUTER
G1 F1800 X61.435 Y127.427 E70.60994
G1 X61.591 Y127.471 E70.61533
G1 X63.072 Y128 E70.66763
G1 X64.653 Y128.799 E70.72655
G1 X66.21 Y129.816 E70.78841
G1 X67.704 Y131.008 E70.85198
G1 X69.051 Y132.294 E70.91392
G1 X70.241 Y133.666 E70.97432
G1 X71.283 Y135.135 E71.03423
G1 X72.131 Y136.629 E71.09136
G1 X72.728 Y138.051 E71.14266
G1 X73.089 Y139.44 E71.19039
G1 X73.208 Y140.757 E71.23437
G1 X73.103 Y141.651 E71.26431
G1 X72.803 Y142.325 E71.28885
G1 X72.34 Y142.742 E71.30957
G1 X71.72 Y142.88 E71.3307
G1 X70.818 Y142.749 E71.36102
G1 X69.839 Y142.343 E71.39627
G1 X68.801 Y141.661 E71.43757
G1 X67.683 Y140.683 E71.48698
G1 X66.567 Y139.485 E71.54144
G1 X65.48 Y138.099 E71.60002
G1 X64.414 Y136.514 E71.66355
G1 X63.381 Y134.738 E71.73189
G1 X62.422 Y132.858 E71.80208
G1 X61.56 Y130.905 E71.87308
G1 X60.81 Y128.915 E71.94382
G1 X60.365 Y127.507 E71.99293
G1 X60.262 Y127.181 E72.0043
G1 X60.596 Y127.251 E72.01075
M204 S5000
M205 X30 Y30
G0 F3600 X60.791 Y127.292
G0 X60.923 Y127.779
G0 X61.428 Y128.252
M204 S500
M205 X20 Y20
;TYPE:SKIN
G1 F1800 X62.762 Y128.728 E72.05786
G1 X64.258 Y129.484 E72.11361
G1 X65.746 Y130.456 E72.17272
G1 X67.191 Y131.609 E72.23421
G1 X68.477 Y132.837 E72.29335
G1 X69.62 Y134.153 E72.35132
G1 X70.613 Y135.556 E72.40849
G1 X71.422 Y136.98 E72.46297
G1 X71.976 Y138.299 E72.51055
G1 X72.31 Y139.584 E72.55471
G1 X72.414 Y140.741 E72.59335
G1 X72.332 Y141.44 E72.61675
G1 X72.15 Y141.85 E72.63167
G1 X71.964 Y142.018 E72.64001
G1 X71.693 Y142.078 E72.64924
G1 X71.028 Y141.981 E72.67159
G1 X70.212 Y141.642 E72.70098
G1 X69.282 Y141.032 E72.73797
G1 X68.229 Y140.112 E72.78448
G1 X67.17 Y138.974 E72.83619
G1 X66.121 Y137.636 E72.89273
G1 X65.083 Y136.093 E72.95459
G1 X64.064 Y134.341 E73.022
G1 X63.143 Y132.534 E73.08945
G1 X62.283 Y130.585 E73.16031
G1 X61.556 Y128.656 E73.22887
G1 X61.428 Y128.252 E73.24297
M204 S5000
M205 X30 Y30
G0 F3600 X70.132 Y135.186
M204 S500
M205 X20 Y20
G1 F1800 X65.372 Y130.425 E73.46689
G1 X65.302 Y130.355
M204 S5000
M205 X30 Y30
G0 F3600 X63.872 Y129.491
M204 S500
M205 X20 Y20
G1 F1800 X71.023 Y136.643 E73.80327
G1 X71.093 Y136.713
M204 S5000
M205 X30 Y30
G0 F3600 X71.54 Y137.726
M204 S500
M205 X20 Y20
G1 F1800 X62.728 Y128.913 E74.21779
G1 X62.658 Y128.843
M204 S5000
M205 X30 Y30
G0 F3600 X61.994 Y129.31
M204 S500
M205 X20 Y20
G1 F1800 X72.074 Y139.391 E74.69194
M204 S5000
M205 X30 Y30
G0 F3600 X72.172 Y140.055
M204 S500
M205 X20 Y20
G1 F1800 X62.336 Y130.218 E75.15462
G1 X62.266 Y130.148
M204 S5000
M205 X30 Y30
G0 F3600 X62.748 Y131.196
M204 S500
M205 X20 Y20
G1 F1800 X72.228 Y140.676 E75.60053
M204 S5000
M205 X30 Y30
G0 F3600 X72.18 Y141.193
M204 S500
M205 X20 Y20
G1 F1800 X63.195 Y132.209 E76.02313
G1 X63.125 Y132.139
M204 S5000
M205 X30 Y30
G0 F3600 X63.749 Y133.328
M204 S500
M205 X20 Y20
G1 F1800 X72.05 Y141.629 E76.41359
M204 S5000
M205 X30 Y30
G0 F3600 X71.737 Y141.882
M204 S500
M205 X20 Y20
G1 F1800 X64.377 Y134.522 E76.75978
G1 X64.307 Y134.452
M204 S5000
M205 X30 Y30
G0 F3600 X65.164 Y135.875
M204 S500
M205 X20 Y20
G1 F1800 X71.097 Y141.808 E77.03885
G1 X71.167 Y141.878
M204 S5000
M205 X30 Y30
G0 F3600 X70.031 Y141.307
M204 S500
M205 X20 Y20
G1 F1800 X66.316 Y137.593 E77.21357
G1 X66.246 Y137.523
M204 S5000
M205 X30 Y30
G0 F3600 X71.875 Y138.626
M204 S500
