;FLAVOR:Marlin
;TIME:1860
;Filament used: 1.42332m
;Layer height: 0.28
;MINX:84
;MINY:65.5
;MINZ:0.28
;MAXX:136
;MAXY:154.5
;MAXZ:7
;Generated with Cura_SteamEngine 4.3.0
M140 S50
M105
M190 S50
M104 S200
M105
M109 S200
M82 ;absolute extrusion mode
M201 X500.00 Y500.00 Z100.00 E5000.00 ;Setup machine max acceleration
M203 X500.00 Y500.00 Z10.00 E50.00 ;Setup machine max feedrate
M204 P500.00 R1000.00 T500.00 ;Setup Print/Retract/Travel acceleration
M205 X8.00 Y8.00 Z0.40 E5.00 ;Setup Jerk
M220 S100 ;Reset Feedrate
M221 S100 ;Reset Flowrate

G28 ;Home

G92 E0 ;Reset Extruder
G1 Z2.0 F3000 ;Move Z Axis up
G1 X10.1 Y20 Z0.28 F5000.0 ;Move to start position
G1 X10.1 Y200.0 Z0.28 F1500.0 E15 ;Draw the first line
G1 X10.4 Y200.0 Z0.28 F5000.0 ;Move to side a little
G1 X10.4 Y20 Z0.28 F1500.0 E30 ;Draw the second line
G92 E0 ;Reset Extruder
G1 Z2.0 F3000 ;Move Z Axis up

G92 E0
G92 E0
G1 F2700 E-5
;LAYER_COUNT:25
;LAYER:0
M107
G0 F6000 X86.566 Y69.458 Z0.28
;TYPE:SKIRT
G1 F2700 E0
G1 F1200 X87.198 Y68.764 E0.04371
G1 X87.886 Y68.127 E0.08737
G1 X88.626 Y67.551 E0.13103
G1 X89.412 Y67.039 E0.17471
G1 X90.239 Y66.597 E0.21838
G1 X91.101 Y66.227 E0.26205
G1 X91.991 Y65.931 E0.30573
G1 X92.903 Y65.713 E0.34939
G1 X93.83 Y65.572 E0.39305
G1 X94.701 Y65.513 E0.4337
G1 X95.022 Y65.504 E0.44866
G1 X95.33 Y65.5 E0.463
G1 X124.293 Y65.5 E1.81164
G1 X124.451 Y65.501 E1.819
G1 X125.149 Y65.511 E1.8515
G1 X126.085 Y65.565 E1.89516
G1 X127.013 Y65.697 E1.9388
G1 X127.927 Y65.909 E1.98249
G1 X128.819 Y66.198 E2.02615
G1 X129.684 Y66.561 E2.06983
G1 X130.514 Y66.997 E2.11349
G1 X131.305 Y67.502 E2.15719
G1 X132.049 Y68.073 E2.20086
G1 X132.742 Y68.705 E2.24453
G1 X133.379 Y69.393 E2.28819
G1 X133.954 Y70.134 E2.33187
G1 X134.465 Y70.92 E2.37552
G1 X134.907 Y71.748 E2.41922
G1 X135.276 Y72.61 E2.46289
G1 X135.571 Y73.5 E2.50655
G1 X135.789 Y74.412 E2.55021
G1 X135.929 Y75.34 E2.59391
G1 X135.987 Y76.201 E2.63409
G1 X135.996 Y76.521 E2.649
G1 X136 Y76.83 E2.66339
G1 X136 Y90.774 E3.31268
G1 X135.999 Y90.926 E3.31976
G1 X135.989 Y91.651 E3.35352
G1 X135.98 Y91.966 E3.36819
G1 X135.926 Y93.237 E3.42743
G1 X135.853 Y95.784 E3.54608
G1 X135.853 Y98.31 E3.6637
G1 X135.925 Y100.884 E3.7836
G1 X135.974 Y101.857 E3.82897
G1 X135.983 Y102.096 E3.8401
G1 X135.995 Y102.515 E3.85962
G1 X136 Y102.83 E3.87429
G1 X136 Y116.774 E4.52358
G1 X135.999 Y116.926 E4.53066
G1 X135.989 Y117.651 E4.56442
G1 X135.98 Y117.966 E4.57909
G1 X135.926 Y119.237 E4.63833
G1 X135.853 Y121.784 E4.75698
G1 X135.853 Y124.31 E4.8746
G1 X135.925 Y126.884 E4.9945
G1 X135.974 Y127.857 E5.03987
G1 X135.983 Y128.096 E5.051
G1 X135.995 Y128.515 E5.07052
G1 X136 Y128.83 E5.08519
G1 X136 Y142.764 E5.73402
G1 X135.999 Y142.9 E5.74035
G1 X135.99 Y143.627 E5.77421
G1 X135.939 Y144.564 E5.8179
G1 X135.807 Y145.492 E5.86155
G1 X135.598 Y146.406 E5.90521
G1 X135.311 Y147.299 E5.94888
G1 X134.949 Y148.165 E5.99259
G1 X134.515 Y148.996 E6.03624
G1 X134.011 Y149.787 E6.07992
G1 X133.442 Y150.532 E6.12357
G1 X132.811 Y151.227 E6.16728
G1 X132.124 Y151.865 E6.21093
G1 X131.385 Y152.442 E6.25459
G1 X130.599 Y152.954 E6.29827
G1 X129.773 Y153.397 E6.34192
G1 X128.911 Y153.769 E6.38563
G1 X128.022 Y154.065 E6.42926
G1 X127.11 Y154.285 E6.47295
G1 X126.183 Y154.426 E6.51661
G1 X125.299 Y154.487 E6.55787
G1 X124.978 Y154.496 E6.57282
G1 X124.67 Y154.5 E6.58716
G1 X95.707 Y154.5 E7.9358
G1 X95.565 Y154.499 E7.94242
G1 X94.867 Y154.49 E7.97492
G1 X93.931 Y154.438 E8.01857
G1 X93.002 Y154.306 E8.06226
G1 X92.088 Y154.096 E8.10593
G1 X91.195 Y153.809 E8.14961
G1 X90.33 Y153.446 E8.19329
G1 X89.499 Y153.012 E8.23694
G1 X88.708 Y152.508 E8.28062
G1 X87.963 Y151.938 E8.3243
G1 X87.269 Y151.307 E8.36797
G1 X86.632 Y150.62 E8.4116
G1 X86.055 Y149.88 E8.45529
G1 X85.543 Y149.094 E8.49897
G1 X85.1 Y148.267 E8.54266
G1 X84.729 Y147.406 E8.58631
G1 X84.433 Y146.516 E8.62999
G1 X84.214 Y145.604 E8.67366
G1 X84.073 Y144.677 E8.71732
G1 X84.013 Y143.788 E8.75881
G1 X84.004 Y143.455 E8.77432
G1 X84 Y143.158 E8.78815
G1 X84 Y129.207 E9.43777
G1 X84.001 Y129.052 E9.44499
G1 X84.011 Y128.342 E9.47805
G1 X84.02 Y128.029 E9.49263
G1 X84.074 Y126.759 E9.55182
G1 X84.147 Y124.216 E9.67028
G1 X84.147 Y121.69 E9.78791
G1 X84.075 Y119.116 E9.90781
G1 X84.026 Y118.143 E9.95317
G1 X84.016 Y117.899 E9.96454
G1 X84.004 Y117.474 E9.98434
G1 X84 Y117.164 E9.99878
G1 X84 Y103.207 E10.64867
G1 X84.001 Y103.052 E10.65589
G1 X84.011 Y102.342 E10.68896
G1 X84.02 Y102.029 E10.70354
G1 X84.074 Y100.759 E10.76273
G1 X84.147 Y98.216 E10.88119
G1 X84.147 Y95.69 E10.99881
G1 X84.075 Y93.116 E11.11871
G1 X84.026 Y92.143 E11.16408
G1 X84.016 Y91.899 E11.17545
G1 X84.004 Y91.474 E11.19525
G1 X84 Y91.164 E11.20968
G1 X84 Y77.174 E11.86111
G1 X84.001 Y77.025 E11.86805
G1 X84.01 Y76.36 E11.89902
G1 X84.063 Y75.424 E11.94267
G1 X84.195 Y74.495 E11.98637
G1 X84.406 Y73.581 E12.03005
G1 X84.694 Y72.689 E12.07369
G1 X85.057 Y71.824 E12.11737
G1 X85.492 Y70.993 E12.16105
G1 X85.996 Y70.203 E12.20468
G1 X86.566 Y69.458 E12.24836
G0 F6000 X86.961 Y69.611
G1 F1200 X87.589 Y68.939 E12.29119
G1 X88.274 Y68.323 E12.33409
G1 X89.01 Y67.77 E12.37695
G1 X89.791 Y67.282 E12.41984
G1 X90.611 Y66.864 E12.46269
G1 X91.465 Y66.519 E12.50558
G1 X92.345 Y66.249 E12.54844
G1 X93.245 Y66.057 E12.59129
G1 X94.159 Y65.943 E12.63418
G1 X94.712 Y65.913 E12.65997
G1 X95.033 Y65.904 E12.67493
G1 X95.33 Y65.9 E12.68876
G1 X124.293 Y65.9 E14.03739
G1 X124.445 Y65.901 E14.04447
G1 X125.143 Y65.911 E14.07698
G1 X126.062 Y65.964 E14.11984
G1 X126.973 Y66.097 E14.16271
G1 X127.869 Y66.308 E14.20557
G1 X128.743 Y66.596 E14.24842
G1 X129.59 Y66.959 E14.29133
G1 X130.401 Y67.394 E14.33419
G1 X131.171 Y67.898 E14.37704
G1 X131.895 Y68.467 E14.41992
G1 X132.567 Y69.097 E14.46281
G1 X133.182 Y69.782 E14.50567
G1 X133.735 Y70.518 E14.54854
G1 X134.222 Y71.299 E14.5914
G1 X134.639 Y72.12 E14.63428
G1 X134.984 Y72.974 E14.67716
G1 X135.253 Y73.854 E14.72001
G1 X135.445 Y74.755 E14.76291
G1 X135.558 Y75.668 E14.80575
G1 X135.587 Y76.212 E14.83111
G1 X135.596 Y76.532 E14.84602
G1 X135.6 Y76.83 E14.8599
G1 X135.6 Y90.774 E15.50919
G1 X135.599 Y90.92 E15.51599
G1 X135.589 Y91.645 E15.54975
G1 X135.58 Y91.949 E15.56391
G1 X135.53 Y93.121 E15.61853
G1 X135.453 Y95.808 E15.7437
G1 X135.453 Y98.321 E15.86072
G1 X135.524 Y100.871 E15.9795
G1 X135.575 Y101.877 E16.02641
G1 X135.584 Y102.108 E16.03717
G1 X135.596 Y102.527 E16.05669
G1 X135.6 Y102.83 E16.0708
G1 X135.6 Y116.774 E16.72009
G1 X135.599 Y116.92 E16.72689
G1 X135.589 Y117.645 E16.76065
G1 X135.58 Y117.949 E16.77481
G1 X135.53 Y119.121 E16.82944
G1 X135.453 Y121.808 E16.9546
G1 X135.453 Y124.321 E17.07162
G1 X135.524 Y126.871 E17.19041
G1 X135.575 Y127.877 E17.23731
G1 X135.584 Y128.108 E17.24807
G1 X135.596 Y128.527 E17.26759
G1 X135.6 Y128.83 E17.2817
G1 X135.6 Y142.764 E17.93053
G1 X135.599 Y142.895 E17.93663
G1 X135.59 Y143.622 E17.97048
G1 X135.539 Y144.541 E18.01334
G1 X135.408 Y145.453 E18.05624
G1 X135.198 Y146.349 E18.0991
G1 X134.912 Y147.224 E18.14196
G1 X134.551 Y148.071 E18.18483
G1 X134.117 Y148.883 E18.2277
G1 X133.615 Y149.655 E18.27058
G1 X133.047 Y150.38 E18.31347
G1 X132.419 Y151.053 E18.35633
G1 X131.735 Y151.669 E18.39919
G1 X131 Y152.223 E18.44205
G1 X130.22 Y152.712 E18.48492
G1 X129.4 Y153.131 E18.5278
G1 X128.547 Y153.477 E18.57066
G1 X127.667 Y153.748 E18.61354
G1 X126.767 Y153.941 E18.6564
G1 X125.853 Y154.056 E18.69929
G1 X125.288 Y154.087 E18.72564
G1 X124.967 Y154.096 E18.74059
G1 X124.67 Y154.1 E18.75442
G1 X95.707 Y154.1 E20.10306
G1 X95.57 Y154.099 E20.10944
G1 X94.872 Y154.09 E20.14195
G1 X93.953 Y154.038 E20.18481
G1 X93.042 Y153.907 E20.22766
G1 X92.146 Y153.697 E20.27052
G1 X91.271 Y153.41 E20.3134
G1 X90.424 Y153.048 E20.35629
G1 X89.612 Y152.614 E20.39916
G1 X88.841 Y152.112 E20.442
G1 X88.116 Y151.544 E20.48488
G1 X87.443 Y150.915 E20.52778
G1 X86.828 Y150.231 E20.57061
G1 X86.274 Y149.496 E20.61347
G1 X85.786 Y148.715 E20.65635
G1 X85.367 Y147.895 E20.69923
G1 X85.021 Y147.042 E20.74209
G1 X84.751 Y146.162 E20.78495
G1 X84.558 Y145.261 E20.82786
G1 X84.444 Y144.348 E20.8707
G1 X84.413 Y143.777 E20.89733
G1 X84.404 Y143.444 E20.91284
G1 X84.4 Y143.158 E20.92616
G1 X84.4 Y129.207 E21.57578
G1 X84.401 Y129.058 E21.58271
G1 X84.411 Y128.348 E21.61578
G1 X84.42 Y128.046 E21.62985
G1 X84.471 Y126.86 E21.68512
G1 X84.547 Y124.178 E21.81006
G1 X84.547 Y121.679 E21.92642
G1 X84.475 Y119.121 E22.04558
G1 X84.425 Y118.123 E22.09211
G1 X84.416 Y117.888 E22.10306
G1 X84.404 Y117.463 E22.12286
G1 X84.4 Y117.164 E22.13678
G1 X84.4 Y103.207 E22.78668
G1 X84.401 Y103.058 E22.79362
G1 X84.411 Y102.348 E22.82668
G1 X84.42 Y102.046 E22.84075
G1 X84.471 Y100.86 E22.89602
G1 X84.547 Y98.178 E23.02096
G1 X84.547 Y95.679 E23.13732
G1 X84.475 Y93.121 E23.25648
G1 X84.425 Y92.123 E23.30301
G1 X84.416 Y91.888 E23.31396
G1 X84.404 Y91.463 E23.33376
G1 X84.4 Y91.164 E23.34768
G1 X84.4 Y77.174 E23.99912
G1 X84.401 Y77.031 E24.00578
G1 X84.41 Y76.366 E24.03674
G1 X84.462 Y75.446 E24.07965
G1 X84.594 Y74.535 E24.12251
G1 X84.805 Y73.639 E24.16538
G1 X85.092 Y72.764 E24.20826
G1 X85.455 Y71.918 E24.25112
G1 X85.889 Y71.106 E24.29399
G1 X86.392 Y70.335 E24.33686
G1 X86.961 Y69.611 E24.37974
G0 F6000 X87.355 Y69.767
G1 F1200 X87.981 Y69.117 E24.42176
G1 X88.662 Y68.524 E24.46381
G1 X89.394 Y67.994 E24.50589
G1 X90.169 Y67.531 E24.54792
G1 X90.982 Y67.138 E24.58997
G1 X91.827 Y66.818 E24.63205
G1 X92.696 Y66.575 E24.67406
G1 X93.584 Y66.409 E24.71613
G1 X94.723 Y66.313 E24.76935
G1 X95.044 Y66.304 E24.78431
G1 X95.33 Y66.3 E24.79762
G1 X124.293 Y66.3 E26.14626
G1 X124.439 Y66.301 E26.15306
G1 X125.137 Y66.311 E26.18557
G1 X126.039 Y66.364 E26.22764
G1 X126.932 Y66.496 E26.26967
G1 X127.81 Y66.707 E26.31172
G1 X128.666 Y66.995 E26.35378
G1 X129.493 Y67.357 E26.39581
G1 X130.285 Y67.792 E26.43789
G1 X131.036 Y68.294 E26.47995
G1 X131.739 Y68.861 E26.522
G1 X132.389 Y69.488 E26.56406
G1 X132.981 Y70.17 E26.60611
G1 X133.511 Y70.901 E26.64815
G1 X133.973 Y71.677 E26.69021
G1 X134.366 Y72.49 E26.73225
G1 X134.684 Y73.335 E26.77429
G1 X134.927 Y74.205 E26.81636
G1 X135.092 Y75.093 E26.85841
G1 X135.187 Y76.223 E26.91122
G1 X135.196 Y76.543 E26.92612
G1 X135.2 Y76.83 E26.93949
G1 X135.2 Y90.774 E27.58878
G1 X135.199 Y90.915 E27.59534
G1 X135.189 Y91.64 E27.62911
G1 X135.181 Y91.932 E27.64271
G1 X135.128 Y93.181 E27.70092
G1 X135.053 Y95.796 E27.82273
G1 X135.053 Y98.332 E27.94082
G1 X135.125 Y100.904 E28.06063
G1 X135.175 Y101.898 E28.10697
G1 X135.184 Y102.119 E28.11727
G1 X135.196 Y102.538 E28.13679
G1 X135.2 Y102.83 E28.15039
G1 X135.2 Y116.774 E28.79968
G1 X135.199 Y116.915 E28.80625
G1 X135.189 Y117.64 E28.84001
G1 X135.181 Y117.932 E28.85361
G1 X135.128 Y119.181 E28.91182
G1 X135.053 Y121.796 E29.03364
G1 X135.053 Y124.332 E29.15172
G1 X135.125 Y126.904 E29.27153
G1 X135.175 Y127.898 E29.31788
G1 X135.184 Y128.119 E29.32818
G1 X135.196 Y128.538 E29.3477
G1 X135.2 Y128.83 E29.36129
G1 X135.2 Y142.764 E30.01012
G1 X135.199 Y142.89 E30.01599
G1 X135.19 Y143.617 E30.04984
G1 X135.139 Y144.519 E30.09191
G1 X135.008 Y145.413 E30.13398
G1 X134.799 Y146.291 E30.17601
G1 X134.513 Y147.148 E30.21808
G1 X134.152 Y147.976 E30.26014
G1 X133.72 Y148.768 E30.30215
G1 X133.219 Y149.52 E30.34422
G1 X132.653 Y150.224 E30.38628
G1 X132.028 Y150.875 E30.42831
G1 X131.347 Y151.469 E30.47038
G1 X130.616 Y152 E30.51245
G1 X129.842 Y152.464 E30.55447
G1 X129.029 Y152.858 E30.59654
G1 X128.185 Y153.178 E30.63857
G1 X127.315 Y153.423 E30.68066
G1 X126.428 Y153.589 E30.72268
G1 X125.277 Y153.687 E30.77647
G1 X124.956 Y153.696 E30.79142
G1 X124.67 Y153.7 E30.80474
G1 X95.707 Y153.7 E32.15338
G1 X95.575 Y153.699 E32.15953
G1 X94.877 Y153.69 E32.19203
G1 X93.976 Y153.639 E32.23405
G1 X93.082 Y153.507 E32.27613
G1 X92.204 Y153.298 E32.31816
G1 X91.347 Y153.011 E32.36024
G1 X90.52 Y152.65 E32.40226
G1 X89.727 Y152.217 E32.44433
G1 X88.976 Y151.716 E32.48637
G1 X88.272 Y151.15 E32.52843
G1 X87.621 Y150.524 E32.57048
G1 X87.028 Y149.843 E32.61253
G1 X86.498 Y149.112 E32.65457
G1 X86.034 Y148.337 E32.69663
G1 X85.64 Y147.524 E32.7387
G1 X85.32 Y146.68 E32.78073
G1 X85.076 Y145.81 E32.82281
G1 X84.91 Y144.922 E32.86487
G1 X84.813 Y143.767 E32.91884
G1 X84.804 Y143.434 E32.93435
G1 X84.8 Y143.158 E32.94721
G1 X84.8 Y129.207 E33.59682
G1 X84.801 Y129.063 E33.60353
G1 X84.811 Y128.353 E33.63659
G1 X84.819 Y128.063 E33.6501
G1 X84.873 Y126.787 E33.70957
G1 X84.947 Y124.189 E33.83059
G1 X84.947 Y121.668 E33.94798
G1 X84.875 Y119.096 E34.06779
G1 X84.825 Y118.102 E34.11414
G1 X84.816 Y117.877 E34.12462
G1 X84.804 Y117.452 E34.14442
G1 X84.8 Y117.164 E34.15783
G1 X84.8 Y103.207 E34.80773
G1 X84.801 Y103.063 E34.81443
G1 X84.811 Y102.353 E34.8475
G1 X84.819 Y102.063 E34.861
G1 X84.873 Y100.787 E34.92047
G1 X84.947 Y98.189 E35.0415
G1 X84.947 Y95.668 E35.15889
G1 X84.875 Y93.096 E35.2787
G1 X84.825 Y92.102 E35.32504
G1 X84.816 Y91.877 E35.33552
G1 X84.804 Y91.452 E35.35532
G1 X84.8 Y91.164 E35.36873
G1 X84.8 Y77.174 E36.02017
G1 X84.801 Y77.036 E36.02659
G1 X84.81 Y76.371 E36.05756
G1 X84.862 Y75.469 E36.09963
G1 X84.994 Y74.576 E36.14166
G1 X85.204 Y73.698 E36.1837
G1 X85.491 Y72.841 E36.22578
G1 X85.853 Y72.014 E36.26782
G1 X86.286 Y71.222 E36.30985
G1 X86.788 Y70.471 E36.35191
G1 X87.355 Y69.767 E36.39401
G1 F2700 E31.39401
;MESH:3cc83ed3-5015-4b48-9d39-29ab56c8b622.stl(2)
G0 F6000 X96.808 Y75.872
G0 X109.109 Y83.817
G0 X109.178 Y83.863
G0 X107.739 Y83.611
G0 X108.306 Y84.947
G0 X108.717 Y85.458
G0 X108.875 Y85.554
G0 X109.909 Y86.101
;TYPE:WALL-INNER
G1 F2700 E36.39401
G1 F1200 X110.269 Y86.085 E36.41079
G1 X110.616 Y86.01 E36.42732
G1 X110.945 Y85.877 E36.44384
G1 X111.249 Y85.691 E36.46044
G1 X111.518 Y85.455 E36.4771
G1 X111.741 Y85.177 E36.49369
G1 X111.916 Y84.867 E36.51027
G1 X112.034 Y84.53 E36.5269
G1 X112.095 Y84.178 E36.54353
G1 X112.095 Y83.822 E36.56011
G1 X112.034 Y83.47 E36.57674
G1 X111.916 Y83.133 E36.59337
G1 X111.741 Y82.823 E36.60994
G1 X111.518 Y82.545 E36.62654
G1 X111.249 Y82.309 E36.6432
G1 X110.945 Y82.123 E36.6598
G1 X110.616 Y81.99 E36.67632
G1 X110.269 Y81.915 E36.69285
G1 X109.909 Y81.899 E36.70963
G1 X109.557 Y81.946 E36.72617
G1 X109.216 Y82.049 E36.74276
G1 X108.899 Y82.21 E36.75931
G1 X108.611 Y82.421 E36.77594
G1 X108.365 Y82.68 E36.79257
G1 X108.164 Y82.974 E36.80915
G1 X108.018 Y83.3 E36.82578
G1 X107.928 Y83.644 E36.84234
G1 X107.897 Y84 E36.85898
G1 X107.928 Y84.356 E36.87562
G1 X108.018 Y84.7 E36.89218
G1 X108.164 Y85.026 E36.90881
G1 X108.365 Y85.32 E36.92539
G1 X108.611 Y85.579 E36.94203
G1 X108.899 Y85.79 E36.95865
G1 X109.216 Y85.951 E36.97521
G1 X109.557 Y86.054 E36.99179
G1 X109.909 Y86.101 E37.00833
G0 F6000 X109.927 Y85.7
;TYPE:WALL-OUTER
G1 F1200 X110.217 Y85.687 E37.02185
G1 X110.498 Y85.626 E37.03524
G1 X110.765 Y85.518 E37.04865
G1 X111.011 Y85.368 E37.06206
G1 X111.228 Y85.177 E37.07553
G1 X111.409 Y84.952 E37.08897
G1 X111.55 Y84.701 E37.10238
G1 X111.646 Y84.429 E37.11581
G1 X111.695 Y84.144 E37.12927
G1 X111.695 Y83.856 E37.14268
G1 X111.646 Y83.571 E37.15615
G1 X111.55 Y83.299 E37.16958
G1 X111.409 Y83.048 E37.18299
G1 X111.228 Y82.823 E37.19643
G1 X111.011 Y82.632 E37.20989
G1 X110.765 Y82.482 E37.22331
G1 X110.498 Y82.374 E37.23672
G1 X110.217 Y82.313 E37.25011
G1 X109.927 Y82.3 E37.26363
G1 X109.642 Y82.338 E37.27702
G1 X109.366 Y82.422 E37.29045
G1 X109.109 Y82.552 E37.30386
G1 X108.876 Y82.723 E37.31732
G1 X108.677 Y82.932 E37.33076
G1 X108.515 Y83.17 E37.34416
G1 X108.397 Y83.433 E37.35758
G1 X108.324 Y83.712 E37.37101
G1 X108.299 Y84 E37.38447
G1 X108.324 Y84.288 E37.39793
G1 X108.397 Y84.567 E37.41136
G1 X108.515 Y84.83 E37.42479
G1 X108.677 Y85.068 E37.43819
G1 X108.876 Y85.277 E37.45163
G1 X109.109 Y85.448 E37.46509
G1 X109.366 Y85.578 E37.4785
G1 X109.642 Y85.662 E37.49193
G1 X109.927 Y85.7 E37.50532
G0 F6000 X109.908 Y86.139
G1 F2700 E32.50532
G0 F6000 X108.799 Y85.952
G0 X109.562 Y84.708
G0 X109.553 Y84.788
G0 X108.806 Y92.084
G0 X108.799 Y92.165
G0 X108.799 Y90.69
G0 X95.6 Y90.9
;TYPE:WALL-INNER
G1 F2700 E37.50532
G1 F1200 X95.6 Y77.1 E38.14791
G1 X124.4 Y77.1 E39.48895
