;FLAVOR:Marlin
;TIME:12486
;Filament used: 16.392m
;Layer height: 0.3
;MINX:67.862
;MINY:68.759
;MINZ:0.2
;MAXX:165.615
;MAXY:166.344
;MAXZ:66.8
;Generated with Cura_SteamEngine 4.1.0
M140 S60
M105
M190 S60
M104 S200
M105
M109 S200
M82 ;absolute extrusion mode
; Ender 3 Custom Start G-code
G28 ; Home all axes
G92 E0 ; Reset Extruder
G1 Z2.0 F3000 ; Move Z Axis up little to prevent scratching of Heat Bed
G1 X0.1 Y20 Z0.3 F5000.0 ; Move to start position
G1 X0.1 Y200.0 Z0.3 F1500.0 E15 ; Draw the first line
G1 X0.4 Y200.0 Z0.3 F5000.0 ; Move to side a little
G1 X0.4 Y20 Z0.3 F1500.0 E30 ; Draw the second line
G92 E0 ; Reset Extruder
G1 Z2.0 F3000 ; Move Z Axis up little to prevent scratching of Heat Bed
; End of custom start GCode
G92 E0
G92 E0
G1 F2400 E-5
;LAYER_COUNT:223
;LAYER:0
M107
M204 S500
M205 X10 Y10
G0 F3600 X109.628 Y71.46 Z0.2
;TYPE:SKIRT
G1 F2400 E0
G1 F1800 X110.073 Y70.9 E0.02379
G1 X110.577 Y70.393 E0.04757
G1 X111.135 Y69.945 E0.07137
G1 X111.739 Y69.562 E0.09516
G1 X112.382 Y69.249 E0.11894
G1 X113.056 Y69.01 E0.14273
G1 X113.753 Y68.847 E0.16653
G1 X114.463 Y68.763 E0.19031
G1 X115.178 Y68.759 E0.21409
G1 X115.89 Y68.835 E0.23791
G1 X116.588 Y68.99 E0.26169
G1 X117.265 Y69.221 E0.28548
G1 X117.911 Y69.527 E0.30926
G1 X118.52 Y69.903 E0.33306
G1 X119.083 Y70.344 E0.35685
G1 X119.592 Y70.846 E0.38063
G1 X120.043 Y71.401 E0.40441
G1 X120.429 Y72.003 E0.4282
G1 X120.603 Y72.332 E0.44058
G1 X121.021 Y73.184 E0.47214
G1 X121.075 Y73.298 E0.47634
G1 X127.148 Y86.32 E0.95423
G1 X128.338 Y88.78 E1.04512
G1 X129.559 Y91.132 E1.13327
G1 X130.852 Y93.457 E1.22175
G1 X132.196 Y95.723 E1.30938
G1 X133.627 Y97.988 E1.39849
G1 X135.076 Y100.144 E1.48489
G1 X136.618 Y102.302 E1.5731
G1 X138.226 Y104.423 E1.66163
G1 X139.887 Y106.491 E1.74985
G1 X141.593 Y108.496 E1.83741
G1 X143.367 Y110.465 E1.92556
G1 X145.207 Y112.394 E2.01422
G1 X147.087 Y114.256 E2.10223
G1 X149.008 Y116.057 E2.18981
G1 X151.01 Y117.827 E2.27869
G1 X152.997 Y119.487 E2.36481
G1 X155.121 Y121.162 E2.45478
G1 X157.637 Y123.026 E2.55892
G1 X158.187 Y123.483 E2.58271
G1 X158.845 Y124.196 E2.61498
G1 X159.149 Y124.58 E2.63126
G1 X159.561 Y125.164 E2.65504
G1 X159.896 Y125.773 E2.67815
G1 X160.378 Y126.773 E2.71508
G1 X160.436 Y126.896 E2.7196
G1 X161.129 Y128.415 E2.77513
G1 X161.166 Y128.498 E2.77815
G1 X161.444 Y129.131 E2.80115
G1 X161.647 Y129.656 E2.81987
G1 X161.848 Y130.251 E2.84076
G1 X162.104 Y131.283 E2.87612
G1 X162.14 Y131.507 E2.88367
G1 X162.176 Y131.769 E2.89246
G1 X162.223 Y132.165 E2.90573
G1 X162.264 Y132.706 E2.92377
G1 X162.309 Y134.048 E2.96843
G1 X162.411 Y136.334 E3.04454
G1 X162.597 Y138.965 E3.13227
G1 X162.861 Y141.622 E3.22107
G1 X163.195 Y144.237 E3.30876
G1 X163.603 Y146.833 E3.39616
G1 X164.088 Y149.44 E3.48436
G1 X164.646 Y152.034 E3.57261
G1 X165.197 Y154.299 E3.65014
G1 X165.36 Y154.934 E3.67194
G1 X165.496 Y155.618 E3.69514
G1 X165.534 Y155.883 E3.70404
G1 X165.576 Y156.244 E3.71613
G1 X165.599 Y156.512 E3.72508
G1 X165.615 Y157.351 E3.75299
G1 X165.599 Y157.701 E3.76464
G1 X165.583 Y157.948 E3.77287
G1 X165.549 Y158.35 E3.78629
G1 X165.449 Y159.059 E3.81011
G1 X165.303 Y159.648 E3.83029
G1 X165.158 Y160.132 E3.84709
G1 X164.915 Y160.804 E3.87086
G1 X164.739 Y161.181 E3.8847
G1 X164.644 Y161.369 E3.89171
G1 X164.543 Y161.562 E3.89895
G1 X164.391 Y161.839 E3.90946
G1 X164.012 Y162.446 E3.93326
G1 X163.728 Y162.819 E3.94885
G1 X163.404 Y163.214 E3.96585
G1 X162.92 Y163.741 E3.98964
G1 X162.525 Y164.095 E4.00729
G1 X162.122 Y164.427 E4.02465
G1 X161.546 Y164.85 E4.04842
G1 X161.18 Y165.071 E4.06264
G1 X160.955 Y165.197 E4.07122
G1 X160.748 Y165.308 E4.07903
G1 X160.514 Y165.428 E4.08778
G1 X159.572 Y165.82 E4.12171
G1 X159.335 Y165.897 E4.13
G1 X159.123 Y165.962 E4.13738
G1 X158.907 Y166.024 E4.14485
G1 X158.056 Y166.206 E4.17379
G1 X157.8 Y166.243 E4.1824
G1 X157.054 Y166.307 E4.2073
G1 X155.726 Y166.342 E4.25149
G1 X155.557 Y166.344 E4.25711
G1 X85.239 Y166.344 E6.59589
G1 X85.152 Y166.343 E6.59879
G1 X84.635 Y166.336 E6.61598
G1 X84.425 Y166.33 E6.62297
G1 X83.541 Y166.289 E6.65241
G1 X83.328 Y166.276 E6.6595
G1 X82.915 Y166.243 E6.67328
G1 X82.401 Y166.181 E6.6905
G1 X82.043 Y166.123 E6.70257
G1 X81.765 Y166.071 E6.71197
G1 X81.024 Y165.917 E6.73714
G1 X80.487 Y165.781 E6.75557
G1 X80.177 Y165.688 E6.76633
G1 X79.925 Y165.607 E6.77514
G1 X79.167 Y165.345 E6.80181
G1 X78.811 Y165.21 E6.81448
G1 X77.561 Y164.693 E6.85947
G1 X75.059 Y163.699 E6.94901
G1 X74.051 Y163.328 E6.98473
G1 X73.936 Y163.284 E6.98883
G1 X73.564 Y163.139 E7.00211
G1 X72.913 Y162.842 E7.02591
G1 X72.299 Y162.475 E7.0497
G1 X71.73 Y162.041 E7.0735
G1 X71.213 Y161.547 E7.09729
G1 X70.755 Y160.998 E7.12107
G1 X70.36 Y160.402 E7.14485
G1 X70.07 Y159.842 E7.16582
G1 X69.977 Y159.639 E7.17325
G1 X69.792 Y159.193 E7.18931
G1 X69.684 Y158.901 E7.19966
G1 X69.668 Y158.855 E7.20128
G1 X69.115 Y157.324 E7.25542
G1 X69.093 Y157.262 E7.25761
G1 X68.7 Y156.138 E7.29722
G1 X68.677 Y156.073 E7.29951
G1 X68.417 Y155.303 E7.32654
G1 X68.389 Y155.218 E7.32952
G1 X68.168 Y154.532 E7.35349
G1 X67.987 Y153.84 E7.37728
G1 X67.885 Y153.133 E7.40104
G1 X67.862 Y152.418 E7.42483
G1 X67.919 Y151.705 E7.44862
G1 X68.055 Y151.003 E7.4724
G1 X68.269 Y150.32 E7.49621
G1 X68.509 Y149.762 E7.51641
G1 X69.213 Y148.32 E7.56978
G1 X70.919 Y144.634 E7.70487
G1 X71.017 Y144.431 E7.71237
G1 X71.533 Y143.412 E7.75036
G1 X71.585 Y143.313 E7.75408
G1 X108.913 Y72.681 E10.4112
G1 X108.963 Y72.587 E10.41474
G1 X109.249 Y72.067 E10.43448
G1 X109.628 Y71.46 E10.45828
G0 F3600 X109.968 Y71.673
G1 F1800 X110.401 Y71.133 E10.4813
G1 X110.894 Y70.646 E10.50435
G1 X111.439 Y70.219 E10.52738
G1 X112.03 Y69.858 E10.55041
G1 X112.659 Y69.568 E10.57345
G1 X113.317 Y69.352 E10.59648
G1 X113.996 Y69.213 E10.61954
G1 X114.686 Y69.153 E10.64257
G1 X115.378 Y69.174 E10.6656
G1 X116.063 Y69.273 E10.68862
G1 X116.732 Y69.452 E10.71165
G1 X117.377 Y69.706 E10.73471
G1 X117.987 Y70.032 E10.75771
G1 X118.556 Y70.427 E10.78075
G1 X119.076 Y70.885 E10.8038
G1 X119.539 Y71.399 E10.82681
G1 X119.941 Y71.964 E10.84987
G1 X120.244 Y72.508 E10.87058
G1 X120.662 Y73.36 E10.90215
G1 X120.713 Y73.467 E10.90609
G1 X126.818 Y86.557 E11.38649
G1 X127.974 Y88.945 E11.47473
G1 X129.212 Y91.331 E11.56413
G1 X130.501 Y93.65 E11.65238
G1 X131.857 Y95.936 E11.74078
G1 X133.274 Y98.179 E11.82902
G1 X134.763 Y100.394 E11.91779
G1 X136.307 Y102.554 E12.0061
G1 X137.911 Y104.67 E12.09442
G1 X139.572 Y106.738 E12.18264
G1 X141.29 Y108.757 E12.27081
G1 X143.081 Y110.745 E12.35981
G1 X144.918 Y112.671 E12.44833
G1 X146.814 Y114.55 E12.53711
G1 X148.716 Y116.332 E12.6238
G1 X150.755 Y118.135 E12.71433
G1 X152.756 Y119.806 E12.80104
G1 X154.865 Y121.469 E12.89037
G1 X157.399 Y123.347 E12.99527
G1 X157.931 Y123.791 E13.01832
G1 X158.531 Y124.444 E13.04781
G1 X158.835 Y124.828 E13.0641
G1 X159.233 Y125.395 E13.08714
G1 X159.536 Y125.947 E13.10809
G1 X160.018 Y126.947 E13.14501
G1 X160.072 Y127.062 E13.14924
G1 X160.765 Y128.581 E13.20477
G1 X160.8 Y128.658 E13.20758
G1 X161.078 Y129.291 E13.23058
G1 X161.268 Y129.784 E13.24815
G1 X161.469 Y130.379 E13.26904
G1 X161.709 Y131.347 E13.30221
G1 X161.745 Y131.571 E13.30975
G1 X161.779 Y131.816 E13.31798
G1 X161.826 Y132.212 E13.33124
G1 X161.865 Y132.72 E13.34819
G1 X161.912 Y134.132 E13.39518
G1 X162.01 Y136.344 E13.46882
G1 X162.198 Y138.994 E13.55718
G1 X162.464 Y141.675 E13.64679
G1 X162.798 Y144.283 E13.73424
G1 X163.208 Y146.897 E13.82225
G1 X163.697 Y149.525 E13.91116
G1 X164.26 Y152.142 E14.00019
G1 X164.808 Y154.396 E14.07734
G1 X164.972 Y155.033 E14.09922
G1 X165.1 Y155.674 E14.12096
G1 X165.138 Y155.939 E14.12986
G1 X165.177 Y156.278 E14.14121
G1 X165.2 Y156.546 E14.15016
G1 X165.216 Y157.333 E14.17634
G1 X165.2 Y157.683 E14.18799
G1 X165.185 Y157.915 E14.19573
G1 X165.151 Y158.317 E14.20914
G1 X165.053 Y159.002 E14.23216
G1 X164.92 Y159.533 E14.25037
G1 X164.775 Y160.017 E14.26717
G1 X164.538 Y160.668 E14.29021
G1 X164.382 Y161.001 E14.30244
G1 X164.287 Y161.189 E14.30945
G1 X164.192 Y161.369 E14.31622
G1 X164.04 Y161.646 E14.32673
G1 X163.672 Y162.233 E14.34977
G1 X163.419 Y162.565 E14.36365
G1 X163.095 Y162.96 E14.38065
G1 X162.626 Y163.469 E14.40367
G1 X162.271 Y163.786 E14.4195
G1 X161.868 Y164.118 E14.43686
G1 X161.309 Y164.527 E14.4599
G1 X160.985 Y164.722 E14.47248
G1 X160.76 Y164.848 E14.48106
G1 X160.566 Y164.952 E14.48838
G1 X160.332 Y165.072 E14.49712
G1 X159.448 Y165.439 E14.52896
G1 X159.211 Y165.516 E14.53725
G1 X159.012 Y165.577 E14.54417
G1 X158.796 Y165.639 E14.55164
G1 X157.999 Y165.81 E14.57876
G1 X157.743 Y165.847 E14.58736
G1 X157.043 Y165.907 E14.61073
G1 X155.715 Y165.942 E14.65491
G1 X155.557 Y165.944 E14.66017
G1 X85.239 Y165.944 E16.99895
G1 X85.158 Y165.943 E17.00165
G1 X84.641 Y165.936 E17.01884
G1 X84.444 Y165.931 E17.0254
G1 X83.56 Y165.89 E17.05483
G1 X83.36 Y165.877 E17.0615
G1 X82.947 Y165.844 E17.07528
G1 X82.465 Y165.786 E17.09142
G1 X82.107 Y165.728 E17.10349
G1 X81.846 Y165.679 E17.11232
G1 X81.105 Y165.525 E17.13749
G1 X80.602 Y165.398 E17.15475
G1 X80.292 Y165.305 E17.16551
G1 X80.056 Y165.229 E17.17376
G1 X79.298 Y164.967 E17.20043
G1 X78.964 Y164.84 E17.21232
G1 X77.713 Y164.322 E17.25735
G1 X75.196 Y163.322 E17.34743
G1 X74.189 Y162.952 E17.38311
G1 X74.081 Y162.911 E17.38696
G1 X73.709 Y162.766 E17.40024
G1 X73.079 Y162.478 E17.42328
G1 X72.487 Y162.119 E17.4463
G1 X71.94 Y161.694 E17.46934
G1 X71.446 Y161.209 E17.49237
G1 X71.011 Y160.67 E17.51541
G1 X70.64 Y160.085 E17.53845
G1 X70.433 Y159.675 E17.55372
G1 X70.34 Y159.472 E17.56115
G1 X70.168 Y159.054 E17.57618
G1 X70.06 Y158.762 E17.58654
G1 X70.044 Y158.719 E17.58806
G1 X69.491 Y157.188 E17.6422
G1 X69.47 Y157.13 E17.64426
G1 X69.077 Y156.006 E17.68386
G1 X69.056 Y155.946 E17.68597
G1 X68.796 Y155.176 E17.71301
G1 X68.77 Y155.096 E17.7158
G1 X68.549 Y154.41 E17.73977
G1 X68.375 Y153.74 E17.7628
G1 X68.28 Y153.054 E17.78583
G1 X68.264 Y152.361 E17.80889
G1 X68.328 Y151.672 E17.8319
G1 X68.471 Y150.994 E17.85495
G1 X68.691 Y150.337 E17.87799
G1 X68.868 Y149.937 E17.89254
G1 X69.587 Y148.466 E17.947
G1 X71.282 Y144.802 E18.08127
G1 X71.374 Y144.611 E18.08832
G1 X71.89 Y143.592 E18.12631
G1 X71.938 Y143.5 E18.12976
G1 X109.266 Y72.868 E20.78688
G1 X109.314 Y72.779 E20.79025
G1 X109.6 Y72.259 E20.80999
G1 X109.968 Y71.673 E20.833
G0 F3600 X110.307 Y71.886
G1 F1800 X110.729 Y71.367 E20.85525
G1 X111.21 Y70.902 E20.8775
G1 X111.742 Y70.497 E20.89974
G1 X112.32 Y70.159 E20.92201
G1 X112.933 Y69.892 E20.94425
G1 X113.574 Y69.7 E20.9665
G1 X114.233 Y69.586 E20.98875
G1 X114.901 Y69.551 E21.011
G1 X115.569 Y69.596 E21.03326
G1 X116.226 Y69.721 E21.05551
G1 X116.864 Y69.923 E21.07777
G1 X117.473 Y70.2 E21.10002
G1 X118.045 Y70.547 E21.12227
G1 X118.571 Y70.96 E21.14451
G1 X119.045 Y71.433 E21.16679
G1 X119.458 Y71.959 E21.18903
G1 X119.885 Y72.684 E21.21701
G1 X120.303 Y73.536 E21.24858
G1 X120.35 Y73.636 E21.25225
G1 X126.428 Y86.669 E21.73055
G1 X127.623 Y89.139 E21.82182
G1 X128.865 Y91.531 E21.91146
G1 X130.141 Y93.827 E21.99882
G1 X131.508 Y96.131 E22.08793
G1 X132.948 Y98.41 E22.17759
G1 X134.438 Y100.627 E22.26644
G1 X135.99 Y102.799 E22.35522
G1 X137.582 Y104.899 E22.44287
G1 X139.271 Y107.001 E22.53256
G1 X141.003 Y109.038 E22.62149
G1 X142.76 Y110.987 E22.70877
G1 X144.63 Y112.949 E22.79891
G1 X146.543 Y114.843 E22.88845
G1 X148.461 Y116.64 E22.97587
G1 X150.496 Y118.44 E23.06623
G1 X152.518 Y120.129 E23.15386
G1 X154.587 Y121.761 E23.2415
G1 X157.161 Y123.668 E23.34805
G1 X157.674 Y124.098 E23.37032
G1 X158.218 Y124.692 E23.39711
G1 X158.522 Y125.076 E23.4134
G1 X158.905 Y125.624 E23.43563
G1 X159.176 Y126.121 E23.45446
G1 X159.658 Y127.121 E23.49138
G1 X159.708 Y127.228 E23.49531
G1 X160.401 Y128.747 E23.55084
G1 X160.433 Y128.819 E23.55346
G1 X160.711 Y129.452 E23.57646
G1 X160.889 Y129.912 E23.59286
G1 X161.09 Y130.507 E23.61375
G1 X161.314 Y131.41 E23.6447
G1 X161.35 Y131.634 E23.65224
G1 X161.382 Y131.863 E23.65993
G1 X161.429 Y132.259 E23.6732
G1 X161.465 Y132.733 E23.68901
G1 X161.512 Y134.147 E23.73606
G1 X161.61 Y136.351 E23.80944
G1 X161.8 Y139.029 E23.89873
G1 X162.064 Y141.695 E23.98784
G1 X162.405 Y144.359 E24.07717
G1 X162.814 Y146.96 E24.16474
G1 X163.306 Y149.611 E24.25442
G1 X163.874 Y152.25 E24.3442
G1 X164.407 Y154.44 E24.41917
G1 X164.585 Y155.133 E24.44296
G1 X164.704 Y155.731 E24.46324
G1 X164.742 Y155.996 E24.47215
G1 X164.778 Y156.312 E24.48273
G1 X164.801 Y156.58 E24.49167
G1 X164.816 Y157.315 E24.51612
G1 X164.8 Y157.665 E24.52778
G1 X164.786 Y157.881 E24.53498
G1 X164.752 Y158.283 E24.5484
G1 X164.656 Y158.945 E24.57064
G1 X164.536 Y159.418 E24.58687
G1 X164.391 Y159.902 E24.60368
G1 X164.025 Y160.821 E24.63658
G1 X163.93 Y161.009 E24.64359
G1 X163.841 Y161.177 E24.64991
G1 X163.689 Y161.454 E24.66042
G1 X163.333 Y162.02 E24.68266
G1 X163.11 Y162.312 E24.69488
G1 X162.786 Y162.707 E24.71187
G1 X162.331 Y163.198 E24.73413
G1 X162.017 Y163.477 E24.74811
G1 X161.614 Y163.809 E24.76547
G1 X160.789 Y164.373 E24.79871
G1 X160.564 Y164.499 E24.80729
G1 X160.383 Y164.596 E24.81412
G1 X160.149 Y164.716 E24.82286
G1 X159.324 Y165.059 E24.85258
G1 X159.087 Y165.136 E24.86087
G1 X158.902 Y165.193 E24.86731
G1 X158.686 Y165.255 E24.87478
G1 X157.942 Y165.414 E24.90009
G1 X157.686 Y165.451 E24.90869
G1 X157.033 Y165.507 E24.93049
G1 X155.705 Y165.542 E24.97467
G1 X155.557 Y165.544 E24.9796
G1 X85.239 Y165.544 E27.31838
G1 X85.163 Y165.543 E27.32091
G1 X84.646 Y165.536 E27.33811
G1 X84.463 Y165.531 E27.3442
G1 X83.579 Y165.49 E27.37363
G1 X83.392 Y165.478 E27.37986
G1 X82.979 Y165.445 E27.39364
G1 X82.529 Y165.391 E27.40872
G1 X82.171 Y165.333 E27.42078
G1 X81.928 Y165.288 E27.429
G1 X81.187 Y165.134 E27.45417
G1 X80.717 Y165.015 E27.4703
G1 X80.407 Y164.922 E27.48106
G1 X80.187 Y164.851 E27.48875
G1 X79.429 Y164.589 E27.51542
G1 X79.117 Y164.47 E27.52653
G1 X77.865 Y163.952 E27.5716
G1 X75.367 Y162.96 E27.66099
G1 X74.327 Y162.577 E27.69785
G1 X74.226 Y162.539 E27.70144
G1 X73.854 Y162.394 E27.71472
G1 X73.247 Y162.114 E27.73695
G1 X72.676 Y161.764 E27.75923
G1 X72.152 Y161.348 E27.78148
G1 X71.681 Y160.873 E27.80373
G1 X71.271 Y160.345 E27.82597
G1 X70.797 Y159.508 E27.85796
G1 X70.704 Y159.305 E27.86539
G1 X70.543 Y158.916 E27.87939
G1 X70.435 Y158.624 E27.88974
G1 X70.42 Y158.583 E27.89119
G1 X69.867 Y157.052 E27.94534
G1 X69.848 Y156.998 E27.94724
G1 X69.455 Y155.874 E27.98684
G1 X69.435 Y155.818 E27.98882
G1 X69.175 Y155.048 E28.01585
G1 X69.151 Y154.973 E28.01847
G1 X68.93 Y154.287 E28.04244
G1 X68.763 Y153.639 E28.0647
G1 X68.675 Y152.976 E28.08694
G1 X68.666 Y152.307 E28.1092
G1 X68.737 Y151.642 E28.13144
G1 X68.888 Y150.99 E28.1537
G1 X69.228 Y150.113 E28.18499
G1 X69.933 Y148.669 E28.23843
G1 X71.645 Y144.97 E28.374
G1 X71.731 Y144.792 E28.38057
G1 X72.247 Y143.773 E28.41856
G1 X72.292 Y143.686 E28.42182
G1 X109.62 Y73.054 E31.07894
G1 X109.664 Y72.972 E31.08204
G1 X109.95 Y72.452 E31.10178
G1 X110.307 Y71.886 E31.12403
G0 F3600 X110.646 Y72.1
G1 F1800 X111.056 Y71.603 E31.14546
G1 X111.524 Y71.16 E31.1669
G1 X112.043 Y70.778 E31.18833
G1 X112.606 Y70.463 E31.20979
G1 X113.203 Y70.221 E31.23121
G1 X113.826 Y70.054 E31.25266
G1 X114.465 Y69.966 E31.27412
G1 X115.109 Y69.957 E31.29554
G1 X115.75 Y70.028 E31.31699
G1 X116.377 Y70.178 E31.33843
G1 X116.981 Y70.404 E31.35988
G1 X117.552 Y70.704 E31.38133
G1 X118.081 Y71.071 E31.40275
G1 X118.561 Y71.502 E31.42421
G1 X118.984 Y71.988 E31.44563
G1 X119.344 Y72.523 E31.46708
G1 X119.525 Y72.861 E31.47983
G1 X119.943 Y73.713 E31.5114
G1 X119.988 Y73.805 E31.51481
G1 X126.089 Y86.886 E31.99488
G1 X127.266 Y89.319 E32.08477
G1 X128.504 Y91.703 E32.17412
G1 X129.815 Y94.062 E32.26388
G1 X131.175 Y96.354 E32.35252
G1 X132.594 Y98.6 E32.44088
G1 X134.108 Y100.854 E32.53119
G1 X135.65 Y103.011 E32.61938
G1 X137.299 Y105.185 E32.71014
G1 X138.953 Y107.245 E32.79801
G1 X140.688 Y109.284 E32.88705
G1 X142.49 Y111.284 E32.97659
G1 X144.359 Y113.244 E33.06667
G1 X146.233 Y115.1 E33.15439
G1 X148.206 Y116.95 E33.24435
G1 X150.2 Y118.713 E33.33288
G1 X152.281 Y120.451 E33.42305
G1 X154.368 Y122.097 E33.51146
