;FLAVOR:Marlin
;TIME:691
;Filament used: 0.484202m
;Layer height: 0.28
;MINX:84
;MINY:91.5
;MINZ:0.28
;MAXX:136
;MAXY:128.5
;MAXZ:7
;Generated with Cura_SteamEngine 4.3.0
M140 S50
M105
M190 S50
M104 S200
M105
M109 S200
M82 ;absolute extrusion mode
M201 X500.00 Y500.00 Z100.00 E5000.00 ;Setup machine max acceleration
M203 X500.00 Y500.00 Z10.00 E50.00 ;Setup machine max feedrate
M204 P500.00 R1000.00 T500.00 ;Setup Print/Retract/Travel acceleration
M205 X8.00 Y8.00 Z0.40 E5.00 ;Setup Jerk
M220 S100 ;Reset Feedrate
M221 S100 ;Reset Flowrate

G28 ;Home

G92 E0 ;Reset Extruder
G1 Z2.0 F3000 ;Move Z Axis up
G1 X10.1 Y20 Z0.28 F5000.0 ;Move to start position
G1 X10.1 Y200.0 Z0.28 F1500.0 E15 ;Draw the first line
G1 X10.4 Y200.0 Z0.28 F5000.0 ;Move to side a little
G1 X10.4 Y20 Z0.28 F1500.0 E30 ;Draw the second line
G92 E0 ;Reset Extruder
G1 Z2.0 F3000 ;Move Z Axis up

G92 E0
G92 E0
G1 F2700 E-5
;LAYER_COUNT:25
;LAYER:0
M107
G0 F6000 X87.198 Y94.764 Z0.28
;TYPE:SKIRT
G1 F2700 E0
G1 F1200 X87.886 Y94.127 E0.04366
G1 X88.626 Y93.551 E0.08732
G1 X89.412 Y93.039 E0.131
G1 X90.239 Y92.597 E0.17467
G1 X91.101 Y92.227 E0.21835
G1 X91.991 Y91.931 E0.26202
G1 X92.903 Y91.713 E0.30568
G1 X93.83 Y91.572 E0.34935
G1 X94.701 Y91.513 E0.39
G1 X95.022 Y91.504 E0.40495
G1 X95.33 Y91.5 E0.41929
G1 X124.293 Y91.5 E1.76793
G1 X124.451 Y91.501 E1.77529
G1 X125.149 Y91.511 E1.80779
G1 X126.085 Y91.565 E1.85145
G1 X127.013 Y91.697 E1.8951
G1 X127.927 Y91.909 E1.93879
G1 X128.819 Y92.198 E1.98245
G1 X129.684 Y92.561 E2.02613
G1 X130.514 Y92.997 E2.06978
G1 X131.305 Y93.502 E2.11348
G1 X132.049 Y94.073 E2.15715
G1 X132.742 Y94.705 E2.20083
G1 X133.379 Y95.393 E2.24448
G1 X133.954 Y96.134 E2.28816
G1 X134.465 Y96.92 E2.33181
G1 X134.907 Y97.748 E2.37552
G1 X135.276 Y98.61 E2.41918
G1 X135.571 Y99.5 E2.46284
G1 X135.789 Y100.412 E2.5065
G1 X135.929 Y101.34 E2.5502
G1 X135.987 Y102.201 E2.59038
G1 X135.996 Y102.521 E2.60529
G1 X136 Y102.83 E2.61968
G1 X136 Y116.764 E3.26851
G1 X135.999 Y116.9 E3.27484
G1 X135.99 Y117.627 E3.30869
G1 X135.939 Y118.564 E3.35239
G1 X135.807 Y119.492 E3.39604
G1 X135.598 Y120.406 E3.43969
G1 X135.311 Y121.299 E3.48337
G1 X134.949 Y122.165 E3.52708
G1 X134.515 Y122.996 E3.57073
G1 X134.011 Y123.787 E3.6144
G1 X133.442 Y124.532 E3.65805
G1 X132.811 Y125.227 E3.70176
G1 X132.124 Y125.865 E3.74542
G1 X131.385 Y126.442 E3.78908
G1 X130.599 Y126.954 E3.83276
G1 X129.773 Y127.397 E3.8764
G1 X128.911 Y127.769 E3.92012
G1 X128.022 Y128.065 E3.96375
G1 X127.11 Y128.285 E4.00743
G1 X126.183 Y128.426 E4.0511
G1 X125.299 Y128.487 E4.09236
G1 X124.978 Y128.496 E4.10731
G1 X124.67 Y128.5 E4.12165
G1 X95.707 Y128.5 E5.47029
G1 X95.565 Y128.499 E5.4769
G1 X94.867 Y128.49 E5.50941
G1 X93.931 Y128.438 E5.55306
G1 X93.002 Y128.306 E5.59675
G1 X92.088 Y128.096 E5.64042
G1 X91.195 Y127.809 E5.6841
G1 X90.33 Y127.446 E5.72778
G1 X89.499 Y127.012 E5.77143
G1 X88.708 Y126.508 E5.81511
G1 X87.963 Y125.938 E5.85878
G1 X87.269 Y125.307 E5.90246
G1 X86.632 Y124.62 E5.94609
G1 X86.055 Y123.88 E5.98978
G1 X85.543 Y123.094 E6.03346
G1 X85.1 Y122.267 E6.07714
G1 X84.729 Y121.406 E6.1208
G1 X84.433 Y120.516 E6.16447
G1 X84.214 Y119.604 E6.20815
G1 X84.073 Y118.677 E6.25181
G1 X84.013 Y117.788 E6.2933
G1 X84.004 Y117.455 E6.30881
G1 X84 Y117.158 E6.32264
G1 X84 Y103.174 E6.9738
G1 X84.001 Y103.025 E6.98073
G1 X84.01 Y102.36 E7.0117
G1 X84.063 Y101.424 E7.05536
G1 X84.195 Y100.495 E7.09905
G1 X84.406 Y99.581 E7.14273
G1 X84.694 Y98.689 E7.18637
G1 X85.057 Y97.824 E7.23005
G1 X85.492 Y96.993 E7.27373
G1 X85.996 Y96.203 E7.31736
G1 X86.566 Y95.458 E7.36104
G1 X87.198 Y94.764 E7.40475
G0 F6000 X87.589 Y94.939
G1 F1200 X88.274 Y94.323 E7.44765
G1 X89.01 Y93.77 E7.49051
G1 X89.791 Y93.282 E7.5334
G1 X90.611 Y92.864 E7.57625
G1 X91.465 Y92.519 E7.61914
G1 X92.345 Y92.249 E7.662
G1 X93.245 Y92.057 E7.70485
G1 X94.159 Y91.943 E7.74774
G1 X94.712 Y91.913 E7.77353
G1 X95.033 Y91.904 E7.78849
G1 X95.33 Y91.9 E7.80232
G1 X124.293 Y91.9 E9.15095
G1 X124.445 Y91.901 E9.15803
G1 X125.143 Y91.911 E9.19054
G1 X126.062 Y91.964 E9.2334
G1 X126.973 Y92.097 E9.27627
G1 X127.869 Y92.308 E9.31913
G1 X128.743 Y92.596 E9.36198
G1 X129.59 Y92.959 E9.40489
G1 X130.401 Y93.394 E9.44775
G1 X131.171 Y93.898 E9.4906
G1 X131.895 Y94.467 E9.53348
G1 X132.567 Y95.097 E9.57637
G1 X133.182 Y95.782 E9.61923
G1 X133.735 Y96.518 E9.6621
G1 X134.222 Y97.299 E9.70496
G1 X134.639 Y98.12 E9.74784
G1 X134.984 Y98.974 E9.79072
G1 X135.253 Y99.854 E9.83357
G1 X135.445 Y100.755 E9.87647
G1 X135.558 Y101.668 E9.91931
G1 X135.587 Y102.212 E9.94467
G1 X135.596 Y102.532 E9.95958
G1 X135.6 Y102.83 E9.97346
G1 X135.6 Y116.764 E10.62228
G1 X135.599 Y116.895 E10.62838
G1 X135.59 Y117.622 E10.66224
G1 X135.539 Y118.541 E10.70509
G1 X135.408 Y119.453 E10.748
G1 X135.198 Y120.349 E10.79085
G1 X134.912 Y121.224 E10.83371
G1 X134.551 Y122.071 E10.87659
G1 X134.117 Y122.883 E10.91946
G1 X133.615 Y123.655 E10.96234
G1 X133.047 Y124.38 E11.00522
G1 X132.419 Y125.053 E11.04809
G1 X131.735 Y125.669 E11.09095
G1 X131 Y126.223 E11.13381
G1 X130.22 Y126.712 E11.17667
G1 X129.4 Y127.131 E11.21955
G1 X128.547 Y127.477 E11.26241
G1 X127.667 Y127.748 E11.30529
G1 X126.767 Y127.941 E11.34815
G1 X125.853 Y128.056 E11.39105
G1 X125.288 Y128.087 E11.41739
G1 X124.967 Y128.096 E11.43235
G1 X124.67 Y128.1 E11.44618
G1 X95.707 Y128.1 E12.79482
G1 X95.57 Y128.099 E12.8012
G1 X94.872 Y128.09 E12.8337
G1 X93.953 Y128.038 E12.87656
G1 X93.042 Y127.907 E12.91942
G1 X92.146 Y127.697 E12.96227
G1 X91.271 Y127.41 E13.00515
G1 X90.424 Y127.048 E13.04804
G1 X89.612 Y126.614 E13.09091
G1 X88.841 Y126.112 E13.13375
G1 X88.116 Y125.544 E13.17664
G1 X87.443 Y124.915 E13.21953
G1 X86.828 Y124.231 E13.26236
G1 X86.274 Y123.496 E13.30522
G1 X85.786 Y122.715 E13.3481
G1 X85.367 Y121.895 E13.39098
G1 X85.021 Y121.042 E13.43384
G1 X84.751 Y120.162 E13.47671
G1 X84.558 Y119.261 E13.51961
G1 X84.444 Y118.348 E13.56245
G1 X84.413 Y117.777 E13.58908
G1 X84.404 Y117.444 E13.60459
G1 X84.4 Y117.158 E13.61791
G1 X84.4 Y103.174 E14.26907
G1 X84.401 Y103.031 E14.27572
G1 X84.41 Y102.366 E14.30669
G1 X84.462 Y101.446 E14.3496
G1 X84.594 Y100.535 E14.39246
G1 X84.805 Y99.639 E14.43533
G1 X85.092 Y98.764 E14.47821
G1 X85.455 Y97.918 E14.52107
G1 X85.889 Y97.106 E14.56394
G1 X86.392 Y96.335 E14.60681
G1 X86.961 Y95.611 E14.64969
G1 X87.589 Y94.939 E14.69252
G0 F6000 X87.981 Y95.117
G1 F1200 X88.662 Y94.524 E14.73456
G1 X89.394 Y93.994 E14.77664
G1 X90.169 Y93.531 E14.81868
G1 X90.982 Y93.138 E14.86073
G1 X91.827 Y92.818 E14.9028
G1 X92.696 Y92.575 E14.94482
G1 X93.584 Y92.409 E14.98688
G1 X94.723 Y92.313 E15.04011
G1 X95.044 Y92.304 E15.05506
G1 X95.33 Y92.3 E15.06838
G1 X124.293 Y92.3 E16.41702
G1 X124.439 Y92.301 E16.42382
G1 X125.137 Y92.311 E16.45632
G1 X126.039 Y92.364 E16.4984
G1 X126.932 Y92.496 E16.54043
G1 X127.81 Y92.707 E16.58248
G1 X128.666 Y92.995 E16.62453
G1 X129.493 Y93.357 E16.66657
G1 X130.285 Y93.792 E16.70864
G1 X131.036 Y94.294 E16.75071
G1 X131.739 Y94.861 E16.79276
G1 X132.389 Y95.488 E16.83481
G1 X132.981 Y96.17 E16.87687
G1 X133.511 Y96.901 E16.91891
G1 X133.973 Y97.677 E16.96096
G1 X134.366 Y98.49 E17.00301
G1 X134.684 Y99.335 E17.04505
G1 X134.927 Y100.205 E17.08711
G1 X135.092 Y101.093 E17.12917
G1 X135.187 Y102.223 E17.18197
G1 X135.196 Y102.543 E17.19688
G1 X135.2 Y102.83 E17.21024
G1 X135.2 Y116.764 E17.85907
G1 X135.199 Y116.89 E17.86494
G1 X135.19 Y117.617 E17.89879
G1 X135.139 Y118.519 E17.94086
G1 X135.008 Y119.413 E17.98293
G1 X134.799 Y120.291 E18.02496
G1 X134.513 Y121.148 E18.06703
G1 X134.152 Y121.976 E18.10909
G1 X133.72 Y122.768 E18.1511
G1 X133.219 Y123.52 E18.19317
G1 X132.653 Y124.224 E18.23523
G1 X132.028 Y124.875 E18.27726
G1 X131.347 Y125.469 E18.31933
G1 X130.616 Y126 E18.3614
G1 X129.842 Y126.464 E18.40343
G1 X129.029 Y126.858 E18.44549
G1 X128.185 Y127.178 E18.48752
G1 X127.315 Y127.423 E18.52961
G1 X126.428 Y127.589 E18.57163
G1 X125.277 Y127.687 E18.62542
G1 X124.956 Y127.696 E18.64037
G1 X124.67 Y127.7 E18.65369
G1 X95.707 Y127.7 E20.00233
G1 X95.575 Y127.699 E20.00848
G1 X94.877 Y127.69 E20.04098
G1 X93.976 Y127.639 E20.083
G1 X93.082 Y127.507 E20.12508
G1 X92.204 Y127.298 E20.16711
G1 X91.347 Y127.011 E20.20919
G1 X90.52 Y126.65 E20.25121
G1 X89.727 Y126.217 E20.29328
G1 X88.976 Y125.716 E20.33532
G1 X88.272 Y125.15 E20.37738
G1 X87.621 Y124.524 E20.41943
G1 X87.028 Y123.843 E20.46148
G1 X86.498 Y123.112 E20.50352
G1 X86.034 Y122.337 E20.54558
G1 X85.64 Y121.524 E20.58765
G1 X85.32 Y120.68 E20.62968
G1 X85.076 Y119.81 E20.67176
G1 X84.91 Y118.922 E20.71382
G1 X84.813 Y117.767 E20.76779
G1 X84.804 Y117.434 E20.7833
G1 X84.8 Y117.158 E20.79616
G1 X84.8 Y103.174 E21.44731
G1 X84.801 Y103.036 E21.45374
G1 X84.81 Y102.371 E21.48471
G1 X84.862 Y101.469 E21.52678
G1 X84.994 Y100.576 E21.56881
G1 X85.204 Y99.698 E21.61085
G1 X85.491 Y98.841 E21.65293
G1 X85.853 Y98.014 E21.69497
G1 X86.286 Y97.222 E21.737
G1 X86.788 Y96.471 E21.77906
G1 X87.355 Y95.767 E21.82115
G1 X87.981 Y95.117 E21.86317
G1 F2700 E16.86317
;MESH:3cc83ed3-5015-4b48-9d39-29ab56c8b622.stl
G0 F6000 X97.806 Y101.871
G0 X109.149 Y109.67
G0 X109.216 Y109.717
G0 X107.837 Y109.236
G0 X108.171 Y110.647
G0 X108.49 Y111.219
G0 X108.889 Y111.57
G0 X109.909 Y112.101
;TYPE:WALL-INNER
G1 F2700 E21.86317
G1 F1200 X110.269 Y112.085 E21.87995
G1 X110.616 Y112.01 E21.89648
G1 X110.945 Y111.877 E21.91301
G1 X111.249 Y111.691 E21.9296
G1 X111.518 Y111.455 E21.94626
G1 X111.741 Y111.177 E21.96286
G1 X111.916 Y110.867 E21.97944
G1 X112.034 Y110.53 E21.99606
G1 X112.095 Y110.178 E22.0127
G1 X112.095 Y109.822 E22.02927
G1 X112.034 Y109.47 E22.04591
G1 X111.916 Y109.133 E22.06253
G1 X111.741 Y108.823 E22.07911
G1 X111.518 Y108.545 E22.09571
G1 X111.249 Y108.309 E22.11237
G1 X110.945 Y108.123 E22.12896
G1 X110.616 Y107.99 E22.14549
G1 X110.269 Y107.915 E22.16202
G1 X109.909 Y107.899 E22.1788
G1 X109.557 Y107.946 E22.19533
G1 X109.216 Y108.049 E22.21192
G1 X108.899 Y108.21 E22.22848
G1 X108.611 Y108.421 E22.2451
G1 X108.365 Y108.68 E22.26173
G1 X108.164 Y108.974 E22.27832
G1 X108.018 Y109.3 E22.29495
G1 X107.928 Y109.644 E22.31151
G1 X107.897 Y110 E22.32815
G1 X107.928 Y110.356 E22.34479
G1 X108.018 Y110.7 E22.36134
G1 X108.164 Y111.026 E22.37798
G1 X108.365 Y111.32 E22.39456
G1 X108.611 Y111.579 E22.41119
G1 X108.899 Y111.79 E22.42782
G1 X109.216 Y111.951 E22.44437
G1 X109.557 Y112.054 E22.46096
G1 X109.909 Y112.101 E22.4775
G0 F6000 X109.927 Y111.7
;TYPE:WALL-OUTER
G1 F1200 X110.217 Y111.687 E22.49101
G1 X110.498 Y111.626 E22.5044
G1 X110.765 Y111.518 E22.51781
G1 X111.011 Y111.368 E22.53123
G1 X111.228 Y111.177 E22.54469
G1 X111.409 Y110.952 E22.55814
G1 X111.55 Y110.701 E22.57154
G1 X111.646 Y110.429 E22.58497
G1 X111.695 Y110.144 E22.59844
G1 X111.695 Y109.856 E22.61185
G1 X111.646 Y109.571 E22.62532
G1 X111.55 Y109.299 E22.63875
G1 X111.409 Y109.048 E22.65215
G1 X111.228 Y108.823 E22.6656
G1 X111.011 Y108.632 E22.67906
G1 X110.765 Y108.482 E22.69248
G1 X110.498 Y108.374 E22.70589
G1 X110.217 Y108.313 E22.71928
G1 X109.927 Y108.3 E22.73279
G1 X109.642 Y108.338 E22.74618
G1 X109.366 Y108.422 E22.75961
G1 X109.109 Y108.552 E22.77303
G1 X108.876 Y108.723 E22.78648
G1 X108.677 Y108.932 E22.79992
G1 X108.515 Y109.17 E22.81333
G1 X108.397 Y109.433 E22.82675
G1 X108.324 Y109.712 E22.84018
G1 X108.299 Y110 E22.85364
G1 X108.324 Y110.288 E22.8671
G1 X108.397 Y110.567 E22.88053
G1 X108.515 Y110.83 E22.89395
G1 X108.677 Y111.068 E22.90736
G1 X108.876 Y111.277 E22.9208
G1 X109.109 Y111.448 E22.93425
G1 X109.366 Y111.578 E22.94766
G1 X109.642 Y111.662 E22.9611
G1 X109.927 Y111.7 E22.97449
G0 F6000 X109.908 Y112.139
G1 F2700 E17.97449
G0 F6000 X108.799 Y111.952
G0 X109.562 Y110.708
G0 X109.552 Y110.788
G0 X108.806 Y118.084
G0 X108.799 Y118.165
G0 X108.799 Y116.69
G0 X95.6 Y116.9
;TYPE:WALL-INNER
G1 F2700 E22.97449
G1 F1200 X95.6 Y103.1 E23.61707
G1 X124.4 Y103.1 E24.95812
G1 X124.4 Y116.9 E25.60071
G1 X95.6 Y116.9 E26.94176
G0 F6000 X95.2 Y117.3
;TYPE:WALL-OUTER
G1 F1200 X95.2 Y102.7 E27.62159
G1 X124.8 Y102.7 E28.99989
G1 X124.8 Y117.3 E29.67973
G1 X95.2 Y117.3 E31.05803
G0 F6000 X95.47 Y117.03
G0 X95.71 Y116.51
G0 X95.99 Y116.51
;TYPE:SKIN
G1 F1200 X95.99 Y103.49 E31.6643
G1 X124.01 Y103.49 E32.96902
G1 X124.01 Y116.51 E33.57529
G1 X95.99 Y116.51 E34.88002
G1 F2700 E29.88002
G0 F6000 X95.71 Y116.51
G0 X95.805 Y116.511
G0 X108.068 Y116.69
G0 X108.068 Y118.165
G0 X108.085 Y118.084
G0 X109.672 Y110.85
G0 X109.69 Y110.774
G0 X109.144 Y112.129
G0 X108.068 Y111.081
G0 X107.823 Y111.217
G1 F2700 E34.88002
G1 F1200 X108.061 Y111.566 E34.89969
G1 X108.352 Y111.873 E34.91938
G1 X108.694 Y112.123 E34.93911
G1 X109.07 Y112.314 E34.95875
G1 X109.475 Y112.436 E34.97844
G1 X109.892 Y112.493 E34.99804
G1 X110.32 Y112.473 E35.01799
G1 X110.731 Y112.384 E35.03757
G1 X111.121 Y112.226 E35.05717
G1 X111.481 Y112.007 E35.07679
G1 X111.801 Y111.726 E35.09662
G1 X112.065 Y111.396 E35.1163
G1 X112.273 Y111.029 E35.13594
G1 X112.413 Y110.628 E35.15572
G1 X112.485 Y110.211 E35.17542
G1 X112.485 Y109.789 E35.19507
G1 X112.413 Y109.372 E35.21478
G1 X112.273 Y108.971 E35.23455
G1 X112.065 Y108.604 E35.2542
G1 X111.801 Y108.274 E35.27388
G1 X111.481 Y107.993 E35.29371
G1 X111.121 Y107.774 E35.31333
G1 X110.731 Y107.616 E35.33292
G1 X110.32 Y107.527 E35.3525
G1 X109.892 Y107.507 E35.37245
G1 X109.475 Y107.564 E35.39205
G1 X109.07 Y107.686 E35.41175
G1 X108.694 Y107.877 E35.43138
G1 X108.352 Y108.127 E35.45111
G1 X108.061 Y108.434 E35.47081
G1 X107.823 Y108.783 E35.49048
G1 X107.649 Y109.17 E35.51024
G1 X107.542 Y109.577 E35.52983
G1 X107.505 Y110 E35.5496
G1 X107.542 Y110.423 E35.56937
G1 X107.649 Y110.83 E35.58897
G1 X107.823 Y111.217 E35.60873
G1 F2700 E30.60873
G0 F6000 X108.068 Y111.081
G0 X107.997 Y111.12
G0 X109.352 Y110.524
G0 X109.336 Y110.61
G0 X108.01 Y118.084
G0 X107.997 Y118.165
G0 X107.997 Y116.69
G0 X107.898 Y116.689
G0 X96.55 Y116.79
G0 X96.55 Y116.349
G1 F2700 E35.60873
G1 F1200 X96.149 Y115.948 E35.63513
G0 F6000 X96.149 Y115.382
G1 F1200 X97.116 Y116.349 E35.69881
G0 F6000 X97.681 Y116.349
G1 F1200 X96.149 Y114.817 E35.7997
G0 F6000 X96.149 Y114.251
G1 F1200 X98.247 Y116.349 E35.93786
G0 F6000 X98.813 Y116.349
G1 F1200 X96.149 Y113.685 E36.11328
G0 F6000 X96.149 Y113.12
G1 F1200 X99.378 Y116.349 E36.32592
G0 F6000 X99.944 Y116.349
G1 F1200 X96.149 Y112.554 E36.57583
G0 F6000 X96.149 Y111.988
G1 F1200 X100.51 Y116.349 E36.86301
G0 F6000 X101.075 Y116.349
G1 F1200 X96.149 Y111.423 E37.18739
G0 F6000 X96.149 Y110.857
G1 F1200 X101.641 Y116.349 E37.54905
G0 F6000 X102.207 Y116.349
G1 F1200 X96.149 Y110.291 E37.94798
G0 F6000 X96.149 Y109.726
G1 F1200 X102.773 Y116.349 E38.38415
G0 F6000 X103.338 Y116.349
G1 F1200 X96.149 Y109.16 E38.85756
G0 F6000 X96.149 Y108.594
G1 F1200 X103.904 Y116.349 E39.36824
G0 F6000 X104.47 Y116.349
G1 F1200 X96.149 Y108.028 E39.91619
G0 F6000 X96.149 Y107.463
G1 F1200 X105.035 Y116.349 E40.50135
G0 F6000 X105.601 Y116.349
G1 F1200 X96.149 Y106.897 E41.12378
G0 F6000 X96.149 Y106.331
G1 F1200 X106.167 Y116.349 E41.78348
G0 F6000 X106.732 Y116.349
G1 F1200 X96.149 Y105.766 E42.48039
G0 F6000 X96.149 Y105.2
G1 F1200 X107.298 Y116.349 E43.21457
G0 F6000 X107.864 Y116.349
G1 F1200 X96.149 Y104.634 E43.98602
G0 F6000 X96.149 Y104.069
G1 F1200 X108.429 Y116.349 E44.79468
G0 F6000 X108.995 Y116.349
G1 F1200 X96.295 Y103.649 E45.631
G0 F6000 X96.861 Y103.649
G1 F1200 X109.561 Y116.349 E46.46731
G0 F6000 X110.126 Y116.349
G1 F1200 X97.427 Y103.649 E47.3036
G0 F6000 X97.992 Y103.649
G1 F1200 X110.692 Y116.349 E48.13991
G0 F6000 X111.258 Y116.349
G1 F1200 X98.558 Y103.649 E48.97623
G0 F6000 X99.124 Y103.649
G1 F1200 X111.823 Y116.349 E49.81251
G0 F6000 X112.389 Y116.349
G1 F1200 X99.69 Y103.649 E50.6488
G0 F6000 X100.255 Y103.649
G1 F1200 X107.505 Y110.899 E51.12622
G0 F6000 X107.36 Y110.189
G1 F1200 X100.821 Y103.649 E51.55686
G0 F6000 X101.387 Y103.649
G1 F1200 X107.375 Y109.638 E51.95121
G0 F6000 X107.481 Y109.178
G1 F1200 X101.952 Y103.649 E52.31531
G0 F6000 X102.518 Y103.649
G1 F1200 X107.648 Y108.779 E52.65313
G0 F6000 X107.868 Y108.434
