;FLAVOR:Marlin
;TIME:2740
;Filament used: 1.50055m
;Layer height: 0.15
;MINX:98.191
;MINY:88.591
;MINZ:0.2
;MAXX:136.823
;MAXY:146.41
;MAXZ:17
;Generated with Cura_SteamEngine 4.1.0
M140 S60
M105
M190 S60
M104 S200
M105
M109 S200
M82 ;absolute extrusion mode
; Ender 3 Custom Start G-code
G28 ; Home all axes
G92 E0 ; Reset Extruder
G1 Z2.0 F3000 ; Move Z Axis up little to prevent scratching of Heat Bed
G1 X0.1 Y20 Z0.3 F5000.0 ; Move to start position
G1 X0.1 Y200.0 Z0.3 F1500.0 E15 ; Draw the first line
G1 X0.4 Y200.0 Z0.3 F5000.0 ; Move to side a little
G1 X0.4 Y20 Z0.3 F1500.0 E30 ; Draw the second line
G92 E0 ; Reset Extruder
G1 Z2.0 F3000 ; Move Z Axis up little to prevent scratching of Heat Bed
; End of custom start GCode
G92 E0
G92 E0
G1 F2400 E-5
;LAYER_COUNT:113
;LAYER:0
M107
M204 S500
M205 X10 Y10
G0 F3600 X100.972 Y92.792 Z0.2
;TYPE:SKIRT
G1 F2400 E0
G1 F1800 X101.456 Y92.266 E0.02377
G1 X101.749 Y91.999 E0.03696
G1 X102.501 Y91.355 E0.06989
G1 X102.635 Y91.243 E0.0757
G1 X103.199 Y90.786 E0.09984
G1 X103.779 Y90.368 E0.12362
G1 X104.716 Y89.873 E0.15887
G1 X105.351 Y89.602 E0.18183
G1 X105.473 Y89.551 E0.18623
G1 X105.786 Y89.425 E0.19745
G1 X105.848 Y89.401 E0.19966
G1 X106.483 Y89.153 E0.22233
G1 X107.162 Y88.93 E0.2461
G1 X107.863 Y88.785 E0.26991
G1 X108.226 Y88.741 E0.28208
G1 X108.912 Y88.678 E0.30499
G1 X109.081 Y88.665 E0.31063
G1 X110.109 Y88.598 E0.34489
G1 X110.824 Y88.591 E0.36867
G1 X111.535 Y88.664 E0.39244
G1 X111.972 Y88.75 E0.40726
G1 X112.946 Y88.976 E0.44051
G1 X113.086 Y89.01 E0.44531
G1 X113.754 Y89.181 E0.46824
G1 X114.436 Y89.397 E0.49203
G1 X115.09 Y89.687 E0.51583
G1 X115.455 Y89.89 E0.52972
G1 X116.3 Y90.396 E0.56248
G1 X116.461 Y90.496 E0.56878
G1 X117.127 Y90.922 E0.59508
G1 X117.302 Y91.038 E0.60206
G1 X117.737 Y91.337 E0.61962
G1 X119.985 Y92.83 E0.70937
G1 X122.196 Y94.213 E0.79611
G1 X123.974 Y95.263 E0.86479
G1 X124.505 Y95.614 E0.88596
G1 X125.083 Y96.038 E0.9098
G1 X125.228 Y96.147 E0.91584
G1 X125.76 Y96.561 E0.93826
G1 X126.29 Y97.023 E0.96164
G1 X126.795 Y97.514 E0.98507
G1 X126.928 Y97.647 E0.99133
G1 X127.412 Y98.146 E1.01445
G1 X127.862 Y98.663 E1.03724
G1 X128.261 Y99.174 E1.05881
G1 X128.376 Y99.326 E1.06515
G1 X128.823 Y99.935 E1.09027
G1 X129.221 Y100.548 E1.11458
G1 X129.546 Y101.117 E1.13638
G1 X129.631 Y101.27 E1.1422
G1 X129.97 Y101.903 E1.16608
G1 X130.26 Y102.521 E1.18879
G1 X130.501 Y103.116 E1.21014
G1 X130.57 Y103.296 E1.21655
G1 X130.823 Y103.979 E1.24077
G1 X131.03 Y104.646 E1.264
G1 X131.202 Y105.332 E1.28752
G1 X131.248 Y105.53 E1.29429
G1 X131.402 Y106.239 E1.31842
G1 X131.517 Y106.963 E1.3428
G1 X131.584 Y107.636 E1.36529
G1 X131.598 Y107.809 E1.37107
G1 X131.649 Y108.515 E1.39461
G1 X131.66 Y108.694 E1.40057
G1 X131.67 Y108.931 E1.40846
G1 X131.825 Y111.663 E1.49948
G1 X132.051 Y114.306 E1.5877
G1 X132.351 Y116.938 E1.67581
G1 X132.722 Y119.545 E1.76339
G1 X133.17 Y122.156 E1.85151
G1 X133.693 Y124.76 E1.93984
G1 X134.285 Y127.333 E2.02766
G1 X134.954 Y129.9 E2.11589
G1 X135.696 Y132.454 E2.20435
G1 X136.261 Y134.233 E2.26643
G1 X136.506 Y134.981 E2.29261
G1 X136.69 Y135.672 E2.31639
G1 X136.796 Y136.379 E2.34017
G1 X136.823 Y137.094 E2.36397
G1 X136.769 Y137.807 E2.38775
G1 X136.637 Y138.51 E2.41154
G1 X136.426 Y139.194 E2.43535
G1 X136.141 Y139.85 E2.45914
G1 X135.784 Y140.47 E2.48293
G1 X135.361 Y141.046 E2.5067
G1 X134.875 Y141.571 E2.5305
G1 X134.419 Y141.973 E2.55072
G1 X133.792 Y142.474 E2.57741
G1 X133.693 Y142.552 E2.5816
G1 X130.94 Y144.664 E2.69701
G1 X130.877 Y144.711 E2.69962
G1 X130.306 Y145.138 E2.72334
G1 X129.71 Y145.534 E2.74714
G1 X129.074 Y145.861 E2.77092
G1 X128.405 Y146.114 E2.79471
G1 X127.712 Y146.292 E2.81851
G1 X127.004 Y146.391 E2.84229
G1 X126.289 Y146.41 E2.86608
G1 X125.576 Y146.35 E2.88987
G1 X124.874 Y146.21 E2.91368
G1 X124.193 Y145.993 E2.93745
G1 X123.54 Y145.701 E2.96125
G1 X122.923 Y145.338 E2.98506
G1 X122.351 Y144.909 E3.00884
G1 X121.831 Y144.419 E3.0326
G1 X121.508 Y144.052 E3.04886
G1 X121.268 Y143.757 E3.06151
G1 X121.156 Y143.614 E3.06755
G1 X104.7 Y122.168 E3.96664
G1 X102.992 Y120.006 E4.05828
G1 X102.545 Y119.465 E4.08162
G1 X102.461 Y119.361 E4.08607
G1 X102.277 Y119.129 E4.09592
G1 X101.972 Y118.711 E4.11313
G1 X101.618 Y118.182 E4.1343
G1 X101.516 Y118.025 E4.14053
G1 X101.115 Y117.386 E4.16562
G1 X100.778 Y116.777 E4.18877
G1 X100.485 Y116.173 E4.2111
G1 X100.403 Y115.998 E4.21752
G1 X100.108 Y115.34 E4.24151
G1 X99.853 Y114.674 E4.26523
G1 X99.649 Y114.037 E4.28747
G1 X99.596 Y113.865 E4.29346
G1 X99.398 Y113.181 E4.31714
G1 X99.243 Y112.514 E4.33992
G1 X99.133 Y111.891 E4.36096
G1 X99.102 Y111.693 E4.36763
G1 X98.994 Y110.945 E4.39276
G1 X98.939 Y110.41 E4.41065
G1 X98.903 Y109.804 E4.43084
G1 X98.898 Y109.705 E4.43414
G1 X98.829 Y108.139 E4.48627
G1 X98.641 Y105.534 E4.57314
G1 X98.304 Y102.28 E4.68195
G1 X98.283 Y102.027 E4.69039
G1 X98.239 Y101.335 E4.71346
G1 X98.233 Y101.227 E4.71705
G1 X98.217 Y100.884 E4.72847
G1 X98.214 Y100.803 E4.73117
G1 X98.191 Y100.125 E4.75373
G1 X98.206 Y99.41 E4.77752
G1 X98.302 Y98.701 E4.80132
G1 X98.39 Y98.31 E4.81465
G1 X98.634 Y97.364 E4.84714
G1 X98.673 Y97.22 E4.8521
G1 X98.873 Y96.513 E4.87654
G1 X99.106 Y95.837 E4.90032
G1 X99.523 Y94.995 E4.93157
G1 X99.668 Y94.75 E4.94104
G1 X99.757 Y94.606 E4.94667
G1 X100.105 Y94.052 E4.96843
G1 X100.16 Y93.964 E4.97188
G1 X100.548 Y93.368 E4.99554
G1 X100.972 Y92.792 E5.01933
G0 F3600 X101.294 Y93.029
G1 F1800 X102.009 Y92.303 E5.05322
G1 X102.761 Y91.659 E5.08615
G1 X102.887 Y91.554 E5.0916
G1 X103.451 Y91.097 E5.11575
G1 X104.013 Y90.693 E5.13877
G1 X104.873 Y90.241 E5.17108
G1 X105.508 Y89.97 E5.19404
G1 X105.622 Y89.922 E5.19816
G1 X105.935 Y89.796 E5.20938
G1 X105.993 Y89.773 E5.21146
G1 X106.628 Y89.525 E5.23413
G1 X107.287 Y89.311 E5.25717
G1 X108.262 Y89.139 E5.2901
G1 X108.948 Y89.076 E5.31302
G1 X109.107 Y89.064 E5.31832
G1 X110.135 Y88.997 E5.35258
G1 X110.827 Y88.992 E5.3756
G1 X111.516 Y89.066 E5.39865
G1 X111.881 Y89.139 E5.41103
G1 X112.855 Y89.365 E5.44428
G1 X112.987 Y89.397 E5.4488
G1 X113.655 Y89.568 E5.47174
G1 X114.315 Y89.779 E5.49478
G1 X114.946 Y90.063 E5.5178
G1 X115.249 Y90.233 E5.52935
G1 X116.094 Y90.739 E5.56211
G1 X116.245 Y90.833 E5.56803
G1 X116.911 Y91.259 E5.59432
G1 X117.076 Y91.368 E5.6009
G1 X117.497 Y91.657 E5.61788
G1 X119.774 Y93.17 E5.70881
G1 X122.021 Y94.575 E5.79695
G1 X123.77 Y95.608 E5.86452
G1 X124.268 Y95.936 E5.88435
G1 X124.846 Y96.36 E5.90819
G1 X124.982 Y96.463 E5.91387
G1 X125.514 Y96.877 E5.93629
G1 X126.012 Y97.31 E5.95824
G1 X126.517 Y97.801 E5.98166
G1 X126.641 Y97.926 E5.98752
G1 X127.125 Y98.425 E6.01064
G1 X127.547 Y98.909 E6.032
G1 X127.946 Y99.42 E6.05356
G1 X128.054 Y99.563 E6.05952
G1 X128.501 Y100.172 E6.08465
G1 X128.874 Y100.746 E6.10741
G1 X129.199 Y101.315 E6.12921
G1 X129.278 Y101.458 E6.13464
G1 X129.617 Y102.091 E6.15853
G1 X129.889 Y102.672 E6.17986
G1 X130.13 Y103.267 E6.20121
G1 X130.195 Y103.435 E6.20721
G1 X130.448 Y104.118 E6.23143
G1 X130.642 Y104.743 E6.2532
G1 X130.814 Y105.429 E6.27672
G1 X130.857 Y105.614 E6.28304
G1 X131.011 Y106.323 E6.30717
G1 X131.118 Y107.003 E6.33006
G1 X131.185 Y107.676 E6.35256
G1 X131.199 Y107.838 E6.35797
G1 X131.25 Y108.544 E6.38151
G1 X131.26 Y108.711 E6.38707
G1 X131.273 Y109.013 E6.39713
G1 X131.425 Y111.684 E6.48611
G1 X131.653 Y114.349 E6.57507
G1 X131.951 Y116.967 E6.66271
G1 X132.325 Y119.597 E6.75106
G1 X132.778 Y122.237 E6.84015
G1 X133.304 Y124.857 E6.92903
G1 X133.894 Y127.418 E7.01644
G1 X134.566 Y129.998 E7.10512
G1 X135.311 Y132.559 E7.19383
G1 X135.881 Y134.357 E7.25656
G1 X136.126 Y135.105 E7.28274
G1 X136.303 Y135.775 E7.30579
G1 X136.402 Y136.46 E7.32881
G1 X136.421 Y137.153 E7.35187
G1 X136.361 Y137.842 E7.37487
G1 X136.221 Y138.521 E7.39793
G1 X136.004 Y139.178 E7.42094
G1 X135.713 Y139.807 E7.44399
G1 X135.351 Y140.397 E7.46702
G1 X134.924 Y140.942 E7.49004
G1 X134.436 Y141.434 E7.51309
G1 X134.169 Y141.66 E7.52473
G1 X133.542 Y142.161 E7.55142
G1 X133.449 Y142.234 E7.55535
G1 X130.696 Y144.346 E7.67076
G1 X130.637 Y144.391 E7.67323
G1 X130.066 Y144.818 E7.69694
G1 X129.489 Y145.2 E7.71996
G1 X128.871 Y145.513 E7.743
G1 X128.221 Y145.753 E7.76604
G1 X127.548 Y145.916 E7.78908
G1 X126.861 Y146 E7.81209
G1 X126.168 Y146.005 E7.83514
G1 X125.48 Y145.93 E7.85816
G1 X124.805 Y145.776 E7.88119
G1 X124.152 Y145.546 E7.90422
G1 X123.529 Y145.241 E7.92729
G1 X122.947 Y144.867 E7.9503
G1 X122.411 Y144.429 E7.97332
G1 X121.819 Y143.8 E8.00205
G1 X121.579 Y143.505 E8.0147
G1 X121.473 Y143.371 E8.02038
G1 X104.963 Y121.855 E8.92241
G1 X103.311 Y119.763 E9.01107
G1 X102.853 Y119.21 E9.03495
G1 X102.774 Y119.112 E9.03914
G1 X102.59 Y118.88 E9.04899
G1 X102.305 Y118.489 E9.06508
G1 X101.951 Y117.96 E9.08625
G1 X101.855 Y117.812 E9.09212
G1 X101.454 Y117.173 E9.11721
G1 X101.138 Y116.603 E9.13889
G1 X100.845 Y115.999 E9.16121
G1 X100.768 Y115.835 E9.16724
G1 X100.473 Y115.177 E9.19122
G1 X100.234 Y114.552 E9.21348
G1 X100.03 Y113.915 E9.23573
G1 X99.981 Y113.753 E9.24136
G1 X99.783 Y113.069 E9.26504
G1 X99.637 Y112.444 E9.28639
G1 X99.527 Y111.821 E9.30743
G1 X99.498 Y111.635 E9.31369
G1 X99.39 Y110.887 E9.33883
G1 X99.339 Y110.386 E9.35558
G1 X99.303 Y109.78 E9.37577
G1 X99.298 Y109.687 E9.37886
G1 X99.23 Y108.128 E9.43077
G1 X99.039 Y105.497 E9.5185
G1 X98.702 Y102.239 E9.62744
G1 X98.682 Y102.002 E9.63535
G1 X98.638 Y101.31 E9.65842
G1 X98.633 Y101.209 E9.66178
G1 X98.617 Y100.866 E9.6732
G1 X98.613 Y100.789 E9.67577
G1 X98.59 Y100.111 E9.69833
G1 X98.607 Y99.419 E9.72135
G1 X98.777 Y98.409 E9.75542
G1 X99.021 Y97.463 E9.78791
G1 X99.058 Y97.329 E9.79253
G1 X99.258 Y96.622 E9.81697
G1 X99.484 Y95.967 E9.84002
G1 X99.868 Y95.199 E9.86858
G1 X100.013 Y94.954 E9.87805
G1 X100.095 Y94.818 E9.88333
G1 X100.443 Y94.264 E9.90509
G1 X100.496 Y94.183 E9.90831
G1 X100.884 Y93.587 E9.93196
G1 X101.294 Y93.029 E9.95499
G0 F3600 X101.617 Y93.267
G1 F1800 X102.269 Y92.607 E9.98585
G1 X103.021 Y91.963 E10.01878
G1 X103.138 Y91.865 E10.02385
G1 X103.702 Y91.408 E10.048
G1 X104.247 Y91.019 E10.07027
G1 X105.03 Y90.608 E10.09968
G1 X105.665 Y90.337 E10.12264
G1 X105.772 Y90.293 E10.12649
G1 X106.085 Y90.167 E10.13771
G1 X106.139 Y90.146 E10.13964
G1 X106.774 Y89.898 E10.16231
G1 X107.41 Y89.692 E10.18455
G1 X108.299 Y89.537 E10.21456
G1 X108.985 Y89.474 E10.23748
G1 X109.133 Y89.463 E10.24241
G1 X110.161 Y89.396 E10.27668
G1 X110.83 Y89.392 E10.29893
G1 X111.791 Y89.529 E10.33121
G1 X112.765 Y89.755 E10.36447
G1 X112.888 Y89.785 E10.36868
G1 X113.556 Y89.956 E10.39162
G1 X114.193 Y90.16 E10.41386
G1 X115.044 Y90.577 E10.44538
G1 X115.889 Y91.083 E10.47814
G1 X116.029 Y91.17 E10.48362
G1 X116.695 Y91.596 E10.50992
G1 X116.849 Y91.698 E10.51606
G1 X117.25 Y91.973 E10.53223
G1 X119.562 Y93.509 E10.62456
G1 X121.8 Y94.908 E10.71234
G1 X123.567 Y95.952 E10.7806
G1 X124.031 Y96.259 E10.79911
G1 X124.609 Y96.683 E10.82295
G1 X124.736 Y96.779 E10.82824
G1 X125.268 Y97.193 E10.85066
G1 X125.733 Y97.597 E10.87115
G1 X126.238 Y98.088 E10.89458
G1 X126.354 Y98.204 E10.90003
G1 X126.838 Y98.703 E10.92316
G1 X127.232 Y99.156 E10.94312
G1 X127.631 Y99.667 E10.96469
G1 X127.731 Y99.799 E10.9702
G1 X128.178 Y100.408 E10.99532
G1 X128.527 Y100.945 E11.01662
G1 X128.852 Y101.514 E11.03842
G1 X128.926 Y101.647 E11.04348
G1 X129.265 Y102.28 E11.06736
G1 X129.518 Y102.822 E11.08726
G1 X129.759 Y103.417 E11.10861
G1 X129.82 Y103.574 E11.11421
G1 X130.073 Y104.257 E11.13843
G1 X130.254 Y104.84 E11.15874
G1 X130.426 Y105.526 E11.18226
G1 X130.466 Y105.699 E11.18817
G1 X130.62 Y106.408 E11.2123
G1 X130.72 Y107.042 E11.23365
G1 X130.787 Y107.715 E11.25614
G1 X130.8 Y107.867 E11.26121
G1 X130.851 Y108.573 E11.28476
G1 X130.861 Y108.729 E11.28996
G1 X130.875 Y109.046 E11.30051
G1 X131.026 Y111.707 E11.38916
G1 X131.255 Y114.392 E11.47879
G1 X131.557 Y117.037 E11.56733
G1 X131.934 Y119.685 E11.65629
G1 X132.385 Y122.312 E11.74494
G1 X132.908 Y124.921 E11.83345
G1 X133.503 Y127.504 E11.92161
G1 X134.181 Y130.106 E12.01104
G1 X134.925 Y132.666 E12.09971
G1 X135.501 Y134.482 E12.16307
G1 X135.746 Y135.23 E12.18925
G1 X135.916 Y135.877 E12.2115
G1 X136.007 Y136.54 E12.23376
G1 X136.019 Y137.209 E12.25602
G1 X135.951 Y137.874 E12.27825
G1 X135.804 Y138.527 E12.30051
G1 X135.58 Y139.157 E12.32275
G1 X135.283 Y139.757 E12.34502
G1 X134.916 Y140.316 E12.36726
G1 X134.486 Y140.828 E12.3895
G1 X133.92 Y141.348 E12.41506
G1 X133.293 Y141.849 E12.44176
G1 X133.206 Y141.917 E12.44543
G1 X130.453 Y144.029 E12.56083
G1 X130.398 Y144.071 E12.56314
G1 X129.827 Y144.498 E12.58685
G1 X129.268 Y144.866 E12.60911
G1 X128.669 Y145.164 E12.63136
G1 X128.039 Y145.389 E12.65361
G1 X127.387 Y145.538 E12.67586
G1 X126.722 Y145.607 E12.69809
G1 X126.053 Y145.597 E12.72035
G1 X125.39 Y145.507 E12.7426
G1 X124.742 Y145.339 E12.76487
G1 X124.119 Y145.094 E12.78713
G1 X123.53 Y144.777 E12.80938
G1 X122.983 Y144.392 E12.83163
G1 X122.486 Y143.945 E12.85386
G1 X122.129 Y143.547 E12.87164
G1 X121.889 Y143.252 E12.88429
G1 X121.79 Y143.127 E12.88959
G1 X105.28 Y121.611 E13.79162
G1 X103.629 Y119.52 E13.88024
G1 X103.161 Y118.955 E13.90464
G1 X103.087 Y118.864 E13.90854
G1 X102.903 Y118.632 E13.91839
G1 X102.637 Y118.266 E13.93344
G1 X102.283 Y117.737 E13.95461
G1 X102.194 Y117.6 E13.96004
G1 X101.793 Y116.961 E13.98513
G1 X101.498 Y116.428 E14.00539
G1 X101.205 Y115.824 E14.02772
G1 X101.133 Y115.671 E14.03335
G1 X100.838 Y115.013 E14.05733
G1 X100.615 Y114.43 E14.07809
G1 X100.411 Y113.793 E14.10034
G1 X100.365 Y113.642 E14.10559
G1 X100.167 Y112.958 E14.12927
G1 X100.031 Y112.375 E14.14918
G1 X99.921 Y111.752 E14.17022
G1 X99.893 Y111.578 E14.17609
G1 X99.785 Y110.83 E14.20122
G1 X99.738 Y110.362 E14.21687
G1 X99.702 Y109.756 E14.23706
G1 X99.697 Y109.67 E14.23992
G1 X99.627 Y108.08 E14.29286
G1 X99.438 Y105.46 E14.38023
G1 X99.1 Y102.198 E14.4893
G1 X99.081 Y101.976 E14.49671
G1 X99.037 Y101.284 E14.51977
G1 X99.032 Y101.19 E14.5229
G1 X99.016 Y100.847 E14.53433
G1 X99.013 Y100.776 E14.53669
G1 X98.99 Y100.098 E14.55925
G1 X99.008 Y99.429 E14.58151
G1 X99.164 Y98.509 E14.61255
G1 X99.408 Y97.563 E14.64504
G1 X99.442 Y97.438 E14.64935
G1 X99.642 Y96.731 E14.67379
G1 X99.863 Y96.099 E14.69606
G1 X100.212 Y95.403 E14.72195
G1 X100.357 Y95.158 E14.73142
G1 X100.434 Y95.031 E14.73636
G1 X100.782 Y94.477 E14.75812
G1 X100.831 Y94.401 E14.76113
G1 X101.219 Y93.805 E14.78478
G1 X101.617 Y93.267 E14.80704
G0 F3600 X101.939 Y93.506
G1 F1800 X102.53 Y92.91 E14.83496
G1 X103.282 Y92.266 E14.86789
G1 X103.39 Y92.176 E14.87256
G1 X103.954 Y91.719 E14.89671
G1 X104.479 Y91.345 E14.91815
G1 X105.187 Y90.976 E14.9447
G1 X105.822 Y90.705 E14.96766
G1 X105.921 Y90.664 E14.97123
G1 X106.234 Y90.538 E14.98245
G1 X106.284 Y90.518 E14.98424
G1 X106.919 Y90.27 E15.00691
G1 X107.533 Y90.073 E15.02836
G1 X108.335 Y89.936 E15.05542
G1 X109.021 Y89.873 E15.07834
G1 X109.159 Y89.862 E15.08294
G1 X110.187 Y89.795 E15.1172
G1 X110.831 Y89.793 E15.13862
G1 X111.7 Y89.919 E15.16783
G1 X112.674 Y90.145 E15.20108
G1 X112.789 Y90.172 E15.20501
G1 X113.457 Y90.343 E15.22795
G1 X114.07 Y90.542 E15.24938
G1 X114.838 Y90.92 E15.27785
G1 X115.683 Y91.426 E15.31061
G1 X115.814 Y91.506 E15.31572
G1 X116.48 Y91.932 E15.34201
G1 X116.623 Y92.027 E15.34772
G1 X117.096 Y92.352 E15.36681
G1 X119.308 Y93.822 E15.45515
G1 X121.625 Y95.27 E15.54602
G1 X123.363 Y96.297 E15.61317
G1 X123.795 Y96.581 E15.63036
G1 X124.373 Y97.005 E15.6542
G1 X124.491 Y97.094 E15.65912
G1 X125.023 Y97.508 E15.68154
G1 X125.454 Y97.884 E15.70056
G1 X125.959 Y98.375 E15.72399
G1 X126.067 Y98.483 E15.72907
G1 X126.551 Y98.982 E15.75219
G1 X126.917 Y99.402 E15.77072
G1 X127.316 Y99.913 E15.79228
G1 X127.409 Y100.036 E15.79741
G1 X127.856 Y100.645 E15.82254
G1 X128.179 Y101.143 E15.84228
G1 X128.504 Y101.712 E15.86408
G1 X128.573 Y101.836 E15.8688
G1 X128.912 Y102.469 E15.89268
G1 X129.148 Y102.972 E15.91116
G1 X129.389 Y103.567 E15.93251
G1 X129.445 Y103.713 E15.93771
G1 X129.698 Y104.396 E15.96194
G1 X129.866 Y104.937 E15.98078
G1 X130.038 Y105.623 E16.0043
G1 X130.076 Y105.784 E16.0098
G1 X130.23 Y106.493 E16.03393
