;FLAVOR:Marlin
;TIME:4738
;Filament used: 6.74275m
;Layer height: 0.3
;Generated with Cura_SteamEngine 4.0.0
M140 S60
M105
M190 S60
M104 S200
M105
M109 S200
M82 ;absolute extrusion mode
; Ender 3 Custom Start G-code
G28 ; Home all axes
G92 E0 ; Reset Extruder
G1 Z2.0 F3000 ; Move Z Axis up little to prevent scratching of Heat Bed
G1 X0.1 Y20 Z0.3 F5000.0 ; Move to start position
G1 X0.1 Y200.0 Z0.3 F1500.0 E15 ; Draw the first line
G1 X0.4 Y200.0 Z0.3 F5000.0 ; Move to side a little
G1 X0.4 Y20 Z0.3 F1500.0 E30 ; Draw the second line
G92 E0 ; Reset Extruder
G1 Z2.0 F3000 ; Move Z Axis up little to prevent scratching of Heat Bed
; End of custom start GCode
G92 E0
G1 F2400 E-5
;LAYER_COUNT:13
;LAYER:0
M107
M204 S5000
M205 X30 Y30
G0 F3600 X144.191 Y121.366 Z0.2
M204 S500
M205 X20 Y20
;TYPE:SKIRT
G1 F2400 E0
G1 F1800 X144.687 Y120.791 E0.02526
G1 X145.24 Y120.272 E0.05048
G1 X145.844 Y119.814 E0.07569
G1 X146.494 Y119.422 E0.10094
G1 X147.181 Y119.101 E0.12616
G1 X147.899 Y118.853 E0.15143
G1 X148.638 Y118.683 E0.17665
G1 X149.391 Y118.591 E0.20188
G1 X150.149 Y118.579 E0.22709
G1 X150.905 Y118.647 E0.25234
G1 X151.649 Y118.794 E0.27756
G1 X152.374 Y119.018 E0.3028
G1 X153.071 Y119.318 E0.32804
G1 X153.733 Y119.689 E0.35328
G1 X154.352 Y120.128 E0.37852
G1 X154.921 Y120.629 E0.40373
G1 X155.445 Y121.2 E0.42951
G1 X156.594 Y122.597 E0.48967
G1 X157.044 Y123.208 E0.51491
G1 X157.428 Y123.862 E0.54014
G1 X157.74 Y124.554 E0.56538
G1 X157.93 Y125.103 E0.58471
G1 X158.651 Y127.508 E0.66821
G1 X158.83 Y128.246 E0.69347
G1 X158.931 Y128.998 E0.71871
G1 X158.952 Y129.756 E0.74393
G1 X158.893 Y130.512 E0.76915
G1 X158.755 Y131.258 E0.79438
G1 X158.539 Y131.986 E0.81964
G1 X158.248 Y132.686 E0.84485
G1 X157.884 Y133.352 E0.8701
G1 X157.453 Y133.976 E0.89532
G1 X156.958 Y134.552 E0.92058
G1 X156.406 Y135.072 E0.9458
G1 X155.802 Y135.531 E0.97103
G1 X155.153 Y135.923 E0.99625
G1 X154.7 Y136.146 E1.01305
G1 X154.051 Y136.437 E1.0367
G1 X153.343 Y136.71 E1.06194
G1 X152.611 Y136.908 E1.08716
G1 X151.861 Y137.027 E1.11242
G1 X151.104 Y137.067 E1.13763
G1 X150.346 Y137.027 E1.16288
G1 X149.597 Y136.907 E1.18811
G1 X148.864 Y136.71 E1.21335
G1 X148.157 Y136.436 E1.23857
G1 X147.482 Y136.089 E1.26382
G1 X146.847 Y135.673 E1.28906
G1 X146.26 Y135.193 E1.31428
G1 X145.727 Y134.654 E1.3395
G1 X145.253 Y134.061 E1.36475
G1 X144.844 Y133.422 E1.38998
G1 X144.505 Y132.743 E1.41522
G1 X144.205 Y131.925 E1.4442
G1 X142.984 Y127.832 E1.58626
G1 X142.806 Y127.095 E1.61148
G1 X142.706 Y126.343 E1.63671
G1 X142.687 Y125.584 E1.66196
G1 X142.746 Y124.828 E1.68719
G1 X142.886 Y124.082 E1.71243
G1 X143.102 Y123.355 E1.73766
G1 X143.395 Y122.655 E1.76289
G1 X143.759 Y121.989 E1.78814
G1 X144.191 Y121.366 E1.81335
M204 S5000
M205 X30 Y30
G0 F3600 X144.624 Y121.464
M204 S500
M205 X20 Y20
G1 F1800 X145.121 Y120.92 E1.83786
G1 X145.675 Y120.433 E1.8624
G1 X146.278 Y120.009 E1.88691
G1 X146.923 Y119.652 E1.91143
G1 X147.603 Y119.368 E1.93594
G1 X148.31 Y119.159 E1.96046
G1 X149.036 Y119.027 E1.98501
G1 X149.771 Y118.975 E2.00951
G1 X150.508 Y119.003 E2.03404
G1 X151.238 Y119.11 E2.05858
G1 X151.951 Y119.296 E2.08309
G1 X152.64 Y119.558 E2.10761
G1 X153.297 Y119.893 E2.13214
G1 X153.914 Y120.297 E2.15667
G1 X154.483 Y120.765 E2.18117
G1 X155.136 Y121.454 E2.21274
G1 X156.285 Y122.851 E2.2729
G1 X156.722 Y123.445 E2.29743
G1 X157.092 Y124.083 E2.32196
G1 X157.39 Y124.757 E2.34647
G1 X157.547 Y125.218 E2.36267
G1 X158.268 Y127.623 E2.44618
G1 X158.441 Y128.34 E2.47071
G1 X158.535 Y129.071 E2.49522
G1 X158.55 Y129.808 E2.51974
G1 X158.485 Y130.543 E2.54428
G1 X158.341 Y131.266 E2.5688
G1 X158.119 Y131.969 E2.59332
G1 X157.823 Y132.644 E2.61784
G1 X157.455 Y133.283 E2.64236
G1 X157.02 Y133.878 E2.66688
G1 X156.523 Y134.423 E2.69141
G1 X155.97 Y134.911 E2.71594
G1 X155.368 Y135.336 E2.74045
G1 X154.536 Y135.781 E2.77183
G1 X153.887 Y136.072 E2.79549
G1 X153.199 Y136.337 E2.82001
G1 X152.486 Y136.525 E2.84453
G1 X151.757 Y136.636 E2.86906
G1 X151.021 Y136.666 E2.89356
G1 X150.285 Y136.617 E2.91809
G1 X149.559 Y136.489 E2.94261
G1 X148.851 Y136.283 E2.96714
G1 X148.17 Y136.001 E2.99165
G1 X147.523 Y135.647 E3.01618
G1 X146.918 Y135.225 E3.04072
G1 X146.363 Y134.74 E3.06523
G1 X145.863 Y134.198 E3.08976
G1 X145.425 Y133.605 E3.11428
G1 X145.053 Y132.968 E3.13881
G1 X144.753 Y132.295 E3.16332
G1 X144.589 Y131.811 E3.18032
G1 X143.368 Y127.718 E3.32238
G1 X143.196 Y127.001 E3.3469
G1 X143.102 Y126.27 E3.37142
G1 X143.088 Y125.532 E3.39597
G1 X143.154 Y124.798 E3.42048
G1 X143.3 Y124.075 E3.44501
G1 X143.522 Y123.372 E3.46953
G1 X143.82 Y122.698 E3.49404
G1 X144.188 Y122.059 E3.51857
G1 X144.624 Y121.464 E3.5431
M204 S5000
M205 X30 Y30
G0 F3600 X144.619 Y122.136
M204 S500
M205 X20 Y20
G1 F1800 X145.058 Y121.571 E3.5669
G1 X145.557 Y121.059 E3.59068
G1 X146.11 Y120.605 E3.61448
G1 X146.71 Y120.216 E3.63826
G1 X147.35 Y119.897 E3.66204
G1 X148.022 Y119.651 E3.68584
G1 X148.717 Y119.481 E3.70964
G1 X149.426 Y119.39 E3.73342
G1 X150.141 Y119.379 E3.7572
G1 X150.853 Y119.448 E3.78099
G1 X151.553 Y119.595 E3.80478
G1 X152.232 Y119.82 E3.82857
G1 X152.882 Y120.119 E3.85237
G1 X153.494 Y120.489 E3.87616
G1 X154.061 Y120.925 E3.89995
G1 X154.576 Y121.421 E3.92373
G1 X154.827 Y121.709 E3.93643
G1 X155.976 Y123.106 E3.99659
G1 X156.399 Y123.683 E4.02039
G1 X156.754 Y124.303 E4.04415
G1 X157.039 Y124.959 E4.06794
G1 X157.163 Y125.333 E4.08105
G1 X157.884 Y127.738 E4.16455
G1 X158.051 Y128.434 E4.18836
G1 X158.139 Y129.143 E4.21212
G1 X158.148 Y129.859 E4.23594
G1 X158.076 Y130.57 E4.25971
G1 X157.926 Y131.27 E4.28352
G1 X157.698 Y131.948 E4.30731
G1 X157.397 Y132.596 E4.33107
G1 X157.024 Y133.207 E4.35488
G1 X156.586 Y133.772 E4.37866
G1 X156.088 Y134.285 E4.40244
G1 X155.535 Y134.74 E4.42626
G1 X154.935 Y135.129 E4.45004
G1 X154.372 Y135.416 E4.47106
G1 X153.723 Y135.707 E4.49472
G1 X153.055 Y135.963 E4.51851
G1 X152.363 Y136.142 E4.54228
G1 X151.655 Y136.243 E4.56607
G1 X150.94 Y136.265 E4.58986
G1 X150.227 Y136.207 E4.61366
G1 X149.525 Y136.069 E4.63745
G1 X148.843 Y135.854 E4.66124
G1 X148.189 Y135.564 E4.68503
G1 X147.572 Y135.203 E4.70881
G1 X146.998 Y134.776 E4.7326
G1 X146.476 Y134.287 E4.75639
G1 X146.012 Y133.743 E4.78017
G1 X145.611 Y133.15 E4.80398
G1 X145.279 Y132.517 E4.82775
G1 X144.972 Y131.697 E4.85688
G1 X143.751 Y127.604 E4.99894
G1 X143.585 Y126.908 E5.02274
G1 X143.498 Y126.198 E5.04653
G1 X143.491 Y125.483 E5.07031
G1 X143.563 Y124.771 E5.09411
G1 X143.714 Y124.072 E5.1179
G1 X143.943 Y123.394 E5.1417
G1 X144.246 Y122.746 E5.16549
G1 X144.619 Y122.136 E5.18927
M204 S5000
M205 X30 Y30
G0 F3600 X145.05 Y122.22
M204 S500
M205 X20 Y20
G1 F1800 X145.492 Y121.687 E5.2123
G1 X145.992 Y121.208 E5.23533
G1 X146.544 Y120.79 E5.25836
G1 X147.141 Y120.438 E5.28141
G1 X147.774 Y120.157 E5.30445
G1 X148.435 Y119.952 E5.32747
G1 X149.116 Y119.823 E5.35052
G1 X149.806 Y119.775 E5.37352
G1 X150.498 Y119.806 E5.39656
G1 X151.182 Y119.916 E5.41961
G1 X151.848 Y120.105 E5.44263
G1 X152.488 Y120.369 E5.46566
G1 X153.094 Y120.705 E5.4887
G1 X153.657 Y121.109 E5.51175
G1 X154.169 Y121.574 E5.53476
G1 X154.518 Y121.963 E5.55214
G1 X155.667 Y123.36 E5.6123
G1 X156.075 Y123.919 E5.63532
G1 X156.416 Y124.522 E5.65836
G1 X156.78 Y125.448 E5.69145
G1 X157.501 Y127.853 E5.77496
G1 X157.662 Y128.527 E5.79801
G1 X157.743 Y129.214 E5.82102
G1 X157.745 Y129.907 E5.84406
G1 X157.667 Y130.595 E5.86709
G1 X157.51 Y131.27 E5.89014
G1 X157.277 Y131.922 E5.91317
G1 X156.969 Y132.542 E5.9362
G1 X156.593 Y133.124 E5.95924
G1 X156.152 Y133.658 E5.98228
G1 X155.652 Y134.137 E6.00531
G1 X155.101 Y134.556 E6.02833
G1 X154.209 Y135.051 E6.06226
G1 X153.56 Y135.342 E6.08592
G1 X152.913 Y135.588 E6.10894
G1 X152.241 Y135.758 E6.132
G1 X151.555 Y135.85 E6.15502
G1 X150.862 Y135.862 E6.17807
G1 X150.173 Y135.794 E6.2011
G1 X149.496 Y135.647 E6.22414
G1 X148.841 Y135.424 E6.24715
G1 X148.216 Y135.126 E6.27018
G1 X147.629 Y134.758 E6.29322
G1 X147.089 Y134.325 E6.31625
G1 X146.602 Y133.832 E6.33929
G1 X146.175 Y133.287 E6.36232
G1 X145.814 Y132.696 E6.38536
G1 X145.523 Y132.067 E6.40841
G1 X145.355 Y131.582 E6.42548
G1 X144.134 Y127.489 E6.56754
G1 X143.975 Y126.815 E6.59057
G1 X143.894 Y126.127 E6.61361
G1 X143.894 Y125.435 E6.63663
G1 X143.973 Y124.747 E6.65966
G1 X144.13 Y124.073 E6.68268
G1 X144.365 Y123.421 E6.70573
G1 X144.673 Y122.801 E6.72876
G1 X145.05 Y122.22 E6.75179
M204 S5000
M205 X30 Y30
G0 F3600 X145.482 Y122.312
M204 S500
M205 X20 Y20
G1 F1800 X145.926 Y121.812 E6.77403
G1 X146.427 Y121.368 E6.7963
G1 X146.977 Y120.987 E6.81855
G1 X147.569 Y120.675 E6.84081
G1 X148.193 Y120.435 E6.86305
G1 X148.842 Y120.272 E6.8853
G1 X149.506 Y120.187 E6.90757
G1 X150.175 Y120.182 E6.92982
G1 X150.84 Y120.256 E6.95207
G1 X151.491 Y120.409 E6.97432
G1 X152.119 Y120.639 E6.99656
G1 X152.716 Y120.943 E7.01884
G1 X153.271 Y121.315 E7.04106
G1 X153.779 Y121.751 E7.06333
G1 X154.209 Y122.217 E7.08442
G1 X155.358 Y123.614 E7.14458
G1 X155.751 Y124.155 E7.16682
G1 X156.077 Y124.739 E7.18907
G1 X156.397 Y125.563 E7.21847
G1 X157.118 Y127.968 E7.30198
G1 X157.272 Y128.619 E7.32423
G1 X157.346 Y129.284 E7.34648
G1 X157.341 Y129.953 E7.36873
G1 X157.256 Y130.617 E7.391
G1 X157.093 Y131.265 E7.41322
G1 X156.854 Y131.89 E7.43548
G1 X156.541 Y132.482 E7.45775
G1 X156.161 Y133.032 E7.47998
G1 X155.717 Y133.533 E7.50225
G1 X155.217 Y133.977 E7.52449
G1 X154.667 Y134.359 E7.54676
G1 X154.045 Y134.686 E7.57013
G1 X153.396 Y134.977 E7.59379
G1 X152.77 Y135.214 E7.61605
G1 X152.121 Y135.374 E7.63829
G1 X151.457 Y135.456 E7.66054
G1 X150.788 Y135.458 E7.68279
G1 X150.123 Y135.38 E7.70506
G1 X149.473 Y135.224 E7.72729
G1 X148.846 Y134.991 E7.74954
G1 X148.251 Y134.685 E7.77179
G1 X147.697 Y134.31 E7.79404
G1 X147.191 Y133.872 E7.8163
G1 X146.741 Y133.377 E7.83855
G1 X146.354 Y132.831 E7.86081
G1 X146.034 Y132.244 E7.88305
G1 X145.739 Y131.468 E7.91066
G1 X144.518 Y127.375 E8.05272
G1 X144.365 Y126.723 E8.075
G1 X144.291 Y126.059 E8.09722
G1 X144.297 Y125.39 E8.11947
G1 X144.383 Y124.726 E8.14174
G1 X144.547 Y124.077 E8.164
G1 X144.788 Y123.453 E8.18625
G1 X145.101 Y122.862 E8.2085
G1 X145.482 Y122.312 E8.23075
M204 S5000
M205 X30 Y30
G0 F3600 X145.915 Y122.414
M204 S500
M205 X20 Y20
G1 F1800 X146.362 Y121.949 E8.2522
G1 X146.862 Y121.542 E8.27365
G1 X147.409 Y121.201 E8.29508
G1 X147.994 Y120.93 E8.31653
G1 X148.608 Y120.733 E8.33797
G1 X149.241 Y120.614 E8.3594
G1 X149.885 Y120.574 E8.38086
G1 X150.528 Y120.614 E8.40229
G1 X151.162 Y120.733 E8.42374
G1 X151.775 Y120.93 E8.44516
G1 X152.36 Y121.201 E8.4666
G1 X152.907 Y121.543 E8.48806
G1 X153.407 Y121.95 E8.5095
G1 X153.9 Y122.471 E8.53336
G1 X155.049 Y123.868 E8.59352
G1 X155.427 Y124.39 E8.61495
G1 X155.737 Y124.955 E8.63639
G1 X156.014 Y125.678 E8.66214
G1 X156.735 Y128.083 E8.74565
G1 X156.881 Y128.711 E8.76709
G1 X156.949 Y129.352 E8.78853
G1 X156.937 Y129.996 E8.80995
G1 X156.845 Y130.634 E8.83139
G1 X156.675 Y131.256 E8.85284
G1 X156.429 Y131.852 E8.87429
G1 X156.112 Y132.413 E8.89572
G1 X155.727 Y132.931 E8.91718
G1 X155.282 Y133.396 E8.93859
G1 X154.782 Y133.804 E8.96006
G1 X154.235 Y134.146 E8.98151
G1 X153.882 Y134.321 E8.99462
G1 X153.233 Y134.612 E9.01827
G1 X152.629 Y134.839 E9.03973
G1 X152.002 Y134.989 E9.06118
G1 X151.361 Y135.061 E9.08263
G1 X150.717 Y135.052 E9.10405
G1 X150.078 Y134.965 E9.1255
G1 X149.455 Y134.798 E9.14695
G1 X148.858 Y134.556 E9.16838
G1 X148.295 Y134.242 E9.18982
G1 X147.775 Y133.861 E9.21126
G1 X147.306 Y133.418 E9.23272
G1 X146.896 Y132.921 E9.25415
G1 X146.551 Y132.377 E9.27557
G1 X146.275 Y131.794 E9.29703
G1 X146.122 Y131.354 E9.31252
G1 X144.901 Y127.261 E9.45458
G1 X144.755 Y126.632 E9.47606
G1 X144.689 Y125.991 E9.49749
G1 X144.702 Y125.347 E9.51892
G1 X144.794 Y124.709 E9.54036
G1 X144.965 Y124.087 E9.56181
G1 X145.212 Y123.492 E9.58324
G1 X145.53 Y122.931 E9.60469
G1 X145.915 Y122.414 E9.62613
M204 S5000
M205 X30 Y30
G1 F2400 E4.62613
;MESH:Gin Bar Sign (2).stl
G0 F3600 X149.931 Y125.86
G0 X150.345 Y126.64
G0 X151.279 Y129.471
G0 X151.212 Y129.566
M204 S500
M205 X20 Y20
;TYPE:WALL-OUTER
G1 F2400 E9.62613
G1 F1800 X150.557 Y127.365 E9.7025
G1 X150.336 Y126.623 E9.72825
G1 X150.87 Y127.271 E9.74059
G1 X151.524 Y129.472 E9.80274
G1 X151.223 Y129.605 E9.81369
G1 X151.212 Y129.566
M204 S5000
M205 X30 Y30
G0 F3600 X151.155 Y129.375
G1 F2400 E4.81369
;MESH:NONMESH
G0 F3600 X151.251 Y129.349
G0 X150.345 Y126.64
G0 X149.513 Y126.887
G0 X53.585 Y98.302
;TIME_ELAPSED:20.963037
;LAYER:1
M140 S60
M106 S255
;MESH:Gin Bar Sign (2).stl
G0 F5400 X53.585 Y98.302 Z0.5
M204 S500
M205 X20 Y20
;TYPE:WALL-INNER
G1 F2400 E9.81369
G1 F2700 X53.664 Y98.575 E9.82787
G1 X53.318 Y98.38 E9.83739
G1 X53.177 Y98.282 E9.84596
G1 X52.29 Y97.663 E9.89992
G1 X51.355 Y96.859 E9.96144
G1 X50.54 Y95.995 E10.0207
G1 X49.873 Y95.083 E10.07707
G1 X49.407 Y94.169 E10.12825
G1 X49.132 Y93.242 E10.17649
G1 X49.04 Y92.29 E10.22421
G1 X49.109 Y91.34 E10.27173
G1 X49.293 Y90.692 E10.30534
G1 X49.477 Y90.438 E10.32099
G1 X49.49 Y90.42 E10.32209
G1 X49.615 Y90.376 E10.3287
G1 X49.847 Y90.452 E10.34088
G1 X49.864 Y90.467 E10.34202
G1 X50.298 Y90.863 E10.37133
G1 X50.88 Y91.682 E10.42145
G1 X51.533 Y92.883 E10.48965
G1 X52.209 Y94.384 E10.57178
G1 X52.854 Y96.057 E10.66124
G1 X53.486 Y97.959 E10.76123
G1 X53.538 Y98.137 E10.77048
G1 X53.585 Y98.302 E10.77609
M204 S5000
M205 X30 Y30
G0 F5400 X53.488 Y98.328
G0 X53.827 Y97.841
G0 X55.823 Y106.108
G0 X50.36 Y107.106
G0 X49.292 Y107.662
G0 X48.352 Y108.573
G0 X47.541 Y109.835
G0 X46.888 Y111.376
G0 X41.623 Y128.829
G0 X41.35 Y130.265
G0 X41.258 Y131.836
G0 X41.302 Y133.016
G0 X41.441 Y134.208
G0 X41.665 Y135.355
G0 X41.986 Y136.513
G0 X42.782 Y138.602
G0 X43.718 Y140.307
G0 X44.737 Y141.686
G0 X45.768 Y142.772
G0 X46.733 Y143.495
G0 X47.592 Y143.758
G0 X58.381 Y146.074
G0 X59.429 Y146.247
G0 X60.341 Y146.094
G0 X61.176 Y145.64
G0 X61.915 Y144.907
G0 X62.571 Y143.895
G0 X63.104 Y142.726
G0 X63.485 Y141.499
G0 X63.713 Y140.211
G0 X63.789 Y138.862
G0 X63.752 Y137.812
G0 X63.442 Y135.625
G0 X62.834 Y133.41
G0 X62.421 Y132.316
G0 X61.392 Y130.212
G0 X58.801 Y125.259
G0 X51.547 Y120.97
G0 X51.455 Y120.929
M204 S500
M205 X20 Y20
G1 F2700 X51.391 Y120.282 E10.80852
G1 X51.319 Y117.994 E10.92273
G1 X51.359 Y116.703 E10.98717
G1 X51.474 Y115.583 E11.04334
G1 X51.658 Y114.663 E11.09015
G1 X51.916 Y113.903 E11.13019
G1 X52.211 Y113.351 E11.16141
G1 X52.522 Y113.002 E11.18473
G1 X52.833 Y112.821 E11.20269
G1 X53.15 Y112.767 E11.21873
G1 X53.523 Y112.858 E11.23789
G1 X54.019 Y113.194 E11.26777
G1 X54.582 Y113.767 E11.30785
G1 X55.115 Y114.486 E11.3525
G1 X56.066 Y116.069 E11.44464
G1 X56.751 Y117.431 E11.5207
G1 X56.963 Y117.925 E11.54752
G1 X57.025 Y118.311 E11.56702
G1 X57.24 Y119.431 E11.62392
G1 X57.59 Y121.023 E11.70524
G1 X58.061 Y122.718 E11.79301
G1 X58.669 Y124.347 E11.87975
G1 X59.032 Y125.024 E11.91808
G1 X59.47 Y125.616 E11.95482
G1 X60.021 Y126.084 E11.99089
G1 X60.726 Y126.279 E12.02738
G1 X61.53 Y126.022 E12.06949
G1 X62.077 Y125.349 E12.11276
G1 X62.369 Y124.445 E12.16015
G1 X62.456 Y123.337 E12.2156
G1 X62.402 Y122.405 E12.26218
G1 X62.243 Y121.442 E12.31087
G1 X61.749 Y119.72 E12.40025
G1 X61.164 Y118.318 E12.47604
G1 X60.671 Y117.353 E12.5301
G1 X60.53 Y117.112 E12.54403
G1 X60.136 Y111.174 E12.84093
G1 X59.798 Y107.999 E13.00023
G1 X59.721 Y107.276 E13.0365
G1 X60.156 Y107.859 E13.0553
G1 X60.59 Y108.438 E13.0914
G1 X61.381 Y109.919 E13.17516
G1 X62.042 Y111.679 E13.26896
G1 X62.238 Y112.141 E13.294
G1 X62.218 Y112.471 E13.31049
G1 X62.25 Y113.079 E13.34087
G1 X62.371 Y113.6 E13.36755
G1 X62.675 Y114.082 E13.39598
G1 X63.308 Y114.318 E13.42968
G1 X63.833 Y114.054 E13.459
G1 X64.086 Y113.741 E13.47908
G1 X64.235 Y113.385 E13.49833
G1 X64.319 Y113.143 E13.51111
G1 X64.94 Y111.595 E13.59433
G1 X65.713 Y110.242 E13.67207
G1 X66.116 Y109.736 E13.70434
G1 X66.519 Y109.403 E13.73042
G1 X66.911 Y109.22 E13.75201
G1 X67.33 Y109.159 E13.77313
G1 X67.78 Y109.208 E13.79571
G1 X68.227 Y109.361 E13.81928
G1 X68.677 Y109.624 E13.84529
G1 X69.129 Y110.011 E13.87497
G1 X69.583 Y110.529 E13.90934
G1 X70.033 Y111.182 E13.9489
