;FLAVOR:Marlin
;TIME:5492
;Filament used: 7.08128m
;Layer height: 0.3
;Generated with Cura_SteamEngine 3.6.0
M140 S60
M105
M190 S60
M104 S200
M105
M109 S200
M82 ;absolute extrusion mode
; Ender 3 Custom Start G-code
G28 ; Home all axes
G92 E0 ; Reset Extruder
G1 Z2.0 F3000 ; Move Z Axis up little to prevent scratching of Heat Bed
G1 X0.1 Y20 Z0.3 F5000.0 ; Move to start position
G1 X0.1 Y200.0 Z0.3 F1500.0 E15 ; Draw the first line
G1 X0.4 Y200.0 Z0.3 F5000.0 ; Move to side a little
G1 X0.4 Y20 Z0.3 F1500.0 E30 ; Draw the second line
G92 E0 ; Reset Extruder
G1 Z2.0 F3000 ; Move Z Axis up little to prevent scratching of Heat Bed
; End of custom start GCode
G92 E0
G1 F2400 E-5
;LAYER_COUNT:14
;LAYER:0
M107
M204 S5000
M205 X30 Y30
G0 F3600 X70.185 Y63.421 Z0.2
M204 S500
M205 X20 Y20
;TYPE:SKIRT
G1 F2400 E0
G1 F1800 X70.672 Y62.897 E0.02379
G1 X71.214 Y62.43 E0.04759
G1 X71.805 Y62.028 E0.07136
G1 X72.438 Y61.693 E0.09518
G1 X73.103 Y61.431 E0.11895
G1 X73.794 Y61.246 E0.14275
G1 X74.501 Y61.138 E0.16653
G1 X75.109 Y61.109 E0.18678
G1 X159.89 Y61.11 E3.00661
G1 X160.604 Y61.15 E3.03039
G1 X161.309 Y61.269 E3.05417
G1 X161.997 Y61.467 E3.07798
G1 X162.658 Y61.74 E3.10177
G1 X163.285 Y62.085 E3.12557
G1 X163.869 Y62.497 E3.14934
G1 X164.403 Y62.972 E3.17311
G1 X164.882 Y63.504 E3.19692
G1 X165.297 Y64.086 E3.2207
G1 X165.646 Y64.711 E3.24451
G1 X165.922 Y65.371 E3.2683
G1 X166.123 Y66.057 E3.29208
G1 X166.239 Y66.703 E3.31391
G1 X166.634 Y69.811 E3.41811
G1 X167.544 Y75.092 E3.59635
G1 X168.095 Y77.646 E3.68325
G1 X168.718 Y80.18 E3.77004
G1 X170.212 Y85.304 E3.94756
G1 X171.975 Y90.285 E4.1233
G1 X174.028 Y95.185 E4.3
G1 X176.336 Y99.923 E4.47529
G1 X178.929 Y104.559 E4.65196
G1 X181.766 Y109.019 E4.82777
G1 X184.854 Y113.318 E5.00382
G1 X188.221 Y117.483 E5.18195
G1 X189.796 Y119.278 E5.26138
G1 X190.237 Y119.841 E5.28517
G1 X190.612 Y120.45 E5.30895
G1 X190.918 Y121.097 E5.33276
G1 X191.149 Y121.774 E5.35655
G1 X191.303 Y122.472 E5.38032
G1 X191.386 Y123.499 E5.41459
G1 X191.39 Y167.488 E6.87767
G1 X191.35 Y168.203 E6.90149
G1 X191.231 Y168.908 E6.92527
G1 X191.033 Y169.595 E6.94905
G1 X190.761 Y170.257 E6.97286
G1 X190.416 Y170.883 E6.99663
G1 X190.003 Y171.467 E7.02042
G1 X189.528 Y172.002 E7.04422
G1 X188.996 Y172.48 E7.068
G1 X188.414 Y172.896 E7.0918
G1 X187.789 Y173.244 E7.11559
G1 X187.13 Y173.521 E7.13937
G1 X186.443 Y173.722 E7.16317
G1 X185.739 Y173.845 E7.18694
G1 X184.99 Y173.889 E7.2119
G1 X129.435 Y173.889 E9.05967
G1 X128.848 Y173.862 E9.07921
G1 X123.78 Y173.395 E9.24849
G1 X118.485 Y173.19 E9.42473
G1 X113.133 Y173.285 E9.60277
G1 X110.561 Y173.44 E9.68847
G1 X105.984 Y173.866 E9.84136
G1 X105.388 Y173.894 E9.8612
G1 X50.007 Y173.878 E11.70318
G1 X49.293 Y173.838 E11.72697
G1 X48.588 Y173.718 E11.75075
G1 X47.9 Y173.521 E11.77455
G1 X47.239 Y173.248 E11.79834
G1 X46.613 Y172.903 E11.82211
G1 X46.029 Y172.49 E11.8459
G1 X45.494 Y172.014 E11.86972
G1 X45.016 Y171.482 E11.89351
G1 X44.601 Y170.9 E11.91728
G1 X44.253 Y170.275 E11.94108
G1 X43.976 Y169.615 E11.96488
G1 X43.776 Y168.929 E11.98865
G1 X43.653 Y168.224 E12.01245
G1 X43.609 Y167.478 E12.03731
G1 X43.61 Y123.504 E13.49989
G1 X43.65 Y122.79 E13.52367
G1 X43.769 Y122.084 E13.54749
G1 X43.967 Y121.397 E13.57127
G1 X44.24 Y120.736 E13.59505
G1 X44.585 Y120.109 E13.61886
G1 X45.107 Y119.391 E13.64838
G1 X49.385 Y114.292 E13.86976
G1 X52.517 Y110.052 E14.04508
G1 X55.419 Y105.62 E14.22128
G1 X58.068 Y101.03 E14.39754
G1 X60.447 Y96.309 E14.57337
G1 X62.572 Y91.422 E14.75062
G1 X63.536 Y88.924 E14.83967
G1 X64.373 Y86.547 E14.92349
G1 X65.942 Y81.42 E15.10182
G1 X67.211 Y76.244 E15.27908
G1 X67.731 Y73.657 E15.36684
G1 X68.167 Y71.101 E15.45308
G1 X68.766 Y66.655 E15.60229
G1 X68.901 Y65.952 E15.6261
G1 X69.114 Y65.269 E15.6499
G1 X69.401 Y64.614 E15.67368
G1 X69.76 Y63.996 E15.69745
G1 X70.185 Y63.421 E15.72123
M204 S5000
M205 X30 Y30
G0 F3600 X70.564 Y63.592
M204 S500
M205 X20 Y20
G1 F1800 X71.046 Y63.094 E15.74429
G1 X71.581 Y62.656 E15.76728
G1 X72.164 Y62.281 E15.79034
G1 X72.786 Y61.977 E15.81336
G1 X73.439 Y61.746 E15.8364
G1 X74.114 Y61.592 E15.85943
G1 X75.109 Y61.509 E15.89264
G1 X159.89 Y61.51 E18.71247
G1 X160.581 Y61.55 E18.73549
G1 X161.264 Y61.669 E18.75855
G1 X161.927 Y61.867 E18.78156
G1 X162.564 Y62.139 E18.8046
G1 X163.165 Y62.483 E18.82763
G1 X163.723 Y62.894 E18.85068
G1 X164.229 Y63.366 E18.87369
G1 X164.678 Y63.894 E18.89675
G1 X165.063 Y64.47 E18.91979
G1 X165.378 Y65.086 E18.9428
G1 X165.621 Y65.734 E18.96582
G1 X165.788 Y66.407 E18.98888
G1 X165.842 Y66.754 E19.00056
G1 X166.237 Y69.86 E19.1047
G1 X167.152 Y75.176 E19.28411
G1 X167.7 Y77.713 E19.37044
G1 X168.335 Y80.296 E19.45891
G1 X169.83 Y85.423 E19.63653
G1 X171.602 Y90.431 E19.81322
G1 X173.66 Y95.342 E19.99032
G1 X175.985 Y100.115 E20.16691
G1 X178.585 Y104.764 E20.34407
G1 X181.436 Y109.246 E20.52075
G1 X184.54 Y113.566 E20.69768
G1 X187.916 Y117.743 E20.87631
G1 X189.495 Y119.542 E20.95592
G1 X189.921 Y120.088 E20.97895
G1 X190.282 Y120.679 E21.00199
G1 X190.571 Y121.308 E21.02501
G1 X190.787 Y121.967 E21.04808
G1 X190.925 Y122.645 E21.07109
G1 X190.986 Y123.499 E21.09957
G1 X190.99 Y167.488 E22.56265
G1 X190.95 Y168.18 E22.5857
G1 X190.831 Y168.862 E22.60873
G1 X190.634 Y169.526 E22.63176
G1 X190.361 Y170.163 E22.65481
G1 X190.018 Y170.764 E22.67783
G1 X189.607 Y171.321 E22.70085
G1 X189.134 Y171.828 E22.72391
G1 X188.607 Y172.276 E22.74692
G1 X188.031 Y172.661 E22.76996
G1 X187.415 Y172.977 E22.79299
G1 X186.766 Y173.22 E22.81604
G1 X186.094 Y173.387 E22.83907
G1 X185.407 Y173.474 E22.8621
G1 X184.99 Y173.489 E22.87598
G1 X129.435 Y173.489 E24.72375
G1 X128.885 Y173.464 E24.74206
G1 X123.814 Y172.997 E24.91144
G1 X118.476 Y172.79 E25.08911
G1 X113.126 Y172.885 E25.26708
G1 X110.528 Y173.041 E25.35365
G1 X105.946 Y173.468 E25.5067
G1 X105.388 Y173.494 E25.52528
G1 X50.007 Y173.478 E27.36726
G1 X49.316 Y173.438 E27.39028
G1 X48.634 Y173.318 E27.41332
G1 X47.97 Y173.121 E27.43635
G1 X47.333 Y172.848 E27.4594
G1 X46.732 Y172.504 E27.48244
G1 X46.175 Y172.093 E27.50546
G1 X45.669 Y171.621 E27.52847
G1 X45.22 Y171.093 E27.55153
G1 X44.836 Y170.517 E27.57455
G1 X44.52 Y169.901 E27.59758
G1 X44.277 Y169.252 E27.62063
G1 X44.111 Y168.58 E27.64365
G1 X44.023 Y167.893 E27.66669
G1 X44.009 Y167.478 E27.6805
G1 X44.01 Y123.504 E29.14308
G1 X44.05 Y122.812 E29.16613
G1 X44.169 Y122.13 E29.18916
G1 X44.367 Y121.466 E29.2122
G1 X44.639 Y120.83 E29.23521
G1 X44.983 Y120.229 E29.25824
G1 X45.413 Y119.648 E29.28228
G1 X49.699 Y114.539 E29.50409
G1 X52.852 Y110.271 E29.68058
G1 X55.755 Y105.839 E29.85679
G1 X58.421 Y101.217 E30.03426
G1 X60.806 Y96.485 E30.21051
G1 X62.948 Y91.557 E30.38923
G1 X63.902 Y89.086 E30.47733
G1 X64.763 Y86.642 E30.56351
G1 X66.326 Y81.533 E30.74121
G1 X67.604 Y76.321 E30.9197
G1 X68.123 Y73.738 E31.00733
G1 X68.563 Y71.165 E31.09415
G1 X69.163 Y66.708 E31.24372
G1 X69.295 Y66.028 E31.26676
G1 X69.504 Y65.368 E31.28979
G1 X69.788 Y64.737 E31.3128
G1 X70.143 Y64.142 E31.33585
G1 X70.564 Y63.592 E31.35889
M204 S5000
M205 X30 Y30
G0 F3600 X70.942 Y63.768
M204 S500
M205 X20 Y20
G1 F1800 X71.418 Y63.298 E31.38113
G1 X71.946 Y62.888 E31.40337
G1 X72.52 Y62.543 E31.42564
G1 X73.131 Y62.27 E31.4479
G1 X73.77 Y62.072 E31.47015
G1 X74.428 Y61.951 E31.4924
G1 X75.109 Y61.909 E31.5151
G1 X159.89 Y61.91 E34.33492
G1 X160.558 Y61.95 E34.35718
G1 X161.216 Y62.069 E34.37942
G1 X161.856 Y62.266 E34.40169
G1 X162.467 Y62.538 E34.42394
G1 X163.041 Y62.881 E34.44618
G1 X163.571 Y63.29 E34.46845
G1 X164.048 Y63.759 E34.49069
G1 X164.466 Y64.282 E34.51296
G1 X164.818 Y64.85 E34.53519
G1 X165.1 Y65.457 E34.55745
G1 X165.308 Y66.093 E34.57971
G1 X165.445 Y66.804 E34.60379
G1 X165.84 Y69.913 E34.70803
G1 X166.76 Y75.254 E34.88828
G1 X167.316 Y77.829 E34.9759
G1 X167.944 Y80.384 E35.06341
G1 X169.449 Y85.547 E35.24228
G1 X171.229 Y90.577 E35.41975
G1 X173.296 Y95.508 E35.59758
G1 X175.63 Y100.3 E35.77486
G1 X178.239 Y104.965 E35.95264
G1 X181.103 Y109.468 E36.13013
G1 X184.22 Y113.805 E36.30777
G1 X187.609 Y118 E36.48714
G1 X189.195 Y119.806 E36.56708
G1 X189.605 Y120.334 E36.58932
G1 X189.95 Y120.908 E36.61159
G1 X190.224 Y121.518 E36.63383
G1 X190.423 Y122.157 E36.65609
G1 X190.544 Y122.815 E36.67834
G1 X190.586 Y123.499 E36.70114
G1 X190.59 Y167.488 E38.16422
G1 X190.55 Y168.156 E38.18648
G1 X190.431 Y168.815 E38.20875
G1 X190.234 Y169.454 E38.23099
G1 X189.962 Y170.065 E38.25323
G1 X189.619 Y170.64 E38.2755
G1 X189.211 Y171.17 E38.29775
G1 X188.742 Y171.647 E38.32
G1 X188.219 Y172.064 E38.34224
G1 X187.65 Y172.417 E38.36452
G1 X187.044 Y172.699 E38.38675
G1 X186.408 Y172.907 E38.409
G1 X185.751 Y173.037 E38.43128
G1 X184.99 Y173.089 E38.45665
G1 X129.435 Y173.089 E40.30442
G1 X128.921 Y173.065 E40.32153
G1 X123.846 Y172.598 E40.49104
G1 X118.484 Y172.39 E40.66951
G1 X113.118 Y172.485 E40.84801
G1 X110.498 Y172.643 E40.93531
G1 X105.909 Y173.07 E41.0886
G1 X105.388 Y173.094 E41.10595
G1 X50.007 Y173.078 E42.94793
G1 X49.34 Y173.038 E42.97016
G1 X48.681 Y172.918 E42.99243
G1 X48.042 Y172.721 E43.01467
G1 X47.431 Y172.449 E43.03692
G1 X46.856 Y172.106 E43.05919
G1 X46.327 Y171.697 E43.08143
G1 X45.85 Y171.228 E43.10368
G1 X45.432 Y170.705 E43.12595
G1 X45.08 Y170.136 E43.1482
G1 X44.798 Y169.53 E43.17043
G1 X44.591 Y168.894 E43.19268
G1 X44.461 Y168.237 E43.21495
G1 X44.409 Y167.478 E43.24026
G1 X44.41 Y123.504 E44.70284
G1 X44.45 Y122.836 E44.72509
G1 X44.569 Y122.178 E44.74733
G1 X44.766 Y121.538 E44.76961
G1 X45.038 Y120.927 E44.79185
G1 X45.381 Y120.353 E44.81409
G1 X45.72 Y119.905 E44.83278
G1 X50.007 Y114.794 E45.05465
G1 X53.176 Y110.506 E45.23199
G1 X56.106 Y106.032 E45.40987
G1 X58.768 Y101.418 E45.58704
G1 X61.169 Y96.652 E45.76454
G1 X63.326 Y91.691 E45.94446
G1 X64.266 Y89.256 E46.03128
G1 X65.141 Y86.773 E46.11884
G1 X66.711 Y81.64 E46.29737
G1 X67.996 Y76.403 E46.47672
G1 X68.517 Y73.806 E46.56482
G1 X68.957 Y71.23 E46.65174
G1 X69.559 Y66.762 E46.80169
G1 X69.688 Y66.105 E46.82396
G1 X69.894 Y65.469 E46.84619
G1 X70.175 Y64.861 E46.86847
G1 X70.526 Y64.292 E46.8907
G1 X70.942 Y63.768 E46.91296
M204 S5000
M205 X30 Y30
G0 F3600 X71.319 Y63.949
M204 S500
M205 X20 Y20
G1 F1800 X71.789 Y63.507 E46.93442
G1 X72.309 Y63.127 E46.95584
G1 X72.873 Y62.814 E46.97729
G1 X73.471 Y62.574 E46.99872
G1 X74.094 Y62.409 E47.02016
G1 X74.733 Y62.323 E47.0416
G1 X75.109 Y62.309 E47.05412
G1 X159.89 Y62.31 E49.87394
G1 X160.533 Y62.35 E49.89537
G1 X161.167 Y62.469 E49.91683
G1 X161.781 Y62.666 E49.93827
G1 X162.366 Y62.937 E49.95972
G1 X162.913 Y63.279 E49.98117
G1 X163.413 Y63.685 E50.0026
G1 X163.859 Y64.151 E50.02405
G1 X164.244 Y64.667 E50.04546
G1 X164.563 Y65.228 E50.06693
G1 X164.809 Y65.824 E50.08837
G1 X164.98 Y66.445 E50.1098
G1 X165.049 Y66.854 E50.12359
G1 X165.447 Y69.983 E50.2285
G1 X166.37 Y75.341 E50.40933
G1 X166.921 Y77.896 E50.49627
G1 X167.561 Y80.5 E50.58546
G1 X169.068 Y85.666 E50.76444
G1 X170.857 Y90.722 E50.94282
G1 X172.928 Y95.666 E51.1211
G1 X175.286 Y100.505 E51.30014
G1 X177.887 Y105.157 E51.47741
G1 X180.779 Y109.703 E51.65661
G1 X183.907 Y114.056 E51.83489
G1 X187.292 Y118.245 E52.01402
G1 X188.894 Y120.07 E52.09479
G1 X189.288 Y120.58 E52.11623
G1 X189.617 Y121.134 E52.13766
G1 X189.874 Y121.726 E52.15912
G1 X190.056 Y122.344 E52.18055
G1 X190.16 Y122.98 E52.20199
G1 X190.186 Y123.5 E52.2193
G1 X190.19 Y167.489 E53.68238
G1 X190.15 Y168.132 E53.70381
G1 X190.031 Y168.766 E53.72527
G1 X189.834 Y169.379 E53.74668
G1 X189.563 Y169.964 E53.76812
G1 X189.222 Y170.511 E53.78956
G1 X188.815 Y171.012 E53.81103
G1 X188.35 Y171.458 E53.83246
G1 X187.833 Y171.843 E53.8539
G1 X187.272 Y172.161 E53.87535
G1 X186.677 Y172.408 E53.89678
G1 X186.055 Y172.579 E53.91823
G1 X185.417 Y172.671 E53.93967
G1 X184.99 Y172.689 E53.95389
G1 X129.435 Y172.689 E55.80165
G1 X128.958 Y172.667 E55.81754
G1 X123.861 Y172.198 E55.98778
G1 X118.493 Y171.99 E56.16645
G1 X113.111 Y172.085 E56.34549
G1 X110.467 Y172.244 E56.43359
G1 X105.872 Y172.672 E56.58708
G1 X105.388 Y172.694 E56.60319
G1 X50.007 Y172.678 E58.44517
G1 X49.364 Y172.638 E58.4666
G1 X48.731 Y172.518 E58.48803
G1 X48.117 Y172.321 E58.50947
G1 X47.532 Y172.05 E58.53092
G1 X46.985 Y171.708 E58.55237
G1 X46.485 Y171.302 E58.5738
G1 X46.039 Y170.836 E58.59525
G1 X45.654 Y170.319 E58.61669
G1 X45.336 Y169.759 E58.63811
G1 X45.09 Y169.163 E58.65955
G1 X44.919 Y168.541 E58.68101
G1 X44.826 Y167.903 E58.70245
G1 X44.809 Y167.478 E58.7166
G1 X44.81 Y123.504 E60.17918
G1 X44.85 Y122.86 E60.20064
G1 X44.969 Y122.227 E60.22207
G1 X45.166 Y121.613 E60.24351
G1 X45.437 Y121.028 E60.26496
G1 X45.779 Y120.481 E60.28641
G1 X46.026 Y120.162 E60.29983
G1 X50.33 Y115.031 E60.52258
G1 X53.502 Y110.737 E60.70014
G1 X56.441 Y106.25 E60.87854
G1 X59.121 Y101.606 E61.05688
G1 X61.536 Y96.813 E61.23539
G1 X63.692 Y91.855 E61.41521
G1 X64.641 Y89.396 E61.50287
G1 X65.526 Y86.882 E61.59152
G1 X67.099 Y81.743 E61.77027
G1 X68.382 Y76.508 E61.94954
G1 X68.909 Y73.887 E62.03846
G1 X69.357 Y71.266 E62.1269
G1 X69.956 Y66.815 E62.27627
G1 X70.081 Y66.183 E62.2977
G1 X70.284 Y65.571 E62.31915
G1 X70.561 Y64.988 E62.34061
G1 X70.908 Y64.445 E62.36205
G1 X71.319 Y63.949 E62.38347
M204 S5000
M205 X30 Y30
G1 F2400 E57.38347
;MESH:dupont-organizer_plate20190316-55-fhao5n.stl
G0 F3600 X74.435 Y68.109
G0 X75.709 Y68.109
G0 X159.205 Y73.905
G0 X159.295 Y73.905
M204 S500
M205 X20 Y20
;TYPE:WALL-INNER
G1 F2400 E62.38347
G1 F1800 X154.105 Y73.905 E62.55609
G1 X154.105 Y85.252 E62.9335
G1 X154.149 Y85.333 E62.93656
G1 X154.193 Y85.412 E62.93957
G1 X154.193 Y91.188 E63.13168
G1 X154.151 Y91.265 E63.1346
G1 X154.1 Y91.358 E63.13812
G1 X154.05 Y91.266 E63.1389
G1 X154.007 Y91.187 E63.13997
G1 X154.007 Y85.412 E63.22927
G1 X154.05 Y85.334 E63.23045
G1 X154.095 Y85.252 E63.23121
G1 X154.095 Y73.905 E63.24064
G1 X150.705 Y73.905 E63.35339
G1 X150.705 Y85.252 E63.7308
G1 X150.749 Y85.333 E63.73386
G1 X150.793 Y85.412 E63.73687
G1 X150.793 Y91.188 E63.92898
G1 X150.751 Y91.265 E63.9319
G1 X150.7 Y91.358 E63.93542
G1 X150.65 Y91.266 E63.9362
G1 X150.607 Y91.187 E63.93727
G1 X150.607 Y85.412 E64.02657
G1 X150.65 Y85.334 E64.02775
G1 X150.695 Y85.252 E64.02851
G1 X150.695 Y73.905 E64.03794
G1 X147.305 Y73.905 E64.15069
G1 X147.305 Y85.252 E64.5281
G1 X147.349 Y85.333 E64.53116
G1 X147.393 Y85.412 E64.53417
G1 X147.393 Y91.188 E64.72628
G1 X147.351 Y91.265 E64.7292
G1 X147.3 Y91.358 E64.73272
G1 X147.25 Y91.266 E64.7335
G1 X147.207 Y91.187 E64.73457
G1 X147.207 Y85.412 E64.82387
G1 X147.25 Y85.334 E64.82505
G1 X147.295 Y85.252 E64.82581
G1 X147.295 Y73.905 E64.83524
G1 X143.905 Y73.905 E64.94799
G1 X143.905 Y85.252 E65.3254
G1 X143.949 Y85.333 E65.32846
G1 X143.993 Y85.412 E65.33147
G1 X143.993 Y91.188 E65.52358
G1 X143.951 Y91.265 E65.5265
G1 X143.9 Y91.358 E65.53002
G1 X143.85 Y91.266 E65.5308
G1 X143.807 Y91.187 E65.53187
G1 X143.807 Y85.412 E65.62117
G1 X143.85 Y85.334 E65.62235
G1 X143.895 Y85.252 E65.62311
G1 X143.895 Y73.905 E65.63254
G1 X140.505 Y73.905 E65.74529
G1 X140.505 Y85.252 E66.1227
G1 X140.549 Y85.333 E66.12576
G1 X140.593 Y85.412 E66.12877
G1 X140.593 Y91.188 E66.32088
G1 X140.551 Y91.265 E66.3238
G1 X140.5 Y91.358 E66.32732
G1 X140.45 Y91.266 E66.3281
G1 X140.407 Y91.187 E66.32917
G1 X140.407 Y85.412 E66.41847
G1 X140.45 Y85.334 E66.41965
G1 X140.495 Y85.252 E66.42041
G1 X140.495 Y73.905 E66.42984
G1 X137.105 Y73.905 E66.54259
G1 X137.105 Y85.252 E66.92
G1 X137.149 Y85.333 E66.92306
G1 X137.193 Y85.412 E66.92607
G1 X137.193 Y91.188 E67.11818
G1 X137.151 Y91.265 E67.1211
G1 X137.1 Y91.358 E67.12462
G1 X137.05 Y91.266 E67.1254
G1 X137.007 Y91.187 E67.12647
G1 X137.007 Y85.412 E67.21577
G1 X137.05 Y85.334 E67.21695
G1 X137.095 Y85.252 E67.21771
G1 X137.095 Y73.905 E67.22714
G1 X133.705 Y73.905 E67.33989
G1 X133.705 Y85.252 E67.7173
G1 X133.749 Y85.333 E67.72036
G1 X133.793 Y85.412 E67.72337
G1 X133.793 Y91.188 E67.91548
G1 X133.751 Y91.265 E67.9184
G1 X133.7 Y91.358 E67.92192
G1 X133.65 Y91.266 E67.9227
G1 X133.607 Y91.187 E67.92377
G1 X133.607 Y85.412 E68.01307
G1 X133.65 Y85.334 E68.01425
G1 X133.695 Y85.252 E68.01501
