;FLAVOR:Marlin
;TIME:6679
;Filament used: 9.12321m
;Layer height: 0.3
;Generated with Cura_SteamEngine 3.6.0
M140 S60
M105
M190 S60
M104 S200
M105
M109 S200
M82 ;absolute extrusion mode
; Ender 3 Custom Start G-code
G28 ; Home all axes
G92 E0 ; Reset Extruder
G1 Z2.0 F3000 ; Move Z Axis up little to prevent scratching of Heat Bed
G1 X0.1 Y20 Z0.3 F5000.0 ; Move to start position
G1 X0.1 Y200.0 Z0.3 F1500.0 E15 ; Draw the first line
G1 X0.4 Y200.0 Z0.3 F5000.0 ; Move to side a little
G1 X0.4 Y20 Z0.3 F1500.0 E30 ; Draw the second line
G92 E0 ; Reset Extruder
G1 Z2.0 F3000 ; Move Z Axis up little to prevent scratching of Heat Bed
; End of custom start GCode
G92 E0
G1 F2400 E-5
;LAYER_COUNT:206
;LAYER:0
M107
M204 S5000
M205 X30 Y30
G0 F3600 X63.958 Y35.376 Z0.2
M204 S500
M205 X20 Y20
;TYPE:SKIRT
G1 F2400 E0
G1 F1800 X64.398 Y34.63 E0.02881
G1 X64.934 Y33.847 E0.06037
G1 X65.37 Y33.28 E0.08416
G1 X65.867 Y32.766 E0.10794
G1 X66.418 Y32.31 E0.13172
G1 X66.72 Y32.1 E0.14396
G1 X67.214 Y31.778 E0.16357
G1 X67.834 Y31.422 E0.18735
G1 X68.49 Y31.137 E0.21114
G1 X68.87 Y31.01 E0.22447
G1 X69.39 Y30.854 E0.24252
G1 X70.085 Y30.687 E0.2663
G1 X70.976 Y30.589 E0.29611
G1 X73.277 Y30.498 E0.3727
G1 X78.619 Y30.085 E0.55091
G1 X83.87 Y29.379 E0.72713
G1 X89.098 Y28.372 E0.90421
G1 X91.819 Y27.73 E0.99719
G1 X92.523 Y27.605 E1.02097
G1 X93.289 Y27.559 E1.0465
G1 X125.279 Y27.559 E2.11049
G1 X125.993 Y27.599 E2.13427
G1 X126.646 Y27.707 E2.15629
G1 X132.636 Y29.017 E2.36023
G1 X135.142 Y29.445 E2.44478
G1 X140.425 Y30.122 E2.62193
G1 X147.965 Y30.639 E2.8733
G1 X148.675 Y30.728 E2.8971
G1 X149.37 Y30.895 E2.92088
G1 X149.906 Y31.083 E2.93977
G1 X150.383 Y31.274 E2.95686
G1 X151.031 Y31.576 E2.98064
G1 X151.677 Y31.974 E3.00587
G1 X152.028 Y32.22 E3.02013
G1 X152.59 Y32.663 E3.04393
G1 X153.272 Y33.364 E3.07646
G1 X153.652 Y33.82 E3.0962
G1 X154.078 Y34.394 E3.11998
G1 X154.438 Y35.012 E3.14376
G1 X154.757 Y35.751 E3.17054
G1 X155.026 Y36.499 E3.19697
G1 X155.23 Y37.185 E3.22078
G1 X155.357 Y37.889 E3.24457
G1 X155.404 Y38.666 E3.27046
G1 X155.394 Y113.297 E5.7527
G1 X155.354 Y114.011 E5.77648
G1 X155.265 Y114.575 E5.79547
G1 X154.027 Y120.644 E6.00149
G1 X153.636 Y123.153 E6.08594
G1 X153.034 Y128.446 E6.26312
G1 X152.734 Y133.741 E6.43952
G1 X152.734 Y139.027 E6.61533
G1 X153.033 Y144.319 E6.79163
G1 X153.635 Y149.615 E6.96891
G1 X154.034 Y152.159 E7.05455
G1 X155.172 Y157.926 E7.25006
G1 X155.22 Y158.201 E7.25935
G1 X155.591 Y160.636 E7.34127
G1 X155.645 Y161.101 E7.35684
G1 X155.841 Y163.609 E7.44051
G1 X155.86 Y164.082 E7.45626
G1 X155.87 Y166.589 E7.53964
G1 X155.855 Y167.05 E7.55498
G1 X155.689 Y169.484 E7.63613
G1 X155.622 Y170.068 E7.65568
G1 X155.024 Y173.776 E7.7806
G1 X154.904 Y174.352 E7.80017
G1 X154.293 Y176.727 E7.88173
G1 X154.162 Y177.168 E7.89703
G1 X153.369 Y179.531 E7.97994
G1 X153.203 Y179.973 E7.99564
G1 X152.237 Y182.273 E8.07861
G1 X152.042 Y182.694 E8.09404
G1 X150.927 Y184.889 E8.17593
G1 X150.702 Y185.295 E8.19137
G1 X149.428 Y187.408 E8.27343
G1 X149.168 Y187.805 E8.28921
G1 X147.694 Y189.884 E8.37398
G1 X147.405 Y190.261 E8.38978
G1 X145.836 Y192.158 E8.47166
G1 X145.531 Y192.501 E8.48692
G1 X143.831 Y194.28 E8.56877
G1 X143.496 Y194.606 E8.58431
G1 X141.654 Y196.271 E8.6669
G1 X141.206 Y196.64 E8.6862
G1 X138.222 Y198.882 E8.81034
G1 X137.734 Y199.215 E8.82999
G1 X135.613 Y200.521 E8.91284
G1 X135.206 Y200.751 E8.92839
G1 X133.001 Y201.896 E9.01102
G1 X132.476 Y202.139 E9.03026
G1 X129.07 Y203.533 E9.15267
G1 X128.517 Y203.73 E9.17219
G1 X126.097 Y204.47 E9.25636
G1 X125.527 Y204.616 E9.27593
G1 X121.896 Y205.37 E9.39928
G1 X121.324 Y205.462 E9.41855
G1 X118.856 Y205.745 E9.50117
G1 X118.391 Y205.782 E9.51668
G1 X115.942 Y205.883 E9.59821
G1 X115.477 Y205.885 E9.61367
G1 X112.958 Y205.806 E9.6975
G1 X112.487 Y205.774 E9.7132
G1 X110.064 Y205.518 E9.79424
G1 X109.486 Y205.43 E9.81368
G1 X105.775 Y204.691 E9.93953
G1 X105.209 Y204.551 E9.95893
G1 X102.857 Y203.855 E10.04051
G1 X102.416 Y203.707 E10.05598
G1 X100.097 Y202.833 E10.13841
G1 X99.663 Y202.651 E10.15406
G1 X97.397 Y201.601 E10.23712
G1 X96.979 Y201.388 E10.25273
G1 X94.795 Y200.174 E10.33584
G1 X94.396 Y199.933 E10.35134
G1 X92.347 Y198.59 E10.43282
G1 X91.97 Y198.323 E10.44819
G1 X90.026 Y196.838 E10.52955
G1 X89.665 Y196.541 E10.5451
G1 X87.77 Y194.861 E10.62933
G1 X87.429 Y194.535 E10.64502
G1 X85.706 Y192.764 E10.7272
G1 X85.392 Y192.417 E10.74277
G1 X83.784 Y190.502 E10.82594
G1 X83.495 Y190.132 E10.84155
G1 X82.045 Y188.123 E10.92396
G1 X81.785 Y187.733 E10.93955
G1 X80.479 Y185.612 E11.0224
G1 X80.198 Y185.104 E11.0417
G1 X78.548 Y181.784 E11.16501
G1 X78.356 Y181.361 E11.18046
G1 X77.883 Y180.206 E11.22198
G1 X77.757 Y179.872 E11.23385
G1 X76.945 Y177.523 E11.31651
G1 X76.78 Y176.962 E11.33596
G1 X75.889 Y173.344 E11.45989
G1 X75.775 Y172.773 E11.47926
G1 X75.406 Y170.339 E11.56114
G1 X75.353 Y169.878 E11.57657
G1 X75.158 Y167.382 E11.65984
G1 X75.139 Y166.874 E11.67675
G1 X75.152 Y158.756 E11.94676
G1 X74.875 Y153.472 E12.12275
G1 X74.298 Y148.209 E12.29884
G1 X73.425 Y142.978 E12.47523
G1 X72.253 Y137.79 E12.65213
G1 X71.582 Y135.309 E12.73762
G1 X69.968 Y130.218 E12.91525
G1 X68.082 Y125.26 E13.09168
G1 X65.918 Y120.415 E13.26817
G1 X63.978 Y116.578 E13.41117
G1 X63.692 Y115.923 E13.43495
G1 X63.517 Y115.38 E13.45392
G1 X63.398 Y114.945 E13.46892
G1 X63.248 Y114.245 E13.49273
G1 X63.171 Y113.259 E13.52563
G1 X63.141 Y39.308 E15.98525
G1 X63.195 Y38.479 E16.01288
G1 X63.333 Y37.419 E16.04843
G1 X63.464 Y36.716 E16.07221
G1 X63.674 Y36.032 E16.09601
G1 X63.958 Y35.376 E16.11979
M204 S5000
M205 X30 Y30
G0 F3600 X64.346 Y35.496
M204 S500
M205 X20 Y20
G1 F1800 X64.728 Y34.856 E16.14458
G1 X65.264 Y34.073 E16.17614
G1 X65.687 Y33.525 E16.19916
G1 X66.171 Y33.029 E16.22221
G1 X66.939 Y32.436 E16.25449
G1 X67.433 Y32.114 E16.2741
G1 X68.034 Y31.769 E16.29715
G1 X68.985 Y31.393 E16.33116
G1 X69.505 Y31.237 E16.34922
G1 X70.179 Y31.077 E16.37226
G1 X70.991 Y30.989 E16.39942
G1 X73.298 Y30.898 E16.47621
G1 X78.649 Y30.484 E16.65472
G1 X83.93 Y29.774 E16.83195
G1 X89.192 Y28.761 E17.01018
G1 X91.911 Y28.119 E17.1031
G1 X92.593 Y28 E17.12612
G1 X93.289 Y27.959 E17.14931
G1 X125.279 Y27.959 E18.2133
G1 X125.97 Y27.999 E18.23632
G1 X126.561 Y28.098 E18.25626
G1 X132.57 Y29.412 E18.46084
G1 X135.074 Y29.84 E18.54533
G1 X140.38 Y30.52 E18.72325
G1 X147.938 Y31.038 E18.97522
G1 X148.625 Y31.125 E18.99825
G1 X149.297 Y31.291 E19.02128
G1 X149.757 Y31.454 E19.03751
G1 X150.234 Y31.645 E19.0546
G1 X150.861 Y31.939 E19.07763
G1 X151.448 Y32.302 E19.10058
G1 X151.799 Y32.548 E19.11484
G1 X152.342 Y32.977 E19.13786
G1 X152.964 Y33.62 E19.16761
G1 X153.344 Y34.076 E19.18736
G1 X153.756 Y34.633 E19.2104
G1 X154.101 Y35.233 E19.23342
G1 X154.381 Y35.887 E19.25708
G1 X154.65 Y36.635 E19.28352
G1 X154.846 Y37.299 E19.30655
G1 X154.965 Y37.981 E19.32957
G1 X155.004 Y38.666 E19.35239
G1 X154.994 Y113.297 E21.83463
G1 X154.954 Y113.988 E21.85765
G1 X154.873 Y114.495 E21.87473
G1 X153.63 Y120.589 E22.08159
G1 X153.243 Y123.069 E22.16507
G1 X152.634 Y128.432 E22.34459
G1 X152.334 Y133.718 E22.52069
G1 X152.334 Y139.05 E22.69803
G1 X152.632 Y144.334 E22.87406
G1 X153.24 Y149.676 E23.05288
G1 X153.643 Y152.245 E23.13937
G1 X154.779 Y158.003 E23.33457
G1 X154.825 Y158.261 E23.34329
G1 X155.196 Y160.696 E23.42521
G1 X155.246 Y161.133 E23.43984
G1 X155.442 Y163.641 E23.52351
G1 X155.46 Y164.084 E23.53826
G1 X155.47 Y166.591 E23.62164
G1 X155.456 Y167.023 E23.63602
G1 X155.29 Y169.457 E23.71716
G1 X155.227 Y170.004 E23.73547
G1 X154.629 Y173.712 E23.8604
G1 X154.517 Y174.252 E23.87874
G1 X153.906 Y176.627 E23.9603
G1 X153.783 Y177.041 E23.97467
G1 X152.99 Y179.404 E24.05757
G1 X152.834 Y179.818 E24.07229
G1 X151.868 Y182.118 E24.15526
G1 X151.685 Y182.512 E24.16971
G1 X150.57 Y184.707 E24.25159
G1 X150.359 Y185.088 E24.26608
G1 X149.085 Y187.201 E24.34814
G1 X148.842 Y187.573 E24.36292
G1 X147.368 Y189.652 E24.44768
G1 X147.096 Y190.006 E24.46253
G1 X145.527 Y191.903 E24.54441
G1 X145.242 Y192.224 E24.55869
G1 X143.542 Y194.003 E24.64053
G1 X143.227 Y194.309 E24.65514
G1 X141.385 Y195.974 E24.73772
G1 X140.966 Y196.32 E24.75579
G1 X137.982 Y198.562 E24.87993
G1 X137.524 Y198.874 E24.89837
G1 X135.403 Y200.18 E24.98121
G1 X135.022 Y200.396 E24.99578
G1 X132.817 Y201.541 E25.07842
G1 X132.325 Y201.769 E25.09645
G1 X128.919 Y203.163 E25.21886
G1 X128.401 Y203.348 E25.23715
G1 X125.981 Y204.088 E25.32132
G1 X125.446 Y204.225 E25.33969
G1 X121.815 Y204.979 E25.46303
G1 X121.279 Y205.065 E25.48109
G1 X118.811 Y205.348 E25.56371
G1 X118.374 Y205.382 E25.57829
G1 X115.925 Y205.483 E25.65981
G1 X115.49 Y205.485 E25.67428
G1 X112.971 Y205.406 E25.75811
G1 X112.529 Y205.376 E25.77284
G1 X110.106 Y205.12 E25.85388
G1 X109.564 Y205.037 E25.87211
G1 X105.853 Y204.298 E25.99797
G1 X105.322 Y204.167 E26.01616
G1 X102.97 Y203.471 E26.09774
G1 X102.557 Y203.332 E26.11223
G1 X100.238 Y202.458 E26.19466
G1 X99.831 Y202.288 E26.20933
G1 X97.565 Y201.238 E26.29239
G1 X97.173 Y201.038 E26.30703
G1 X94.989 Y199.824 E26.39014
G1 X94.615 Y199.598 E26.40467
G1 X92.566 Y198.255 E26.48616
G1 X92.213 Y198.005 E26.50054
G1 X90.269 Y196.52 E26.58191
G1 X89.931 Y196.242 E26.59646
G1 X88.036 Y194.562 E26.6807
G1 X87.715 Y194.256 E26.69545
G1 X85.992 Y192.485 E26.77763
G1 X85.698 Y192.159 E26.79223
G1 X84.09 Y190.244 E26.8754
G1 X83.82 Y189.897 E26.89002
G1 X82.37 Y187.888 E26.97243
G1 X82.126 Y187.523 E26.98703
G1 X80.82 Y185.402 E27.06987
G1 X80.556 Y184.926 E27.08798
G1 X78.906 Y181.606 E27.21129
G1 X78.727 Y181.21 E27.22574
G1 X78.254 Y180.055 E27.26725
G1 X78.135 Y179.741 E27.27842
G1 X77.323 Y177.392 E27.36109
G1 X77.168 Y176.867 E27.37929
G1 X76.277 Y173.249 E27.50322
G1 X76.171 Y172.713 E27.5214
G1 X75.802 Y170.279 E27.60328
G1 X75.752 Y169.847 E27.61774
G1 X75.557 Y167.351 E27.70101
G1 X75.539 Y166.875 E27.71685
G1 X75.552 Y158.754 E27.98696
G1 X75.272 Y153.424 E28.16448
G1 X74.695 Y148.153 E28.34084
G1 X73.819 Y142.908 E28.51771
G1 X72.643 Y137.7 E28.69529
G1 X71.966 Y135.197 E28.78153
G1 X70.343 Y130.075 E28.96024
G1 X68.454 Y125.111 E29.13689
G1 X66.282 Y120.25 E29.31397
G1 X64.335 Y116.398 E29.45753
G1 X64.059 Y115.763 E29.48056
G1 X63.903 Y115.274 E29.49763
G1 X63.784 Y114.839 E29.51263
G1 X63.64 Y114.162 E29.53565
G1 X63.571 Y113.258 E29.5658
G1 X63.541 Y39.307 E32.02542
G1 X63.591 Y38.53 E32.05132
G1 X63.729 Y37.47 E32.08687
G1 X63.858 Y36.79 E32.10989
G1 X64.065 Y36.129 E32.13293
G1 X64.346 Y35.496 E32.15597
M204 S5000
M205 X30 Y30
G0 F3600 X64.733 Y35.619
M204 S500
M205 X20 Y20
G1 F1800 X65.058 Y35.082 E32.17684
G1 X65.594 Y34.299 E32.2084
G1 X66.004 Y33.77 E32.23066
G1 X66.475 Y33.294 E32.25294
G1 X67.157 Y32.771 E32.28152
G1 X67.651 Y32.449 E32.30113
G1 X68.232 Y32.117 E32.32339
G1 X69.1 Y31.776 E32.35441
G1 X69.62 Y31.62 E32.37247
G1 X70.271 Y31.467 E32.39471
G1 X71.007 Y31.388 E32.41933
G1 X73.343 Y31.295 E32.49708
G1 X78.698 Y30.881 E32.67572
G1 X83.99 Y30.17 E32.85332
G1 X89.286 Y29.15 E33.0327
G1 X92.003 Y28.509 E33.12555
G1 X92.662 Y28.394 E33.1478
G1 X93.289 Y28.359 E33.16869
G1 X125.279 Y28.359 E34.23268
G1 X125.947 Y28.399 E34.25494
G1 X126.475 Y28.488 E34.27274
G1 X132.5 Y29.806 E34.47788
G1 X135.005 Y30.233 E34.56239
G1 X140.353 Y30.919 E34.74173
G1 X147.91 Y31.437 E34.99366
G1 X148.574 Y31.523 E35.01593
G1 X149.222 Y31.687 E35.03816
G1 X149.609 Y31.825 E35.05183
G1 X150.086 Y32.016 E35.06892
G1 X150.691 Y32.302 E35.09118
G1 X151.218 Y32.629 E35.11181
G1 X151.569 Y32.875 E35.12606
G1 X152.093 Y33.291 E35.14831
G1 X152.657 Y33.876 E35.17534
G1 X153.037 Y34.332 E35.19508
G1 X153.434 Y34.871 E35.21735
G1 X153.764 Y35.453 E35.2396
G1 X154.005 Y36.022 E35.26015
G1 X154.274 Y36.77 E35.28659
G1 X154.462 Y37.412 E35.30884
G1 X154.572 Y38.072 E35.3311
G1 X154.604 Y38.666 E35.35088
G1 X154.594 Y113.297 E37.83312
G1 X154.554 Y113.965 E37.85538
G1 X154.481 Y114.415 E37.87054
G1 X153.238 Y120.509 E38.0774
G1 X152.844 Y123.036 E38.16246
G1 X152.236 Y128.382 E38.34142
G1 X151.934 Y133.713 E38.51901
G1 X151.934 Y139.054 E38.69666
G1 X152.235 Y144.384 E38.87421
G1 X152.844 Y149.736 E39.05337
G1 X153.243 Y152.286 E39.13922
G1 X154.387 Y158.081 E39.33568
G1 X154.429 Y158.322 E39.34382
G1 X154.8 Y160.757 E39.42574
G1 X154.847 Y161.164 E39.43937
G1 X155.043 Y163.672 E39.52304
G1 X155.06 Y164.086 E39.53682
G1 X155.07 Y166.593 E39.6202
G1 X155.057 Y166.996 E39.63361
G1 X154.891 Y169.43 E39.71476
G1 X154.833 Y169.941 E39.73186
G1 X154.235 Y173.649 E39.85678
G1 X154.129 Y174.152 E39.87388
G1 X153.518 Y176.527 E39.95544
G1 X153.404 Y176.914 E39.96886
G1 X152.611 Y179.277 E40.05176
G1 X152.465 Y179.664 E40.06552
G1 X151.499 Y181.964 E40.14849
G1 X151.329 Y182.331 E40.16195
G1 X150.214 Y184.526 E40.24383
G1 X150.017 Y184.882 E40.25736
G1 X148.743 Y186.995 E40.33943
G1 X148.515 Y187.342 E40.35324
G1 X147.041 Y189.421 E40.438
G1 X146.788 Y189.751 E40.45183
G1 X145.219 Y191.648 E40.53371
G1 X144.953 Y191.948 E40.54705
G1 X143.253 Y193.727 E40.62889
G1 X142.959 Y194.012 E40.64251
G1 X141.117 Y195.677 E40.72509
G1 X140.726 Y196 E40.74196
G1 X137.742 Y198.242 E40.8661
G1 X137.314 Y198.534 E40.88333
G1 X135.193 Y199.84 E40.96618
G1 X134.838 Y200.041 E40.97975
G1 X132.633 Y201.186 E41.06238
G1 X132.173 Y201.399 E41.07924
G1 X128.767 Y202.793 E41.20165
G1 X128.284 Y202.965 E41.2187
G1 X125.864 Y203.705 E41.30287
G1 X125.365 Y203.833 E41.32
G1 X121.734 Y204.587 E41.44335
G1 X121.233 Y204.668 E41.46023
G1 X118.765 Y204.951 E41.54285
G1 X118.358 Y204.982 E41.55643
G1 X115.909 Y205.083 E41.63795
G1 X115.502 Y205.085 E41.65149
G1 X112.983 Y205.006 E41.73531
G1 X112.571 Y204.978 E41.74905
G1 X110.148 Y204.722 E41.83008
G1 X109.642 Y204.645 E41.84711
G1 X105.931 Y203.906 E41.97296
G1 X105.436 Y203.784 E41.98992
G1 X103.084 Y203.088 E42.0715
G1 X102.698 Y202.958 E42.08504
G1 X100.379 Y202.084 E42.16747
G1 X100 Y201.925 E42.18114
G1 X97.734 Y200.875 E42.26421
G1 X97.367 Y200.689 E42.27789
G1 X95.183 Y199.475 E42.361
G1 X94.834 Y199.264 E42.37456
G1 X92.785 Y197.921 E42.45605
G1 X92.456 Y197.687 E42.46948
G1 X90.512 Y196.202 E42.55084
G1 X90.196 Y195.942 E42.56445
G1 X88.301 Y194.262 E42.64868
G1 X88.002 Y193.977 E42.66242
G1 X86.279 Y192.206 E42.7446
G1 X86.004 Y191.902 E42.75823
G1 X84.396 Y189.987 E42.8414
G1 X84.144 Y189.663 E42.85506
G1 X82.694 Y187.654 E42.93746
G1 X82.466 Y187.313 E42.95111
G1 X81.16 Y185.192 E43.03395
G1 X80.914 Y184.748 E43.05083
G1 X79.264 Y181.428 E43.17414
G1 X79.097 Y181.058 E43.18764
G1 X78.624 Y179.903 E43.22916
G1 X78.513 Y179.611 E43.23955
G1 X77.701 Y177.262 E43.32221
G1 X77.556 Y176.771 E43.33924
G1 X76.665 Y173.153 E43.46317
G1 X76.566 Y172.653 E43.48012
G1 X76.197 Y170.219 E43.562
G1 X76.151 Y169.816 E43.57549
G1 X75.956 Y167.32 E43.65876
G1 X75.939 Y166.875 E43.67358
G1 X75.952 Y158.734 E43.94435
G1 X75.673 Y153.413 E44.12157
G1 X75.089 Y148.081 E44.29997
G1 X74.211 Y142.823 E44.47727
G1 X73.036 Y137.621 E44.65465
G1 X72.346 Y135.068 E44.74261
G1 X70.725 Y129.955 E44.92101
G1 X68.826 Y124.963 E45.09865
G1 X66.643 Y120.076 E45.27668
G1 X64.692 Y116.218 E45.42047
G1 X64.427 Y115.604 E45.44271
G1 X64.288 Y115.169 E45.4579
G1 X64.169 Y114.734 E45.4729
G1 X64.032 Y114.079 E45.49516
G1 X63.971 Y113.258 E45.52254
G1 X63.941 Y39.307 E47.98216
G1 X63.988 Y38.582 E48.00632
G1 X64.126 Y37.522 E48.04188
G1 X64.252 Y36.865 E48.06413
G1 X64.455 Y36.228 E48.08636
G1 X64.733 Y35.619 E48.10863
M204 S5000
M205 X30 Y30
G0 F3600 X65.12 Y35.745
M204 S500
M205 X20 Y20
G1 F1800 X65.388 Y35.308 E48.12568
G1 X65.924 Y34.525 E48.15724
G1 X66.321 Y34.016 E48.17871
G1 X66.777 Y33.561 E48.20013
G1 X67.375 Y33.106 E48.22513
G1 X67.869 Y32.784 E48.24474
G1 X68.43 Y32.466 E48.26619
G1 X69.215 Y32.159 E48.29422
G1 X69.735 Y32.003 E48.31228
G1 X70.363 Y31.857 E48.33372
G1 X71.023 Y31.788 E48.35579
G1 X73.337 Y31.696 E48.43282
G1 X78.748 Y31.278 E48.61333
G1 X84.062 Y30.564 E48.79166
G1 X89.361 Y29.543 E48.97115
G1 X92.095 Y28.898 E49.06458
G1 X92.73 Y28.789 E49.086
G1 X93.289 Y28.759 E49.10462
G1 X125.279 Y28.759 E50.16862
G1 X125.922 Y28.799 E50.19004
G1 X126.39 Y28.879 E50.20583
