;FLAVOR:Marlin
;TIME:2762
;Filament used: 2.15616m
;Layer height: 0.2
;Generated with Cura_SteamEngine 4.0.0
M140 S60
M105
M190 S60
M104 S200
M105
M109 S200
M82 ;absolute extrusion mode
; Ender 3 Custom Start G-code
G28 ; Home all axes
G92 E0 ; Reset Extruder
G1 Z2.0 F3000 ; Move Z Axis up little to prevent scratching of Heat Bed
G1 X0.1 Y20 Z0.3 F5000.0 ; Move to start position
G1 X0.1 Y200.0 Z0.3 F1500.0 E15 ; Draw the first line
G1 X0.4 Y200.0 Z0.3 F5000.0 ; Move to side a little
G1 X0.4 Y20 Z0.3 F1500.0 E30 ; Draw the second line
G92 E0 ; Reset Extruder
G1 Z2.0 F3000 ; Move Z Axis up little to prevent scratching of Heat Bed
; End of custom start GCode
G92 E0
G1 F2400 E-5
;LAYER_COUNT:81
;LAYER:0
M107
M204 S5000
M205 X30 Y30
G0 F3600 X71.088 Y40.109 Z0.2
M204 S500
M205 X20 Y20
;TYPE:SKIRT
G1 F2400 E0
G1 F1800 X71.501 Y39.525 E0.02379
G1 X71.977 Y38.991 E0.04758
G1 X72.509 Y38.513 E0.07137
G1 X73.092 Y38.098 E0.09517
G1 X73.717 Y37.751 E0.11895
G1 X74.377 Y37.475 E0.14274
G1 X75.064 Y37.275 E0.16654
G1 X75.768 Y37.152 E0.19031
G1 X76.511 Y37.109 E0.21506
G1 X86.496 Y37.11 E0.54717
G1 X87.21 Y37.15 E0.57095
G1 X88.05 Y37.302 E0.59934
G1 X95.077 Y39.063 E0.84029
G1 X100.264 Y40.014 E1.01569
G1 X105.515 Y40.672 E1.1917
G1 X110.787 Y41.032 E1.36746
G1 X116.092 Y41.094 E1.54391
G1 X121.389 Y40.856 E1.72027
G1 X126.646 Y40.32 E1.89603
G1 X131.915 Y39.48 E2.07349
G1 X134.453 Y38.965 E2.15962
G1 X137.005 Y38.37 E2.24678
G1 X142.135 Y36.944 E2.42387
G1 X147.926 Y34.958 E2.62749
G1 X148.614 Y34.764 E2.65127
G1 X149.32 Y34.648 E2.67506
G1 X150.017 Y34.612 E2.69828
G1 X153.006 Y34.619 E2.79769
G1 X153.72 Y34.661 E2.82148
G1 X154.425 Y34.782 E2.84527
G1 X155.112 Y34.981 E2.86906
G1 X155.773 Y35.255 E2.89286
G1 X156.398 Y35.601 E2.91662
G1 X156.982 Y36.015 E2.94043
G1 X157.515 Y36.492 E2.96422
G1 X157.992 Y37.025 E2.98801
G1 X158.406 Y37.608 E3.01179
G1 X158.753 Y38.234 E3.0356
G1 X159.028 Y38.894 E3.05938
G1 X159.227 Y39.581 E3.08317
G1 X159.349 Y40.286 E3.10697
G1 X159.386 Y40.756 E3.12265
G1 X159.516 Y43.913 E3.22774
G1 X159.973 Y49.236 E3.40543
G1 X160.724 Y54.467 E3.5812
G1 X161.772 Y59.674 E3.75786
G1 X162.391 Y62.193 E3.84413
G1 X163.882 Y67.306 E4.02128
G1 X165.651 Y72.3 E4.19749
G1 X167.694 Y77.174 E4.37326
G1 X170.021 Y81.951 E4.55
G1 X172.6 Y86.56 E4.72566
G1 X175.441 Y91.026 E4.90171
G1 X178.537 Y95.336 E5.07821
G1 X181.85 Y99.433 E5.25345
G1 X185.727 Y103.701 E5.44523
G1 X186.178 Y104.257 E5.46904
G1 X186.563 Y104.859 E5.49281
G1 X186.88 Y105.501 E5.51663
G1 X187.122 Y106.173 E5.54038
G1 X187.288 Y106.869 E5.56418
G1 X187.376 Y107.579 E5.58798
G1 X187.39 Y108.005 E5.60215
G1 X187.39 Y127.995 E6.26702
G1 X187.35 Y128.709 E6.29081
G1 X187.231 Y129.414 E6.31459
G1 X187.033 Y130.102 E6.3384
G1 X186.76 Y130.763 E6.36218
G1 X186.416 Y131.39 E6.38597
G1 X186.003 Y131.974 E6.40976
G1 X185.759 Y132.263 E6.42234
G1 X180.96 Y137.625 E6.66168
G1 X177.708 Y141.767 E6.83683
G1 X174.676 Y146.113 E7.01308
G1 X171.898 Y150.622 E7.18923
G1 X169.38 Y155.275 E7.36519
G1 X167.127 Y160.071 E7.54143
G1 X165.13 Y165.027 E7.71915
G1 X164.28 Y167.436 E7.80412
G1 X162.718 Y172.523 E7.98111
G1 X161.438 Y177.727 E8.15935
G1 X160.931 Y180.244 E8.24475
G1 X160.103 Y185.5 E8.42172
G1 X159.573 Y190.791 E8.59858
G1 X159.382 Y194.319 E8.71609
G1 X159.303 Y195.03 E8.73989
G1 X159.146 Y195.728 E8.76368
G1 X158.912 Y196.404 E8.78747
G1 X158.604 Y197.049 E8.81125
G1 X158.226 Y197.656 E8.83503
G1 X157.782 Y198.217 E8.85883
G1 X157.279 Y198.726 E8.88263
G1 X156.722 Y199.174 E8.9064
G1 X156.118 Y199.558 E8.93021
G1 X155.475 Y199.872 E8.95401
G1 X154.802 Y200.113 E8.97778
G1 X154.105 Y200.276 E9.00159
G1 X153.395 Y200.361 E9.02538
G1 X153.025 Y200.374 E9.03769
G1 X150.043 Y200.39 E9.13687
G1 X149.329 Y200.354 E9.16065
G1 X148.623 Y200.238 E9.18445
G1 X147.935 Y200.044 E9.20822
G1 X147.272 Y199.775 E9.23202
G1 X146.644 Y199.434 E9.25579
G1 X146.057 Y199.024 E9.2796
G1 X145.52 Y198.552 E9.30338
G1 X145.039 Y198.022 E9.32719
G1 X144.62 Y197.443 E9.35096
G1 X144.269 Y196.82 E9.37474
G1 X143.903 Y195.907 E9.40746
G1 X141.884 Y189.475 E9.63168
G1 X139.995 Y184.547 E9.80721
G1 X137.83 Y179.73 E9.98287
G1 X135.382 Y175.017 E10.1595
G1 X132.68 Y170.462 E10.33565
G1 X129.728 Y166.074 E10.51155
G1 X126.536 Y161.866 E10.68722
G1 X123.093 Y157.822 E10.86387
G1 X119.446 Y153.999 E11.0396
G1 X115.547 Y150.348 E11.21726
G1 X113.597 Y148.673 E11.30276
G1 X109.406 Y145.371 E11.48022
G1 X105.081 Y142.342 E11.65584
G1 X100.579 Y139.556 E11.83193
G1 X95.918 Y137.022 E12.00839
G1 X91.141 Y134.766 E12.1841
G1 X86.166 Y132.751 E12.36262
G1 X83.766 Y131.898 E12.44734
G1 X78.687 Y130.328 E12.62415
G1 X73.496 Y129.04 E12.80204
G1 X70.963 Y128.525 E12.88801
G1 X65.721 Y127.688 E13.06457
G1 X60.467 Y127.151 E13.24023
G1 X53.755 Y126.884 E13.46365
G1 X53.043 Y126.816 E13.48744
G1 X52.343 Y126.668 E13.51124
G1 X51.664 Y126.444 E13.53502
G1 X51.014 Y126.145 E13.55881
G1 X50.401 Y125.775 E13.58263
G1 X49.834 Y125.34 E13.6064
G1 X49.319 Y124.844 E13.63018
G1 X48.862 Y124.293 E13.65399
G1 X48.47 Y123.695 E13.67777
G1 X48.147 Y123.057 E13.70155
G1 X47.897 Y122.387 E13.72534
G1 X47.723 Y121.693 E13.74914
G1 X47.628 Y120.984 E13.77293
G1 X47.609 Y120.487 E13.78947
G1 X47.61 Y116.502 E13.92201
G1 X47.65 Y115.788 E13.9458
G1 X47.77 Y115.083 E13.96958
G1 X47.967 Y114.396 E13.99335
G1 X48.24 Y113.735 E14.01714
G1 X48.585 Y113.108 E14.04094
G1 X49 Y112.521 E14.06485
G1 X50.168 Y111.052 E14.12727
G1 X53.342 Y106.753 E14.30501
G1 X56.242 Y102.32 E14.4812
G1 X58.876 Y97.75 E14.65664
G1 X61.265 Y93.003 E14.83339
G1 X63.37 Y88.16 E15.00903
G1 X65.201 Y83.192 E15.18513
G1 X66.754 Y78.108 E15.36193
G1 X68.021 Y72.93 E15.53924
G1 X68.523 Y70.416 E15.6245
G1 X69.346 Y65.154 E15.80165
G1 X69.87 Y59.842 E15.97918
G1 X70.015 Y57.269 E16.06489
G1 X70.1 Y53.223 E16.1995
G1 X70.11 Y43.502 E16.52282
G1 X70.151 Y42.788 E16.5466
G1 X70.271 Y42.083 E16.57039
G1 X70.469 Y41.396 E16.59417
G1 X70.742 Y40.735 E16.61796
G1 X71.088 Y40.109 E16.64175
M204 S5000
M205 X30 Y30
G0 F3600 X71.486 Y40.229
M204 S500
M205 X20 Y20
G1 F1800 X71.898 Y39.672 E16.66479
G1 X72.371 Y39.166 E16.68783
G1 X72.899 Y38.718 E16.71086
G1 X73.475 Y38.333 E16.7339
G1 X74.091 Y38.018 E16.75691
G1 X74.74 Y37.776 E16.77995
G1 X75.413 Y37.61 E16.803
G1 X76.1 Y37.523 E16.82604
G1 X76.511 Y37.509 E16.83971
G1 X86.496 Y37.51 E17.17182
G1 X87.187 Y37.55 E17.19484
G1 X87.953 Y37.69 E17.22074
G1 X94.987 Y39.452 E17.46192
G1 X100.214 Y40.411 E17.63867
G1 X105.473 Y41.07 E17.81495
G1 X110.772 Y41.432 E17.99161
G1 X116.105 Y41.494 E18.169
G1 X121.412 Y41.256 E18.34569
G1 X126.698 Y40.717 E18.52241
G1 X131.988 Y39.873 E18.70058
G1 X134.518 Y39.36 E18.78644
G1 X137.106 Y38.757 E18.87483
G1 X142.256 Y37.325 E19.05261
G1 X148.056 Y35.336 E19.25655
G1 X148.723 Y35.15 E19.27958
G1 X149.407 Y35.042 E19.30261
G1 X150.016 Y35.012 E19.32289
G1 X153.005 Y35.019 E19.42231
G1 X153.696 Y35.061 E19.44533
G1 X154.378 Y35.182 E19.46837
G1 X155.042 Y35.38 E19.49142
G1 X155.678 Y35.654 E19.51445
G1 X156.278 Y35.999 E19.53747
G1 X156.835 Y36.412 E19.56053
G1 X157.34 Y36.885 E19.58355
G1 X157.787 Y37.414 E19.60658
G1 X158.171 Y37.991 E19.62963
G1 X158.485 Y38.608 E19.65266
G1 X158.726 Y39.257 E19.67569
G1 X158.891 Y39.929 E19.6987
G1 X158.986 Y40.772 E19.72692
G1 X159.117 Y43.941 E19.83241
G1 X159.575 Y49.275 E20.01047
G1 X160.329 Y54.531 E20.18708
G1 X161.378 Y59.743 E20.3639
G1 X162.007 Y62.303 E20.45158
G1 X163.5 Y67.425 E20.62903
G1 X165.28 Y72.452 E20.8064
G1 X167.33 Y77.34 E20.98269
G1 X169.662 Y82.128 E21.15983
G1 X172.256 Y86.764 E21.33652
G1 X175.111 Y91.253 E21.51346
G1 X178.217 Y95.575 E21.69048
G1 X181.549 Y99.698 E21.8668
G1 X185.431 Y103.97 E22.05879
G1 X185.866 Y104.509 E22.08182
G1 X186.237 Y105.094 E22.10486
G1 X186.537 Y105.718 E22.12789
G1 X186.764 Y106.372 E22.15092
G1 X186.913 Y107.049 E22.17397
G1 X186.99 Y108.005 E22.20587
G1 X186.99 Y127.995 E22.87074
G1 X186.95 Y128.686 E22.89376
G1 X186.831 Y129.369 E22.91682
G1 X186.633 Y130.032 E22.93984
G1 X186.361 Y130.669 E22.96287
G1 X186.017 Y131.27 E22.98591
G1 X185.461 Y131.997 E23.01635
G1 X180.645 Y137.378 E23.25653
G1 X177.389 Y141.525 E23.4319
G1 X174.343 Y145.892 E23.60899
G1 X171.551 Y150.423 E23.786
G1 X169.024 Y155.094 E23.96264
G1 X166.761 Y159.909 E24.13959
G1 X164.754 Y164.892 E24.31826
G1 X163.905 Y167.297 E24.40309
G1 X162.327 Y172.436 E24.58189
G1 X161.051 Y177.622 E24.75952
G1 X160.538 Y180.172 E24.84604
G1 X159.706 Y185.452 E25.02382
G1 X159.172 Y190.772 E25.20165
G1 X158.982 Y194.298 E25.31909
G1 X158.905 Y194.986 E25.34212
G1 X158.749 Y195.661 E25.36516
G1 X158.516 Y196.313 E25.38819
G1 X158.21 Y196.934 E25.41122
G1 X157.834 Y197.516 E25.43426
G1 X157.394 Y198.05 E25.45728
G1 X156.895 Y198.53 E25.48031
G1 X156.344 Y198.95 E25.50335
G1 X155.748 Y199.303 E25.52639
G1 X155.116 Y199.585 E25.54941
G1 X154.455 Y199.793 E25.57245
G1 X153.775 Y199.923 E25.59548
G1 X153.023 Y199.974 E25.62055
G1 X150.041 Y199.99 E25.71973
G1 X149.35 Y199.954 E25.74275
G1 X148.667 Y199.838 E25.76579
G1 X148.002 Y199.644 E25.78883
G1 X147.364 Y199.375 E25.81186
G1 X146.761 Y199.035 E25.83488
G1 X146.201 Y198.627 E25.85793
G1 X145.692 Y198.157 E25.88097
G1 X145.241 Y197.632 E25.90399
G1 X144.853 Y197.058 E25.92703
G1 X144.534 Y196.444 E25.95005
G1 X144.284 Y195.787 E25.97343
G1 X142.261 Y189.343 E26.19807
G1 X140.366 Y184.397 E26.37423
G1 X138.185 Y179.547 E26.55111
G1 X135.731 Y174.821 E26.72822
G1 X133.018 Y170.248 E26.90507
G1 X130.063 Y165.856 E27.08114
G1 X126.835 Y161.6 E27.2588
G1 X123.396 Y157.561 E27.43524
G1 X119.718 Y153.704 E27.6125
G1 X115.821 Y150.057 E27.79002
G1 X113.849 Y148.363 E27.87649
G1 X109.657 Y145.06 E28.05399
G1 X105.295 Y142.005 E28.23112
G1 X100.767 Y139.202 E28.40824
G1 X96.101 Y136.665 E28.58489
G1 X91.298 Y134.397 E28.76155
G1 X86.318 Y132.38 E28.94026
G1 X83.892 Y131.518 E29.02589
G1 X78.785 Y129.939 E29.20368
G1 X73.598 Y128.652 E29.38143
G1 X71.036 Y128.131 E29.46839
G1 X65.771 Y127.291 E29.64572
G1 X60.491 Y126.751 E29.82225
G1 X53.771 Y126.484 E30.04593
G1 X53.081 Y126.417 E30.06899
G1 X52.404 Y126.27 E30.09203
G1 X51.749 Y126.047 E30.11504
G1 X51.123 Y125.75 E30.13809
G1 X50.537 Y125.382 E30.1611
G1 X49.996 Y124.949 E30.18415
G1 X49.509 Y124.457 E30.20718
G1 X49.081 Y123.912 E30.23023
G1 X48.72 Y123.322 E30.25323
G1 X48.429 Y122.693 E30.27628
G1 X48.212 Y122.035 E30.29933
G1 X48.072 Y121.357 E30.32235
G1 X48.009 Y120.487 E30.35136
G1 X48.01 Y116.502 E30.48391
G1 X48.05 Y115.811 E30.50693
G1 X48.17 Y115.129 E30.52996
G1 X48.367 Y114.465 E30.553
G1 X48.64 Y113.829 E30.57602
G1 X48.984 Y113.228 E30.59905
G1 X49.313 Y112.77 E30.6178
G1 X50.479 Y111.303 E30.68013
G1 X53.677 Y106.973 E30.85917
G1 X56.573 Y102.546 E31.03512
G1 X59.241 Y97.915 E31.21288
G1 X61.625 Y93.178 E31.38926
G1 X63.736 Y88.321 E31.5654
G1 X65.585 Y83.305 E31.74321
G1 X67.135 Y78.232 E31.91964
G1 X68.418 Y72.99 E32.09913
G1 X68.913 Y70.506 E32.18338
G1 X69.743 Y65.204 E32.36187
G1 X70.269 Y59.879 E32.53984
G1 X70.415 Y57.272 E32.62669
G1 X70.5 Y53.231 E32.76112
G1 X70.51 Y43.503 E33.08468
G1 X70.551 Y42.812 E33.1077
G1 X70.671 Y42.129 E33.13076
G1 X70.869 Y41.466 E33.15378
G1 X71.142 Y40.829 E33.17683
G1 X71.486 Y40.229 E33.19983
M204 S5000
M205 X30 Y30
G0 F3600 X71.884 Y40.353
M204 S500
M205 X20 Y20
G1 F1800 X72.293 Y39.824 E33.22207
G1 X72.763 Y39.347 E33.24434
G1 X73.286 Y38.93 E33.26659
G1 X73.855 Y38.578 E33.28884
G1 X74.462 Y38.297 E33.31109
G1 X75.098 Y38.09 E33.33334
G1 X75.755 Y37.96 E33.35561
G1 X76.511 Y37.909 E33.38082
G1 X86.496 Y37.91 E33.71292
G1 X87.163 Y37.95 E33.73514
G1 X87.856 Y38.078 E33.75858
G1 X94.911 Y39.846 E34.00049
G1 X100.146 Y40.805 E34.1775
G1 X105.431 Y41.468 E34.35466
G1 X110.758 Y41.832 E34.53225
G1 X116.118 Y41.894 E34.71054
G1 X121.436 Y41.655 E34.88759
G1 X126.748 Y41.114 E35.06518
G1 X132.062 Y40.267 E35.24416
G1 X134.617 Y39.748 E35.33087
G1 X137.207 Y39.145 E35.41932
G1 X142.371 Y37.709 E35.59759
G1 X148.185 Y35.715 E35.80202
G1 X148.83 Y35.536 E35.82429
G1 X149.491 Y35.435 E35.84653
G1 X150.015 Y35.412 E35.86397
G1 X153.004 Y35.419 E35.96339
G1 X153.672 Y35.461 E35.98565
G1 X154.33 Y35.581 E36.0079
G1 X154.969 Y35.78 E36.03016
G1 X155.579 Y36.053 E36.05238
G1 X156.153 Y36.397 E36.07464
G1 X156.682 Y36.807 E36.0969
G1 X157.158 Y37.278 E36.11917
G1 X157.574 Y37.801 E36.1414
G1 X157.925 Y38.371 E36.16367
G1 X158.206 Y38.978 E36.18591
G1 X158.412 Y39.615 E36.20818
G1 X158.541 Y40.271 E36.23042
G1 X158.586 Y40.789 E36.24771
G1 X158.717 Y43.97 E36.3536
G1 X159.176 Y49.313 E36.53196
G1 X159.933 Y54.592 E36.70934
G1 X160.994 Y59.861 E36.88811
G1 X161.618 Y62.397 E36.97497
G1 X163.12 Y67.549 E37.15346
G1 X164.908 Y72.598 E37.33161
G1 X166.968 Y77.513 E37.50886
G1 X169.3 Y82.299 E37.68593
G1 X171.915 Y86.973 E37.86407
G1 X174.778 Y91.475 E38.04152
G1 X177.902 Y95.823 E38.21959
G1 X181.242 Y99.954 E38.39628
G1 X185.135 Y104.239 E38.58883
G1 X185.554 Y104.76 E38.61107
G1 X185.909 Y105.328 E38.63335
G1 X186.193 Y105.934 E38.65561
G1 X186.403 Y106.569 E38.67785
G1 X186.535 Y107.225 E38.70011
G1 X186.59 Y108.005 E38.72612
G1 X186.59 Y127.995 E39.39099
G1 X186.55 Y128.663 E39.41324
G1 X186.431 Y129.321 E39.43548
G1 X186.234 Y129.961 E39.45776
G1 X185.962 Y130.572 E39.48
G1 X185.619 Y131.146 E39.50224
G1 X185.163 Y131.73 E39.52689
G1 X180.344 Y137.114 E39.76721
G1 X177.062 Y141.294 E39.94397
G1 X174.012 Y145.667 E40.1213
G1 X171.201 Y150.228 E40.2995
G1 X168.667 Y154.912 E40.47662
G1 X166.392 Y159.753 E40.65453
G1 X164.383 Y164.742 E40.83341
G1 X163.519 Y167.188 E40.91969
G1 X161.946 Y172.313 E41.098
G1 X160.659 Y177.544 E41.27717
G1 X160.144 Y180.1 E41.36389
G1 X159.308 Y185.403 E41.54245
G1 X158.774 Y190.732 E41.72058
G1 X158.583 Y194.276 E41.83863
G1 X158.507 Y194.941 E41.86089
G1 X158.352 Y195.592 E41.88315
G1 X158.121 Y196.219 E41.90537
G1 X157.817 Y196.815 E41.92762
G1 X157.443 Y197.37 E41.94988
G1 X157.007 Y197.877 E41.97212
G1 X156.512 Y198.328 E41.9944
G1 X155.968 Y198.717 E42.01664
G1 X155.381 Y199.038 E42.03889
G1 X154.76 Y199.287 E42.06115
G1 X154.114 Y199.46 E42.08339
G1 X153.452 Y199.555 E42.10563
G1 X153.021 Y199.574 E42.11998
G1 X150.039 Y199.59 E42.21916
G1 X149.371 Y199.554 E42.24141
G1 X148.712 Y199.438 E42.26367
G1 X148.072 Y199.244 E42.28591
G1 X147.459 Y198.976 E42.30816
G1 X146.883 Y198.636 E42.33041
G1 X146.351 Y198.23 E42.35267
G1 X145.871 Y197.763 E42.37494
G1 X145.451 Y197.243 E42.39718
G1 X145.095 Y196.676 E42.41944
G1 X144.81 Y196.071 E42.44169
G1 X144.666 Y195.667 E42.45595
G1 X142.639 Y189.211 E42.68101
G1 X140.737 Y184.248 E42.85779
G1 X138.545 Y179.37 E43.03566
G1 X136.084 Y174.632 E43.21324
G1 X133.356 Y170.035 E43.39103
G1 X130.384 Y165.616 E43.56816
G1 X127.151 Y161.354 E43.74608
G1 X123.69 Y157.289 E43.92365
G1 X120.007 Y153.428 E44.10112
G1 X116.085 Y149.756 E44.27982
G1 X114.111 Y148.06 E44.36638
G1 X109.88 Y144.727 E44.54552
G1 X105.522 Y141.674 E44.7225
G1 X100.976 Y138.861 E44.9003
G1 X96.284 Y136.31 E45.07793
G1 X91.447 Y134.026 E45.25585
G1 X86.462 Y132.007 E45.43473
G1 X84.025 Y131.141 E45.52075
G1 X78.89 Y129.553 E45.69952
G1 X73.687 Y128.262 E45.87782
G1 X71.105 Y127.737 E45.96546
G1 X65.821 Y126.894 E46.14343
G1 X60.533 Y126.353 E46.32023
G1 X53.786 Y126.085 E46.54481
G1 X53.121 Y126.018 E46.56704
G1 X52.468 Y125.873 E46.58929
G1 X51.837 Y125.65 E46.61155
G1 X51.237 Y125.355 E46.63378
G1 X50.676 Y124.989 E46.65606
G1 X50.163 Y124.56 E46.6783
G1 X49.705 Y124.072 E46.70056
G1 X49.309 Y123.533 E46.72281
G1 X48.979 Y122.951 E46.74506
G1 X48.721 Y122.333 E46.76734
G1 X48.539 Y121.69 E46.78956
G1 X48.435 Y121.029 E46.81182
G1 X48.409 Y120.488 E46.82983
G1 X48.41 Y116.503 E46.96237
G1 X48.45 Y115.835 E46.98463
G1 X48.57 Y115.176 E47.00691
G1 X48.767 Y114.537 E47.02915
G1 X49.039 Y113.926 E47.0514
G1 X49.382 Y113.351 E47.07366
G1 X49.626 Y113.019 E47.08737
G1 X50.794 Y111.55 E47.14979
G1 X54.004 Y107.203 E47.32952
G1 X56.921 Y102.743 E47.50677
G1 X59.587 Y98.116 E47.68438
G1 X61.989 Y93.345 E47.86204
G1 X64.111 Y88.461 E48.03915
G1 X65.958 Y83.449 E48.21681
G1 X67.525 Y78.322 E48.39512
G1 X68.805 Y73.094 E48.57414
