;FLAVOR:Marlin
;TIME:4316
;Filament used: 6.8744m
;Layer height: 0.3
;Generated with Cura_SteamEngine 3.6.0
M140 S60
M105
M190 S60
M104 S200
M105
M109 S200
M82 ;absolute extrusion mode
; Ender 3 Custom Start G-code
G28 ; Home all axes
G92 E0 ; Reset Extruder
G1 Z2.0 F3000 ; Move Z Axis up little to prevent scratching of Heat Bed
G1 X0.1 Y20 Z0.3 F5000.0 ; Move to start position
G1 X0.1 Y200.0 Z0.3 F1500.0 E15 ; Draw the first line
G1 X0.4 Y200.0 Z0.3 F5000.0 ; Move to side a little
G1 X0.4 Y20 Z0.3 F1500.0 E30 ; Draw the second line
G92 E0 ; Reset Extruder
G1 Z2.0 F3000 ; Move Z Axis up little to prevent scratching of Heat Bed
; End of custom start GCode
G92 E0
G1 F2400 E-5
;LAYER_COUNT:101
;LAYER:0
M107
M204 S5000
M205 X30 Y30
G0 F3600 X40.361 Y94.085 Z0.2
M204 S500
M205 X20 Y20
;TYPE:SKIRT
G1 F2400 E0
G1 F1800 X41.023 Y93.814 E0.02379
G1 X41.711 Y93.619 E0.04758
G1 X42.417 Y93.502 E0.07138
G1 X43.108 Y93.464 E0.0944
G1 X52.163 Y93.46 E0.39557
G1 X52.877 Y93.5 E0.41935
G1 X53.583 Y93.619 E0.44316
G1 X54.27 Y93.816 E0.46693
G1 X54.931 Y94.088 E0.49071
G1 X55.558 Y94.433 E0.51451
G1 X56.256 Y94.937 E0.54315
G1 X60.516 Y98.476 E0.72735
G1 X64.749 Y101.605 E0.90243
G1 X69.198 Y104.521 E1.07935
G1 X73.761 Y107.153 E1.25456
G1 X78.508 Y109.547 E1.43138
G1 X83.324 Y111.643 E1.60608
G1 X88.324 Y113.49 E1.78336
G1 X93.396 Y115.043 E1.95979
G1 X98.59 Y116.318 E2.13767
G1 X101.081 Y116.816 E2.22216
G1 X106.334 Y117.641 E2.39902
G1 X111.63 Y118.168 E2.57603
G1 X116.911 Y118.393 E2.75184
G1 X122.196 Y118.32 E2.92764
G1 X127.488 Y117.945 E3.10409
G1 X132.732 Y117.275 E3.27992
G1 X137.976 Y116.301 E3.45732
G1 X140.461 Y115.731 E3.54212
G1 X145.613 Y114.312 E3.71986
G1 X150.642 Y112.618 E3.89636
G1 X155.547 Y110.649 E4.07215
G1 X160.359 Y108.394 E4.2489
G1 X165 Y105.889 E4.42431
G1 X169.515 Y103.114 E4.60058
G1 X173.858 Y100.09 E4.77659
G1 X178.058 Y96.801 E4.95402
G1 X180.159 Y95.006 E5.04593
G1 X180.728 Y94.573 E5.06971
G1 X181.342 Y94.205 E5.09352
G1 X181.993 Y93.909 E5.11731
G1 X182.673 Y93.687 E5.1411
G1 X183.373 Y93.542 E5.16488
G1 X184.307 Y93.472 E5.19603
G1 X191.876 Y93.46 E5.44777
G1 X192.59 Y93.499 E5.47156
G1 X193.295 Y93.617 E5.49533
G1 X193.983 Y93.813 E5.51913
G1 X194.645 Y94.085 E5.54293
G1 X195.272 Y94.429 E5.56672
G1 X195.857 Y94.841 E5.59052
G1 X196.392 Y95.315 E5.61429
G1 X196.871 Y95.846 E5.63807
G1 X197.288 Y96.428 E5.66189
G1 X197.637 Y97.052 E5.68567
G1 X197.915 Y97.711 E5.70946
G1 X198.117 Y98.397 E5.73324
G1 X198.241 Y99.102 E5.75705
G1 X198.286 Y99.816 E5.78084
G1 X198.253 Y100.514 E5.80409
G1 X197.901 Y103.942 E5.9187
G1 X197.788 Y104.648 E5.94248
G1 X197.645 Y105.188 E5.96106
G1 X196.597 Y108.558 E6.07844
G1 X196.347 Y109.229 E6.10226
G1 X196.156 Y109.627 E6.11694
G1 X194.355 Y113.066 E6.24606
G1 X193.794 Y113.952 E6.28094
G1 X191.337 Y117.208 E6.41661
G1 X190.773 Y117.859 E6.44525
G1 X188.157 Y120.498 E6.56885
G1 X187.846 Y120.791 E6.58306
G1 X186.692 Y121.809 E6.63424
G1 X186.386 Y122.063 E6.64747
G1 X182.975 Y124.715 E6.79117
G1 X182.485 Y125.06 E6.8111
G1 X178.468 Y127.618 E6.9695
G1 X178 Y127.889 E6.98749
G1 X173.075 Y130.469 E7.17241
G1 X172.638 Y130.677 E7.1885
G1 X167.481 Y132.9 E7.37528
G1 X167.086 Y133.055 E7.3894
G1 X161.041 Y135.198 E7.60272
G1 X160.633 Y135.328 E7.61696
G1 X153.611 Y137.299 E7.85954
G1 X153.252 Y137.388 E7.87184
G1 X146.746 Y138.815 E8.09337
G1 X146.433 Y138.876 E8.10398
G1 X139.975 Y139.959 E8.32177
G1 X139.651 Y140.005 E8.33266
G1 X132.135 Y140.873 E8.5843
G1 X131.837 Y140.9 E8.59425
G1 X124.974 Y141.369 E8.82305
G1 X124.67 Y141.383 E8.83317
G1 X117.18 Y141.538 E9.08234
G1 X116.887 Y141.537 E9.09209
G1 X109.794 Y141.358 E9.32808
G1 X109.488 Y141.343 E9.33827
G1 X102.038 Y140.798 E9.58672
G1 X101.736 Y140.769 E9.59681
G1 X94.898 Y139.941 E9.8259
G1 X94.569 Y139.892 E9.83697
G1 X87.279 Y138.622 E10.08308
G1 X86.939 Y138.553 E10.09462
G1 X80.305 Y137.023 E10.32106
G1 X79.983 Y136.94 E10.33212
G1 X74.504 Y135.373 E10.52166
G1 X74.156 Y135.263 E10.5338
G1 X68.876 Y133.421 E10.71979
G1 X68.485 Y133.27 E10.73373
G1 X62.335 Y130.662 E10.95592
G1 X61.865 Y130.44 E10.97321
G1 X57.05 Y127.919 E11.15398
G1 X56.572 Y127.641 E11.17237
G1 X52.202 Y124.847 E11.34488
G1 X51.679 Y124.475 E11.36623
G1 X47.954 Y121.529 E11.52419
G1 X47.397 Y121.033 E11.54899
G1 X44.267 Y117.901 E11.69627
G1 X43.687 Y117.235 E11.72564
G1 X41.204 Y113.948 E11.86265
G1 X40.653 Y113.081 E11.89682
G1 X38.883 Y109.732 E12.02281
G1 X38.584 Y109.081 E12.04663
G1 X38.43 Y108.643 E12.06208
G1 X37.355 Y105.189 E12.18239
G1 X37.181 Y104.495 E12.20619
G1 X37.1 Y103.947 E12.22461
G1 X36.745 Y100.524 E12.33907
G1 X36.711 Y99.81 E12.36285
G1 X36.757 Y99.096 E12.38665
G1 X36.883 Y98.392 E12.41043
G1 X37.086 Y97.706 E12.43423
G1 X37.364 Y97.047 E12.45802
G1 X37.714 Y96.423 E12.48181
G1 X38.132 Y95.843 E12.50559
G1 X38.612 Y95.312 E12.5294
G1 X39.148 Y94.839 E12.55317
G1 X39.733 Y94.428 E12.57695
G1 X40.361 Y94.085 E12.60075
M204 S5000
M205 X30 Y30
G0 F3600 X40.754 Y94.347
M204 S500
M205 X20 Y20
G1 F1800 X41.405 Y94.112 E12.62377
G1 X42.079 Y93.953 E12.64681
G1 X43.108 Y93.864 E12.68116
G1 X52.163 Y93.86 E12.98233
G1 X52.855 Y93.9 E13.00538
G1 X53.537 Y94.019 E13.02841
G1 X54.201 Y94.216 E13.05145
G1 X54.838 Y94.488 E13.07448
G1 X55.439 Y94.831 E13.0975
G1 X56 Y95.245 E13.12069
G1 X60.248 Y98.774 E13.30437
G1 X64.538 Y101.946 E13.48183
G1 X68.972 Y104.851 E13.65813
G1 X73.581 Y107.511 E13.83513
G1 X78.332 Y109.906 E14.01209
G1 X83.198 Y112.023 E14.18859
G1 X88.189 Y113.867 E14.36556
G1 X93.276 Y115.425 E14.54251
G1 X98.503 Y116.709 E14.72153
G1 X101.015 Y117.21 E14.80672
G1 X106.286 Y118.038 E14.98419
G1 X111.59 Y118.566 E15.16147
G1 X116.917 Y118.793 E15.33881
G1 X122.212 Y118.719 E15.51494
G1 X127.512 Y118.345 E15.69165
G1 X132.804 Y117.668 E15.8691
G1 X138.064 Y116.691 E16.04704
G1 X140.543 Y116.123 E16.13163
G1 X145.742 Y114.691 E16.31099
G1 X150.777 Y112.995 E16.4877
G1 X155.723 Y111.009 E16.66497
G1 X160.518 Y108.762 E16.84109
G1 X165.207 Y106.232 E17.0183
G1 X169.739 Y103.445 E17.19526
G1 X174.097 Y100.412 E17.37186
G1 X178.306 Y97.115 E17.54968
G1 X180.419 Y95.31 E17.64211
G1 X180.971 Y94.892 E17.66514
G1 X181.567 Y94.539 E17.68818
G1 X182.2 Y94.258 E17.71122
G1 X182.861 Y94.051 E17.73426
G1 X183.541 Y93.922 E17.75728
G1 X184.307 Y93.872 E17.78281
G1 X191.876 Y93.86 E18.03455
G1 X192.568 Y93.899 E18.05761
G1 X193.25 Y94.017 E18.08063
G1 X193.914 Y94.213 E18.10365
G1 X194.552 Y94.485 E18.12672
G1 X195.153 Y94.828 E18.14974
G1 X195.711 Y95.238 E18.17277
G1 X196.219 Y95.709 E18.19581
G1 X196.668 Y96.236 E18.21884
G1 X197.054 Y96.811 E18.24187
G1 X197.371 Y97.427 E18.26491
G1 X197.614 Y98.075 E18.28793
G1 X197.782 Y98.747 E18.31097
G1 X197.871 Y99.434 E18.33401
G1 X197.88 Y100.126 E18.35703
G1 X197.855 Y100.473 E18.3686
G1 X197.503 Y103.901 E18.48321
G1 X197.392 Y104.585 E18.50626
G1 X197.263 Y105.07 E18.52295
G1 X196.215 Y108.44 E18.64034
G1 X195.972 Y109.088 E18.66335
G1 X195.801 Y109.442 E18.67643
G1 X194 Y112.881 E18.80555
G1 X193.474 Y113.711 E18.83823
G1 X191.017 Y116.967 E18.9739
G1 X190.489 Y117.577 E19.00073
G1 X187.873 Y120.216 E19.12432
G1 X187.581 Y120.491 E19.13766
G1 X186.427 Y121.509 E19.18885
G1 X186.141 Y121.747 E19.20122
G1 X182.73 Y124.399 E19.34493
G1 X182.27 Y124.723 E19.36364
G1 X178.253 Y127.281 E19.52203
G1 X177.814 Y127.535 E19.5389
G1 X172.889 Y130.115 E19.72383
G1 X172.48 Y130.31 E19.7389
G1 X167.323 Y132.533 E19.92568
G1 X166.953 Y132.678 E19.93889
G1 X160.908 Y134.821 E20.15221
G1 X160.524 Y134.943 E20.16561
G1 X153.502 Y136.914 E20.40819
G1 X153.166 Y136.998 E20.41971
G1 X146.66 Y138.425 E20.64124
G1 X146.367 Y138.481 E20.65117
G1 X139.909 Y139.564 E20.86896
G1 X139.605 Y139.607 E20.87917
G1 X132.089 Y140.475 E21.13082
G1 X131.81 Y140.501 E21.14014
G1 X124.947 Y140.97 E21.36893
G1 X124.662 Y140.983 E21.37842
G1 X117.172 Y141.138 E21.62759
G1 X116.897 Y141.137 E21.63674
G1 X109.804 Y140.958 E21.87273
G1 X109.517 Y140.944 E21.88229
G1 X102.067 Y140.399 E22.13074
G1 X101.784 Y140.371 E22.14019
G1 X94.946 Y139.543 E22.36929
G1 X94.637 Y139.498 E22.37967
G1 X87.347 Y138.228 E22.62579
G1 X87.029 Y138.164 E22.63658
G1 X80.395 Y136.634 E22.86302
G1 X80.093 Y136.556 E22.8734
G1 X74.614 Y134.989 E23.06293
G1 X74.288 Y134.885 E23.07432
G1 X69.008 Y133.043 E23.26031
G1 X68.642 Y132.902 E23.27335
G1 X62.492 Y130.294 E23.49554
G1 X62.051 Y130.086 E23.51175
G1 X57.236 Y127.565 E23.69252
G1 X56.787 Y127.304 E23.7098
G1 X52.417 Y124.51 E23.88231
G1 X51.927 Y124.161 E23.90232
G1 X48.202 Y121.215 E24.06028
G1 X47.68 Y120.75 E24.08353
G1 X44.55 Y117.618 E24.2308
G1 X44.006 Y116.994 E24.25834
G1 X41.523 Y113.707 E24.39535
G1 X41.006 Y112.894 E24.42739
G1 X39.236 Y109.545 E24.55338
G1 X38.949 Y108.915 E24.57641
G1 X38.812 Y108.524 E24.59019
G1 X37.737 Y105.07 E24.7105
G1 X37.57 Y104.398 E24.73353
G1 X37.498 Y103.906 E24.75007
G1 X37.143 Y100.483 E24.86453
G1 X37.111 Y99.791 E24.88757
G1 X37.16 Y99.1 E24.91061
G1 X37.287 Y98.42 E24.93362
G1 X37.493 Y97.758 E24.95668
G1 X37.773 Y97.125 E24.9797
G1 X38.124 Y96.528 E25.00274
G1 X38.542 Y95.976 E25.02577
G1 X39.02 Y95.475 E25.0488
G1 X39.553 Y95.033 E25.07183
G1 X40.133 Y94.655 E25.09485
G1 X40.754 Y94.347 E25.11791
M204 S5000
M205 X30 Y30
G0 F3600 X40.531 Y94.894
M204 S500
M205 X20 Y20
G1 F1800 X41.143 Y94.621 E25.1402
G1 X41.782 Y94.424 E25.16244
G1 X42.44 Y94.304 E25.18468
G1 X43.109 Y94.264 E25.20698
G1 X52.164 Y94.26 E25.50815
G1 X52.831 Y94.3 E25.53037
G1 X53.49 Y94.419 E25.55264
G1 X54.129 Y94.615 E25.57487
G1 X54.741 Y94.887 E25.59715
G1 X55.315 Y95.229 E25.61937
G1 X55.745 Y95.553 E25.63728
G1 X60.009 Y99.095 E25.82165
G1 X64.302 Y102.269 E25.99922
G1 X68.758 Y105.189 E26.17641
G1 X73.408 Y107.872 E26.35497
G1 X78.15 Y110.263 E26.53161
G1 X83.048 Y112.394 E26.70927
G1 X88.055 Y114.244 E26.8868
G1 X93.185 Y115.815 E27.06525
G1 X98.399 Y117.095 E27.24382
G1 X100.948 Y117.604 E27.33027
G1 X106.256 Y118.438 E27.50898
G1 X111.551 Y118.965 E27.68596
G1 X116.906 Y119.194 E27.86423
G1 X122.228 Y119.119 E28.04126
G1 X127.557 Y118.742 E28.21895
G1 X132.856 Y118.065 E28.39663
G1 X138.158 Y117.08 E28.57599
G1 X140.642 Y116.51 E28.66075
G1 X145.855 Y115.075 E28.84059
G1 X150.911 Y113.371 E29.01805
G1 X155.878 Y111.377 E29.19606
G1 X160.706 Y109.116 E29.37338
G1 X165.414 Y106.575 E29.55132
G1 X169.952 Y103.785 E29.7285
G1 X174.329 Y100.737 E29.9059
G1 X178.58 Y97.409 E30.08546
G1 X180.679 Y95.615 E30.1773
G1 X181.213 Y95.211 E30.19957
G1 X181.791 Y94.874 E30.22183
G1 X182.405 Y94.609 E30.24407
G1 X183.046 Y94.418 E30.26631
G1 X183.706 Y94.305 E30.28858
G1 X184.308 Y94.272 E30.30864
G1 X191.877 Y94.26 E30.56038
G1 X192.545 Y94.299 E30.58264
G1 X193.204 Y94.417 E30.60491
G1 X193.843 Y94.613 E30.62714
G1 X194.455 Y94.884 E30.6494
G1 X195.03 Y95.226 E30.67165
G1 X195.56 Y95.634 E30.6939
G1 X196.038 Y96.102 E30.71615
G1 X196.457 Y96.624 E30.73841
G1 X196.81 Y97.192 E30.76065
G1 X197.093 Y97.799 E30.78293
G1 X197.301 Y98.434 E30.80515
G1 X197.433 Y99.09 E30.82741
G1 X197.485 Y99.757 E30.84966
G1 X197.457 Y100.432 E30.87213
G1 X197.105 Y103.86 E30.98674
G1 X196.997 Y104.52 E31.00899
G1 X196.881 Y104.951 E31.02383
G1 X195.833 Y108.321 E31.14121
G1 X195.597 Y108.947 E31.16347
G1 X195.447 Y109.256 E31.17489
G1 X193.646 Y112.695 E31.30401
G1 X193.155 Y113.47 E31.33452
G1 X190.698 Y116.726 E31.47019
G1 X190.205 Y117.295 E31.49523
G1 X187.589 Y119.934 E31.61882
G1 X187.317 Y120.192 E31.63129
G1 X186.163 Y121.21 E31.68247
G1 X185.895 Y121.431 E31.69403
G1 X182.484 Y124.083 E31.83773
G1 X182.055 Y124.386 E31.8552
G1 X178.038 Y126.944 E32.0136
G1 X177.629 Y127.181 E32.02932
G1 X172.704 Y129.761 E32.21424
G1 X172.322 Y129.943 E32.22831
G1 X167.165 Y132.166 E32.41509
G1 X166.819 Y132.301 E32.42745
G1 X160.774 Y134.444 E32.64076
G1 X160.416 Y134.558 E32.65326
G1 X153.394 Y136.529 E32.89584
G1 X153.081 Y136.607 E32.90657
G1 X146.575 Y138.034 E33.1281
G1 X146.301 Y138.087 E33.13738
G1 X139.843 Y139.17 E33.35518
G1 X139.559 Y139.21 E33.36472
G1 X132.043 Y140.078 E33.61636
G1 X131.783 Y140.102 E33.62505
G1 X124.92 Y140.571 E33.85384
G1 X124.654 Y140.583 E33.8627
G1 X117.164 Y140.738 E34.11187
G1 X116.907 Y140.737 E34.12042
G1 X109.814 Y140.558 E34.35641
G1 X109.546 Y140.545 E34.36533
G1 X102.096 Y140 E34.61378
G1 X101.832 Y139.974 E34.62261
G1 X94.994 Y139.146 E34.8517
G1 X94.706 Y139.104 E34.86138
G1 X87.416 Y137.834 E35.1075
G1 X87.119 Y137.774 E35.11758
G1 X80.485 Y136.244 E35.34402
G1 X80.203 Y136.171 E35.3537
G1 X74.724 Y134.604 E35.54324
G1 X74.419 Y134.507 E35.55389
G1 X69.139 Y132.665 E35.73988
G1 X68.798 Y132.534 E35.75203
G1 X62.648 Y129.926 E35.97421
G1 X62.236 Y129.731 E35.98937
G1 X57.421 Y127.21 E36.17014
G1 X57.002 Y126.967 E36.18625
G1 X52.632 Y124.173 E36.35877
G1 X52.175 Y123.847 E36.37744
G1 X48.45 Y120.901 E36.5354
G1 X47.963 Y120.468 E36.55707
G1 X44.833 Y117.336 E36.70435
G1 X44.326 Y116.752 E36.73007
G1 X41.843 Y113.465 E36.86708
G1 X41.36 Y112.707 E36.89697
G1 X39.59 Y109.358 E37.02296
G1 X39.313 Y108.749 E37.04522
G1 X39.194 Y108.405 E37.05732
G1 X38.119 Y104.951 E37.17764
G1 X37.959 Y104.302 E37.19987
G1 X37.896 Y103.865 E37.21455
G1 X37.541 Y100.442 E37.32902
G1 X37.512 Y99.773 E37.35129
G1 X37.563 Y99.106 E37.37354
G1 X37.692 Y98.45 E37.39577
G1 X37.9 Y97.814 E37.41803
G1 X38.181 Y97.207 E37.44028
G1 X38.534 Y96.638 E37.46255
G1 X38.951 Y96.115 E37.48479
G1 X39.428 Y95.646 E37.50704
G1 X39.957 Y95.237 E37.52928
G1 X40.531 Y94.894 E37.55152
M204 S5000
M205 X30 Y30
G0 F3600 X40.926 Y95.145
M204 S500
M205 X20 Y20
G1 F1800 X41.527 Y94.911 E37.57298
G1 X42.152 Y94.753 E37.59442
G1 X43.109 Y94.664 E37.62638
G1 X52.164 Y94.66 E37.92755
G1 X52.807 Y94.7 E37.94898
G1 X53.441 Y94.819 E37.97044
G1 X54.055 Y95.015 E37.99187
G1 X54.64 Y95.286 E38.01332
G1 X55.187 Y95.627 E38.03476
G1 X55.489 Y95.86 E38.04744
G1 X59.76 Y99.409 E38.23214
G1 X64.083 Y102.604 E38.41093
G1 X68.552 Y105.533 E38.58865
G1 X73.206 Y108.218 E38.76736
G1 X77.989 Y110.629 E38.94551
G1 X82.886 Y112.761 E39.12315
G1 X87.941 Y114.628 E39.30238
G1 X93.066 Y116.197 E39.48065
G1 X98.338 Y117.492 E39.66121
G1 X100.853 Y117.994 E39.74651
G1 X106.206 Y118.835 E39.92673
G1 X111.53 Y119.365 E40.10468
G1 X116.895 Y119.594 E40.28329
G1 X122.244 Y119.519 E40.46121
G1 X127.601 Y119.14 E40.63983
G1 X132.909 Y118.462 E40.81781
G1 X138.246 Y117.47 E40.99836
G1 X140.752 Y116.896 E41.08387
G1 X145.963 Y115.461 E41.26364
G1 X151.046 Y113.748 E41.44204
G1 X156.039 Y111.743 E41.621
G1 X160.887 Y109.472 E41.79906
G1 X165.6 Y106.929 E41.97718
G1 X170.176 Y104.115 E42.15585
G1 X174.579 Y101.05 E42.33429
G1 X178.828 Y97.722 E42.5138
G1 X180.939 Y95.919 E42.60613
G1 X181.454 Y95.531 E42.62758
G1 X182.013 Y95.21 E42.64902
G1 X182.608 Y94.961 E42.67047
G1 X183.229 Y94.787 E42.69192
G1 X183.866 Y94.692 E42.71334
G1 X184.309 Y94.672 E42.72809
G1 X191.878 Y94.66 E42.97984
G1 X192.521 Y94.699 E43.00126
G1 X193.155 Y94.817 E43.02271
G1 X193.769 Y95.013 E43.04415
G1 X194.354 Y95.283 E43.06558
G1 X194.902 Y95.624 E43.08705
G1 X195.403 Y96.03 E43.10849
G1 X195.85 Y96.494 E43.12992
G1 X196.236 Y97.011 E43.15138
G1 X196.555 Y97.571 E43.17282
G1 X196.802 Y98.166 E43.19425
G1 X196.974 Y98.787 E43.21568
G1 X197.068 Y99.425 E43.23713
G1 X197.059 Y100.391 E43.26926
G1 X196.707 Y103.819 E43.38387
G1 X196.601 Y104.455 E43.40532
G1 X196.499 Y104.832 E43.41831
G1 X195.451 Y108.202 E43.53569
G1 X195.093 Y109.07 E43.56692
G1 X193.292 Y112.509 E43.69604
G1 X192.836 Y113.229 E43.72438
G1 X190.379 Y116.485 E43.86005
G1 X189.921 Y117.014 E43.88332
G1 X187.305 Y119.653 E44.00691
G1 X187.052 Y119.892 E44.01849
G1 X185.898 Y120.91 E44.06967
G1 X185.65 Y121.115 E44.08037
G1 X182.239 Y123.767 E44.22408
G1 X181.84 Y124.048 E44.24031
G1 X177.823 Y126.606 E44.39871
G1 X177.443 Y126.826 E44.41331
G1 X172.518 Y129.406 E44.59823
G1 X172.163 Y129.575 E44.61131
G1 X167.006 Y131.798 E44.79809
G1 X166.685 Y131.924 E44.80956
G1 X160.64 Y134.067 E45.02288
G1 X160.308 Y134.173 E45.03447
G1 X153.286 Y136.144 E45.27705
G1 X152.995 Y136.216 E45.28702
G1 X146.489 Y137.643 E45.50855
G1 X146.235 Y137.692 E45.51715
G1 X139.777 Y138.775 E45.73495
