;FLAVOR:Marlin
;TIME:4471
;Filament used: 6.91441m
;Layer height: 0.3
;Generated with Cura_SteamEngine 3.6.0
M140 S60
M105
M190 S60
M104 S200
M105
M109 S200
M82 ;absolute extrusion mode
; Ender 3 Custom Start G-code
G28 ; Home all axes
G92 E0 ; Reset Extruder
G1 Z2.0 F3000 ; Move Z Axis up little to prevent scratching of Heat Bed
G1 X0.1 Y20 Z0.3 F5000.0 ; Move to start position
G1 X0.1 Y200.0 Z0.3 F1500.0 E15 ; Draw the first line
G1 X0.4 Y200.0 Z0.3 F5000.0 ; Move to side a little
G1 X0.4 Y20 Z0.3 F1500.0 E30 ; Draw the second line
G92 E0 ; Reset Extruder
G1 Z2.0 F3000 ; Move Z Axis up little to prevent scratching of Heat Bed
; End of custom start GCode
G92 E0
G1 F2400 E-5
;LAYER_COUNT:101
;LAYER:0
M107
M204 S5000
M205 X30 Y30
G0 F3600 X40.36 Y94.085 Z0.2
M204 S500
M205 X20 Y20
;TYPE:SKIRT
G1 F2400 E0
G1 F1800 X41.022 Y93.814 E0.02379
G1 X41.71 Y93.619 E0.04758
G1 X42.416 Y93.502 E0.07138
G1 X43.108 Y93.464 E0.09443
G1 X52.163 Y93.46 E0.3956
G1 X52.877 Y93.5 E0.41938
G1 X53.583 Y93.619 E0.4432
G1 X54.27 Y93.816 E0.46697
G1 X54.931 Y94.088 E0.49074
G1 X55.558 Y94.433 E0.51454
G1 X56.256 Y94.937 E0.54318
G1 X60.516 Y98.476 E0.72738
G1 X64.749 Y101.605 E0.90246
G1 X69.198 Y104.521 E1.07939
G1 X73.761 Y107.153 E1.25459
G1 X78.508 Y109.547 E1.43142
G1 X83.324 Y111.643 E1.60611
G1 X88.324 Y113.49 E1.7834
G1 X93.396 Y115.043 E1.95982
G1 X98.59 Y116.318 E2.1377
G1 X101.081 Y116.816 E2.22219
G1 X106.334 Y117.641 E2.39905
G1 X111.63 Y118.168 E2.57607
G1 X116.911 Y118.393 E2.75187
G1 X122.196 Y118.32 E2.92767
G1 X127.488 Y117.945 E3.10412
G1 X132.732 Y117.275 E3.27996
G1 X137.976 Y116.301 E3.45736
G1 X140.461 Y115.731 E3.54215
G1 X145.613 Y114.312 E3.71989
G1 X150.642 Y112.618 E3.89639
G1 X155.547 Y110.649 E4.07219
G1 X160.359 Y108.394 E4.24894
G1 X165 Y105.889 E4.42435
G1 X169.515 Y103.114 E4.60061
G1 X173.858 Y100.09 E4.77663
G1 X178.058 Y96.801 E4.95406
G1 X180.159 Y95.006 E5.04597
G1 X180.728 Y94.573 E5.06975
G1 X181.342 Y94.205 E5.09356
G1 X181.993 Y93.909 E5.11734
G1 X182.673 Y93.687 E5.14113
G1 X183.373 Y93.542 E5.16491
G1 X184.307 Y93.472 E5.19606
G1 X191.876 Y93.46 E5.44781
G1 X192.59 Y93.499 E5.47159
G1 X193.295 Y93.617 E5.49537
G1 X193.983 Y93.813 E5.51916
G1 X194.645 Y94.085 E5.54296
G1 X195.272 Y94.429 E5.56675
G1 X195.857 Y94.841 E5.59055
G1 X196.392 Y95.315 E5.61432
G1 X196.871 Y95.846 E5.63811
G1 X197.288 Y96.428 E5.66192
G1 X197.637 Y97.052 E5.6857
G1 X197.915 Y97.711 E5.70949
G1 X198.117 Y98.397 E5.73327
G1 X198.241 Y99.102 E5.75708
G1 X198.286 Y99.816 E5.78088
G1 X198.252 Y100.515 E5.80415
G1 X197.899 Y103.947 E5.9189
G1 X197.787 Y104.653 E5.94268
G1 X197.644 Y105.193 E5.96126
G1 X196.597 Y108.559 E6.0785
G1 X196.347 Y109.229 E6.10229
G1 X196.156 Y109.627 E6.11697
G1 X194.355 Y113.066 E6.24609
G1 X193.793 Y113.953 E6.28101
G1 X191.331 Y117.215 E6.41694
G1 X190.757 Y117.876 E6.44606
G1 X187.681 Y120.963 E6.591
G1 X187.095 Y121.483 E6.61706
G1 X182.976 Y124.711 E6.79112
G1 X182.464 Y125.073 E6.81197
G1 X178.441 Y127.633 E6.97057
G1 X177.975 Y127.903 E6.98849
G1 X173.112 Y130.451 E7.17109
G1 X172.679 Y130.658 E7.18705
G1 X167.497 Y132.895 E7.37478
G1 X167.1 Y133.051 E7.38896
G1 X161.1 Y135.18 E7.60072
G1 X160.692 Y135.309 E7.61495
G1 X153.629 Y137.295 E7.85897
G1 X153.268 Y137.385 E7.87135
G1 X146.751 Y138.814 E8.09326
G1 X146.439 Y138.875 E8.10383
G1 X139.96 Y139.962 E8.32233
G1 X139.641 Y140.007 E8.33305
G1 X132.312 Y140.86 E8.57846
G1 X132.009 Y140.888 E8.58858
G1 X124.968 Y141.37 E8.82331
G1 X124.664 Y141.384 E8.83343
G1 X117.187 Y141.539 E9.08217
G1 X116.892 Y141.538 E9.09198
G1 X109.786 Y141.358 E9.32841
G1 X109.481 Y141.343 E9.33856
G1 X102.057 Y140.8 E9.58615
G1 X101.756 Y140.771 E9.5962
G1 X94.946 Y139.948 E9.82435
G1 X94.62 Y139.9 E9.83531
G1 X87.355 Y138.639 E10.08056
G1 X87.014 Y138.57 E10.09213
G1 X80.366 Y137.041 E10.31902
G1 X80.04 Y136.957 E10.33021
G1 X74.498 Y135.371 E10.52194
G1 X74.145 Y135.259 E10.53426
G1 X68.485 Y133.278 E10.73371
G1 X68.074 Y133.118 E10.74838
G1 X62.133 Y130.567 E10.96342
G1 X61.63 Y130.324 E10.982
G1 X56.307 Y127.465 E11.18297
G1 X55.845 Y127.192 E11.20082
G1 X51.923 Y124.641 E11.35643
G1 X51.434 Y124.289 E11.37647
G1 X47.939 Y121.515 E11.52488
G1 X47.39 Y121.025 E11.54935
G1 X44.244 Y117.876 E11.6974
G1 X43.635 Y117.171 E11.72839
G1 X41.056 Y113.701 E11.87218
G1 X40.527 Y112.858 E11.90529
G1 X38.903 Y109.765 E12.02148
G1 X38.606 Y109.114 E12.04528
G1 X38.466 Y108.716 E12.05931
G1 X37.365 Y105.228 E12.18096
G1 X37.188 Y104.535 E12.20475
G1 X37.102 Y103.963 E12.22399
G1 X36.745 Y100.525 E12.33895
G1 X36.711 Y99.811 E12.36273
G1 X36.757 Y99.097 E12.38653
G1 X36.882 Y98.393 E12.41031
G1 X37.086 Y97.707 E12.43411
G1 X37.364 Y97.048 E12.4579
G1 X37.714 Y96.424 E12.4817
G1 X38.132 Y95.843 E12.5055
G1 X38.611 Y95.313 E12.52926
G1 X39.147 Y94.839 E12.55306
G1 X39.733 Y94.428 E12.57687
G1 X40.36 Y94.085 E12.60064
M204 S5000
M205 X30 Y30
G0 F3600 X40.753 Y94.347
M204 S500
M205 X20 Y20
G1 F1800 X41.404 Y94.112 E12.62366
G1 X42.078 Y93.954 E12.64668
G1 X43.108 Y93.864 E12.68107
G1 X52.163 Y93.86 E12.98224
G1 X52.855 Y93.9 E13.0053
G1 X53.537 Y94.019 E13.02832
G1 X54.201 Y94.216 E13.05136
G1 X54.838 Y94.488 E13.0744
G1 X55.439 Y94.831 E13.09741
G1 X56 Y95.245 E13.1206
G1 X60.248 Y98.774 E13.30428
G1 X64.538 Y101.946 E13.48174
G1 X68.972 Y104.851 E13.65805
G1 X73.581 Y107.511 E13.83504
G1 X78.332 Y109.906 E14.012
G1 X83.198 Y112.023 E14.1885
G1 X88.189 Y113.867 E14.36547
G1 X93.276 Y115.425 E14.54242
G1 X98.503 Y116.709 E14.72144
G1 X101.015 Y117.21 E14.80663
G1 X106.286 Y118.038 E14.9841
G1 X111.59 Y118.566 E15.16138
G1 X116.917 Y118.793 E15.33872
G1 X122.212 Y118.719 E15.51485
G1 X127.512 Y118.345 E15.69157
G1 X132.804 Y117.668 E15.86901
G1 X138.064 Y116.691 E16.04695
G1 X140.543 Y116.123 E16.13154
G1 X145.742 Y114.691 E16.3109
G1 X150.777 Y112.995 E16.48761
G1 X155.723 Y111.009 E16.66488
G1 X160.518 Y108.762 E16.84101
G1 X165.207 Y106.232 E17.01822
G1 X169.739 Y103.445 E17.19517
G1 X174.097 Y100.412 E17.37177
G1 X178.306 Y97.115 E17.5496
G1 X180.419 Y95.31 E17.64203
G1 X180.971 Y94.892 E17.66506
G1 X181.567 Y94.539 E17.6881
G1 X182.2 Y94.258 E17.71113
G1 X182.861 Y94.051 E17.73417
G1 X183.541 Y93.922 E17.75719
G1 X184.307 Y93.872 E17.78272
G1 X191.876 Y93.86 E18.03447
G1 X192.568 Y93.899 E18.05752
G1 X193.25 Y94.017 E18.08054
G1 X193.914 Y94.213 E18.10357
G1 X194.552 Y94.485 E18.12663
G1 X195.153 Y94.828 E18.14965
G1 X195.711 Y95.238 E18.17268
G1 X196.219 Y95.709 E18.19572
G1 X196.668 Y96.236 E18.21875
G1 X197.054 Y96.811 E18.24178
G1 X197.371 Y97.427 E18.26482
G1 X197.614 Y98.075 E18.28784
G1 X197.782 Y98.747 E18.31088
G1 X197.871 Y99.434 E18.33392
G1 X197.88 Y100.126 E18.35694
G1 X197.855 Y100.474 E18.36854
G1 X197.502 Y103.906 E18.4833
G1 X197.391 Y104.59 E18.50634
G1 X197.262 Y105.074 E18.523
G1 X196.215 Y108.44 E18.64025
G1 X195.972 Y109.088 E18.66327
G1 X195.801 Y109.442 E18.67634
G1 X194 Y112.881 E18.80546
G1 X193.474 Y113.712 E18.83817
G1 X191.012 Y116.974 E18.9741
G1 X190.473 Y117.594 E19.00142
G1 X187.397 Y120.681 E19.14637
G1 X186.848 Y121.169 E19.1708
G1 X182.729 Y124.397 E19.34485
G1 X182.249 Y124.736 E19.3644
G1 X178.226 Y127.296 E19.523
G1 X177.79 Y127.549 E19.53976
G1 X172.927 Y130.097 E19.72237
G1 X172.52 Y130.291 E19.73736
G1 X167.338 Y132.528 E19.92509
G1 X166.966 Y132.674 E19.93838
G1 X160.966 Y134.803 E20.15013
G1 X160.584 Y134.924 E20.16346
G1 X153.521 Y136.91 E20.40749
G1 X153.182 Y136.995 E20.41911
G1 X146.665 Y138.424 E20.64102
G1 X146.373 Y138.48 E20.65091
G1 X139.894 Y139.567 E20.86941
G1 X139.595 Y139.61 E20.87946
G1 X132.266 Y140.463 E21.12487
G1 X131.982 Y140.489 E21.13435
G1 X124.941 Y140.971 E21.36908
G1 X124.655 Y140.984 E21.37861
G1 X117.178 Y141.139 E21.62735
G1 X116.902 Y141.138 E21.63653
G1 X109.796 Y140.958 E21.87295
G1 X109.51 Y140.944 E21.88247
G1 X102.086 Y140.401 E22.13005
G1 X101.804 Y140.374 E22.13948
G1 X94.994 Y139.551 E22.36763
G1 X94.688 Y139.506 E22.37791
G1 X87.423 Y138.245 E22.62316
G1 X87.104 Y138.18 E22.63399
G1 X80.456 Y136.651 E22.86087
G1 X80.15 Y136.572 E22.87139
G1 X74.608 Y134.986 E23.06311
G1 X74.277 Y134.881 E23.07466
G1 X68.617 Y132.9 E23.27411
G1 X68.232 Y132.75 E23.28786
G1 X62.291 Y130.199 E23.5029
G1 X61.819 Y129.972 E23.52032
G1 X56.496 Y127.113 E23.72128
G1 X56.064 Y126.857 E23.73799
G1 X52.142 Y124.306 E23.8936
G1 X51.683 Y123.976 E23.9124
G1 X48.188 Y121.202 E24.06081
G1 X47.673 Y120.743 E24.08375
G1 X44.527 Y117.594 E24.2318
G1 X43.956 Y116.932 E24.26088
G1 X41.377 Y113.462 E24.40468
G1 X40.881 Y112.672 E24.4357
G1 X39.257 Y109.579 E24.5519
G1 X38.971 Y108.949 E24.57491
G1 X38.847 Y108.596 E24.58735
G1 X37.746 Y105.108 E24.70901
G1 X37.576 Y104.437 E24.73203
G1 X37.5 Y103.922 E24.74934
G1 X37.143 Y100.484 E24.86431
G1 X37.111 Y99.792 E24.88735
G1 X37.16 Y99.101 E24.91039
G1 X37.287 Y98.42 E24.93343
G1 X37.492 Y97.759 E24.95645
G1 X37.772 Y97.126 E24.97947
G1 X38.124 Y96.529 E25.00252
G1 X38.541 Y95.976 E25.02555
G1 X39.02 Y95.475 E25.04861
G1 X39.552 Y95.033 E25.07161
G1 X40.133 Y94.655 E25.09467
G1 X40.753 Y94.347 E25.11769
M204 S5000
M205 X30 Y30
G0 F3600 X40.531 Y94.894
M204 S500
M205 X20 Y20
G1 F1800 X41.142 Y94.622 E25.13994
G1 X41.781 Y94.424 E25.16219
G1 X42.439 Y94.304 E25.18443
G1 X43.109 Y94.264 E25.20676
G1 X52.164 Y94.26 E25.50793
G1 X52.831 Y94.3 E25.53015
G1 X53.49 Y94.419 E25.55242
G1 X54.129 Y94.615 E25.57466
G1 X54.741 Y94.887 E25.59693
G1 X55.315 Y95.229 E25.61915
G1 X55.745 Y95.553 E25.63706
G1 X60.009 Y99.095 E25.82143
G1 X64.302 Y102.269 E25.999
G1 X68.758 Y105.189 E26.1762
G1 X73.408 Y107.872 E26.35475
G1 X78.15 Y110.263 E26.53139
G1 X83.048 Y112.394 E26.70905
G1 X88.055 Y114.244 E26.88658
G1 X93.185 Y115.815 E27.06503
G1 X98.399 Y117.095 E27.2436
G1 X100.948 Y117.604 E27.33005
G1 X106.256 Y118.438 E27.50876
G1 X111.551 Y118.965 E27.68575
G1 X116.906 Y119.194 E27.86402
G1 X122.228 Y119.119 E28.04104
G1 X127.557 Y118.742 E28.21873
G1 X132.856 Y118.065 E28.39641
G1 X138.158 Y117.08 E28.57577
G1 X140.642 Y116.51 E28.66054
G1 X145.855 Y115.075 E28.84037
G1 X150.911 Y113.371 E29.01783
G1 X155.878 Y111.377 E29.19585
G1 X160.706 Y109.116 E29.37316
G1 X165.414 Y106.575 E29.5511
G1 X169.952 Y103.785 E29.72828
G1 X174.329 Y100.737 E29.90568
G1 X178.58 Y97.409 E30.08524
G1 X180.679 Y95.615 E30.17708
G1 X181.213 Y95.211 E30.19935
G1 X181.791 Y94.874 E30.22161
G1 X182.405 Y94.609 E30.24385
G1 X183.046 Y94.418 E30.2661
G1 X183.706 Y94.305 E30.28837
G1 X184.308 Y94.272 E30.30842
G1 X191.877 Y94.26 E30.56017
G1 X192.545 Y94.299 E30.58242
G1 X193.204 Y94.417 E30.60469
G1 X193.843 Y94.613 E30.62692
G1 X194.455 Y94.884 E30.64918
G1 X195.03 Y95.226 E30.67143
G1 X195.56 Y95.634 E30.69368
G1 X196.038 Y96.102 E30.71593
G1 X196.457 Y96.624 E30.73819
G1 X196.81 Y97.192 E30.76043
G1 X197.093 Y97.799 E30.78271
G1 X197.301 Y98.434 E30.80493
G1 X197.433 Y99.09 E30.82719
G1 X197.485 Y99.757 E30.84944
G1 X197.457 Y100.433 E30.87194
G1 X197.104 Y103.865 E30.9867
G1 X196.996 Y104.525 E31.00894
G1 X196.88 Y104.955 E31.02375
G1 X195.833 Y108.321 E31.141
G1 X195.597 Y108.947 E31.16325
G1 X195.447 Y109.256 E31.17467
G1 X193.646 Y112.695 E31.30379
G1 X193.155 Y113.471 E31.33433
G1 X190.693 Y116.733 E31.47026
G1 X190.19 Y117.312 E31.49577
G1 X187.114 Y120.399 E31.64071
G1 X186.601 Y120.854 E31.66352
G1 X182.482 Y124.082 E31.83758
G1 X182.034 Y124.399 E31.85583
G1 X178.011 Y126.959 E32.01443
G1 X177.604 Y127.194 E32.03006
G1 X172.741 Y129.742 E32.21266
G1 X172.361 Y129.923 E32.22666
G1 X167.179 Y132.16 E32.41439
G1 X166.833 Y132.297 E32.42677
G1 X160.833 Y134.426 E32.63852
G1 X160.476 Y134.539 E32.65097
G1 X153.413 Y136.525 E32.895
G1 X153.096 Y136.604 E32.90587
G1 X146.579 Y138.033 E33.12777
G1 X146.307 Y138.086 E33.13699
G1 X139.828 Y139.173 E33.35549
G1 X139.548 Y139.212 E33.3649
G1 X132.219 Y140.065 E33.6103
G1 X131.954 Y140.09 E33.61916
G1 X124.913 Y140.572 E33.85389
G1 X124.647 Y140.584 E33.86275
G1 X117.17 Y140.739 E34.11149
G1 X116.912 Y140.738 E34.12007
G1 X109.806 Y140.558 E34.35649
G1 X109.54 Y140.545 E34.36535
G1 X102.116 Y140.002 E34.61293
G1 X101.852 Y139.977 E34.62175
G1 X95.042 Y139.154 E34.8499
G1 X94.756 Y139.112 E34.85951
G1 X87.491 Y137.851 E35.10476
G1 X87.194 Y137.791 E35.11484
G1 X80.546 Y136.262 E35.34173
G1 X80.26 Y136.188 E35.35155
G1 X74.718 Y134.602 E35.54328
G1 X74.409 Y134.504 E35.55406
G1 X68.749 Y132.523 E35.75351
G1 X68.389 Y132.383 E35.76636
G1 X62.448 Y129.832 E35.9814
G1 X62.008 Y129.619 E35.99766
G1 X56.685 Y126.76 E36.19863
G1 X56.282 Y126.521 E36.21421
G1 X52.36 Y123.97 E36.36982
G1 X51.932 Y123.662 E36.38736
G1 X48.437 Y120.888 E36.53577
G1 X47.956 Y120.46 E36.55718
G1 X44.81 Y117.311 E36.70523
G1 X44.277 Y116.693 E36.73238
G1 X41.698 Y113.223 E36.87617
G1 X41.235 Y112.486 E36.90512
G1 X39.611 Y109.393 E37.02131
G1 X39.229 Y108.476 E37.05435
G1 X38.128 Y104.988 E37.17601
G1 X37.965 Y104.339 E37.19826
G1 X37.898 Y103.88 E37.21369
G1 X37.541 Y100.442 E37.32866
G1 X37.512 Y99.774 E37.35089
G1 X37.562 Y99.107 E37.37314
G1 X37.692 Y98.451 E37.39538
G1 X37.9 Y97.814 E37.41767
G1 X38.181 Y97.208 E37.43989
G1 X38.533 Y96.639 E37.46214
G1 X38.95 Y96.116 E37.48439
G1 X39.427 Y95.646 E37.50666
G1 X39.956 Y95.237 E37.5289
G1 X40.531 Y94.894 E37.55117
M204 S5000
M205 X30 Y30
G0 F3600 X40.926 Y95.145
M204 S500
M205 X20 Y20
G1 F1800 X41.526 Y94.911 E37.57259
G1 X42.151 Y94.753 E37.59403
G1 X43.109 Y94.664 E37.62603
G1 X52.164 Y94.66 E37.9272
G1 X52.807 Y94.7 E37.94863
G1 X53.441 Y94.819 E37.97009
G1 X54.055 Y95.015 E37.99152
G1 X54.64 Y95.286 E38.01297
G1 X55.187 Y95.627 E38.03441
G1 X55.489 Y95.86 E38.04709
G1 X59.76 Y99.409 E38.23179
G1 X64.083 Y102.604 E38.41058
G1 X68.552 Y105.533 E38.5883
G1 X73.206 Y108.218 E38.76701
G1 X77.989 Y110.629 E38.94516
G1 X82.886 Y112.761 E39.1228
G1 X87.941 Y114.628 E39.30203
G1 X93.066 Y116.197 E39.4803
G1 X98.338 Y117.492 E39.66086
G1 X100.853 Y117.994 E39.74616
G1 X106.206 Y118.835 E39.92638
G1 X111.53 Y119.365 E40.10433
G1 X116.895 Y119.594 E40.28294
G1 X122.244 Y119.519 E40.46086
G1 X127.601 Y119.14 E40.63948
G1 X132.909 Y118.462 E40.81746
G1 X138.246 Y117.47 E40.99801
G1 X140.752 Y116.896 E41.08352
G1 X145.963 Y115.461 E41.26329
G1 X151.046 Y113.748 E41.44169
G1 X156.039 Y111.743 E41.62065
G1 X160.887 Y109.472 E41.79871
G1 X165.6 Y106.929 E41.97683
G1 X170.176 Y104.115 E42.1555
G1 X174.579 Y101.05 E42.33393
G1 X178.828 Y97.722 E42.51345
G1 X180.939 Y95.919 E42.60578
G1 X181.454 Y95.531 E42.62723
G1 X182.013 Y95.21 E42.64867
G1 X182.608 Y94.961 E42.67012
G1 X183.229 Y94.787 E42.69157
G1 X183.866 Y94.692 E42.71299
G1 X184.309 Y94.672 E42.72774
G1 X191.878 Y94.66 E42.97949
G1 X192.521 Y94.699 E43.00091
G1 X193.155 Y94.817 E43.02236
G1 X193.769 Y95.013 E43.0438
G1 X194.354 Y95.283 E43.06523
G1 X194.902 Y95.624 E43.08669
G1 X195.403 Y96.03 E43.10814
G1 X195.85 Y96.494 E43.12957
G1 X196.236 Y97.011 E43.15103
G1 X196.555 Y97.571 E43.17247
G1 X196.802 Y98.166 E43.19389
G1 X196.974 Y98.787 E43.21533
G1 X197.068 Y99.425 E43.23678
G1 X197.082 Y100.07 E43.25823
G1 X197.059 Y100.392 E43.26897
G1 X196.706 Y103.824 E43.38372
G1 X196.6 Y104.46 E43.40517
G1 X196.498 Y104.836 E43.41812
G1 X195.451 Y108.202 E43.53537
G1 X195.093 Y109.07 E43.5666
G1 X193.292 Y112.509 E43.69572
G1 X192.836 Y113.23 E43.72409
G1 X190.374 Y116.492 E43.86002
G1 X189.907 Y117.029 E43.88369
G1 X186.831 Y120.116 E44.02863
G1 X186.355 Y120.539 E44.04981
G1 X182.236 Y123.767 E44.22387
G1 X181.82 Y124.061 E44.24081
G1 X177.797 Y126.621 E44.39941
G1 X177.418 Y126.84 E44.41397
G1 X172.555 Y129.388 E44.59657
G1 X172.203 Y129.556 E44.60954
G1 X167.021 Y131.793 E44.79727
G1 X166.699 Y131.92 E44.80878
G1 X160.699 Y134.049 E45.02053
G1 X160.368 Y134.154 E45.03208
G1 X153.305 Y136.14 E45.27611
G1 X153.011 Y136.213 E45.28619
G1 X146.494 Y137.642 E45.50809
G1 X146.24 Y137.691 E45.5167
G1 X139.761 Y138.778 E45.7352
G1 X139.502 Y138.815 E45.7439
G1 X132.173 Y139.668 E45.98931
G1 X131.927 Y139.691 E45.99753
G1 X124.886 Y140.173 E46.23226
G1 X124.639 Y140.184 E46.24048
G1 X117.162 Y140.339 E46.48922
G1 X116.922 Y140.338 E46.49721
G1 X109.816 Y140.158 E46.73363
G1 X109.569 Y140.146 E46.74185
