;FLAVOR:Marlin
;TIME:4857
;Filament used: 9.29291m
;Layer height: 0.3
;Generated with Cura_SteamEngine 3.6.0
M140 S60
M105
M190 S60
M104 S200
M105
M109 S200
M82 ;absolute extrusion mode
; Ender 3 Custom Start G-code
G28 ; Home all axes
G92 E0 ; Reset Extruder
G1 Z2.0 F3000 ; Move Z Axis up little to prevent scratching of Heat Bed
G1 X0.1 Y20 Z0.3 F5000.0 ; Move to start position
G1 X0.1 Y200.0 Z0.3 F1500.0 E15 ; Draw the first line
G1 X0.4 Y200.0 Z0.3 F5000.0 ; Move to side a little
G1 X0.4 Y20 Z0.3 F1500.0 E30 ; Draw the second line
G92 E0 ; Reset Extruder
G1 Z2.0 F3000 ; Move Z Axis up little to prevent scratching of Heat Bed
; End of custom start GCode
G92 E0
G1 F2400 E-5
;LAYER_COUNT:131
;LAYER:0
M107
M204 S5000
M205 X30 Y30
G0 F3600 X95.797 Y76.06 Z0.2
M204 S500
M205 X20 Y20
;TYPE:SKIRT
G1 F2400 E0
G1 F1800 X96.275 Y75.523 E0.02391
G1 X96.503 Y75.294 E0.03466
G1 X97.035 Y74.817 E0.05842
G1 X97.617 Y74.401 E0.08222
G1 X98.242 Y74.053 E0.10601
G1 X98.902 Y73.777 E0.12981
G1 X99.588 Y73.576 E0.15358
G1 X100.293 Y73.454 E0.17738
G1 X101.183 Y73.412 E0.20701
G1 X109.505 Y73.6 E0.48387
G1 X133.994 Y73.61 E1.29838
G1 X134.708 Y73.65 E1.32217
G1 X135.413 Y73.77 E1.34595
G1 X136.1 Y73.968 E1.36973
G1 X136.761 Y74.241 E1.39352
G1 X137.388 Y74.586 E1.41732
G1 X137.972 Y74.999 E1.44111
G1 X138.506 Y75.474 E1.46488
G1 X138.984 Y76.006 E1.48867
G1 X139.4 Y76.589 E1.51249
G1 X139.748 Y77.213 E1.53625
G1 X140.024 Y77.873 E1.56005
G1 X140.225 Y78.56 E1.58386
G1 X140.347 Y79.264 E1.60762
G1 X140.391 Y80.01 E1.63247
G1 X140.391 Y154.991 E4.12635
G1 X140.351 Y155.705 E4.15014
G1 X140.232 Y156.41 E4.17392
G1 X140.034 Y157.098 E4.19773
G1 X139.761 Y157.759 E4.22152
G1 X139.417 Y158.386 E4.2453
G1 X139.004 Y158.97 E4.26909
G1 X138.529 Y159.504 E4.29286
G1 X137.997 Y159.983 E4.31667
G1 X137.415 Y160.398 E4.34045
G1 X136.79 Y160.747 E4.36426
G1 X136.13 Y161.023 E4.38805
G1 X135.444 Y161.224 E4.41183
G1 X134.739 Y161.347 E4.43563
G1 X133.993 Y161.391 E4.46048
G1 X109.561 Y161.4 E5.2731
G1 X101.182 Y161.588 E5.55185
G1 X100.467 Y161.564 E5.57565
G1 X99.759 Y161.461 E5.59944
G1 X99.067 Y161.279 E5.62324
G1 X98.4 Y161.021 E5.64703
G1 X97.766 Y160.69 E5.67082
G1 X97.173 Y160.291 E5.69459
G1 X96.513 Y159.715 E5.72372
G1 X96.284 Y159.486 E5.7345
G1 X95.807 Y158.953 E5.75829
G1 X95.393 Y158.37 E5.78207
G1 X95.046 Y157.744 E5.80587
G1 X94.771 Y157.084 E5.82965
G1 X94.572 Y156.397 E5.85344
G1 X94.451 Y155.692 E5.87723
G1 X94.409 Y154.961 E5.90159
G1 X94.41 Y80.039 E8.3935
G1 X94.45 Y79.325 E8.41729
G1 X94.569 Y78.62 E8.44107
G1 X94.767 Y77.932 E8.46488
G1 X95.04 Y77.271 E8.48867
G1 X95.385 Y76.644 E8.51247
G1 X95.797 Y76.06 E8.53624
M204 S5000
M205 X30 Y30
G0 F3600 X96.194 Y76.206
M204 S500
M205 X20 Y20
G1 F1800 X96.558 Y75.806 E8.55423
G1 X96.786 Y75.577 E8.56498
G1 X97.302 Y75.115 E8.58801
G1 X97.868 Y74.716 E8.61105
G1 X98.476 Y74.384 E8.63409
G1 X99.118 Y74.125 E8.65711
G1 X99.786 Y73.942 E8.68015
G1 X100.471 Y73.837 E8.7032
G1 X101.174 Y73.812 E8.72659
G1 X109.496 Y74 E9.00345
G1 X133.993 Y74.01 E9.81823
G1 X134.685 Y74.05 E9.84128
G1 X135.367 Y74.17 E9.86431
G1 X136.031 Y74.367 E9.88735
G1 X136.667 Y74.64 E9.91037
G1 X137.268 Y74.984 E9.9334
G1 X137.826 Y75.395 E9.95645
G1 X138.332 Y75.868 E9.97949
G1 X138.78 Y76.396 E10.00252
G1 X139.165 Y76.972 E10.02557
G1 X139.48 Y77.588 E10.04858
G1 X139.723 Y78.237 E10.07163
G1 X139.889 Y78.909 E10.09465
G1 X139.977 Y79.596 E10.11769
G1 X139.991 Y80.01 E10.13146
G1 X139.991 Y154.991 E12.62534
G1 X139.951 Y155.682 E12.64836
G1 X139.832 Y156.365 E12.67142
G1 X139.634 Y157.028 E12.69443
G1 X139.362 Y157.665 E12.71747
G1 X139.018 Y158.266 E12.7405
G1 X138.607 Y158.824 E12.76355
G1 X138.135 Y159.33 E12.78657
G1 X137.607 Y159.779 E12.80962
G1 X137.032 Y160.164 E12.83264
G1 X136.415 Y160.479 E12.85568
G1 X135.767 Y160.722 E12.8787
G1 X135.094 Y160.889 E12.90176
G1 X134.408 Y160.977 E12.92476
G1 X133.993 Y160.991 E12.93857
G1 X109.552 Y161 E13.75149
G1 X101.173 Y161.188 E14.03024
G1 X100.481 Y161.164 E14.05327
G1 X99.796 Y161.06 E14.07632
G1 X99.128 Y160.878 E14.09934
G1 X98.485 Y160.62 E14.12239
G1 X97.876 Y160.289 E14.14544
G1 X97.31 Y159.891 E14.16845
G1 X96.795 Y159.433 E14.19138
G1 X96.566 Y159.204 E14.20215
G1 X96.106 Y158.687 E14.22517
G1 X95.708 Y158.12 E14.24821
G1 X95.378 Y157.511 E14.27124
G1 X95.12 Y156.868 E14.29429
G1 X94.938 Y156.2 E14.31732
G1 X94.835 Y155.515 E14.34035
G1 X94.809 Y154.961 E14.3588
G1 X94.81 Y80.039 E16.85072
G1 X94.85 Y79.348 E16.87374
G1 X94.969 Y78.665 E16.8968
G1 X95.167 Y78.002 E16.91981
G1 X95.439 Y77.365 E16.94285
G1 X95.783 Y76.764 E16.96588
G1 X96.194 Y76.206 E16.98893
M204 S5000
M205 X30 Y30
G0 F3600 X96.59 Y76.358
M204 S500
M205 X20 Y20
G1 F1800 X96.842 Y76.088 E17.00121
G1 X97.07 Y75.859 E17.01196
G1 X97.569 Y75.414 E17.0342
G1 X98.118 Y75.031 E17.05646
G1 X98.709 Y74.717 E17.07872
G1 X99.333 Y74.476 E17.10097
G1 X99.981 Y74.311 E17.12321
G1 X100.644 Y74.224 E17.14545
G1 X101.164 Y74.211 E17.16275
G1 X109.531 Y74.4 E17.44111
G1 X133.993 Y74.41 E18.25472
G1 X134.661 Y74.45 E18.27698
G1 X135.319 Y74.57 E18.29923
G1 X135.959 Y74.767 E18.3215
G1 X136.57 Y75.039 E18.34374
G1 X137.144 Y75.382 E18.36598
G1 X137.674 Y75.791 E18.38825
G1 X138.15 Y76.261 E18.4105
G1 X138.568 Y76.783 E18.43274
G1 X138.92 Y77.352 E18.45499
G1 X139.202 Y77.959 E18.47725
G1 X139.409 Y78.595 E18.4995
G1 X139.539 Y79.251 E18.52174
G1 X139.591 Y80.01 E18.54705
G1 X139.591 Y154.991 E21.04092
G1 X139.551 Y155.659 E21.06318
G1 X139.432 Y156.317 E21.08542
G1 X139.235 Y156.957 E21.10769
G1 X138.963 Y157.568 E21.12994
G1 X138.62 Y158.142 E21.15218
G1 X138.211 Y158.672 E21.17445
G1 X137.742 Y159.149 E21.1967
G1 X137.22 Y159.567 E21.21894
G1 X136.651 Y159.919 E21.24119
G1 X136.044 Y160.201 E21.26345
G1 X135.408 Y160.409 E21.28571
G1 X134.752 Y160.539 E21.30795
G1 X133.993 Y160.591 E21.33326
G1 X109.588 Y160.6 E22.14497
G1 X101.164 Y160.789 E22.42522
G1 X100.495 Y160.764 E22.44749
G1 X99.834 Y160.659 E22.46975
G1 X99.191 Y160.477 E22.49198
G1 X98.573 Y160.218 E22.51426
G1 X97.991 Y159.889 E22.5365
G1 X97.453 Y159.492 E22.55874
G1 X97.078 Y159.15 E22.57562
G1 X96.849 Y158.921 E22.58639
G1 X96.405 Y158.42 E22.60866
G1 X96.024 Y157.87 E22.63091
G1 X95.711 Y157.279 E22.65315
G1 X95.471 Y156.655 E22.67539
G1 X95.307 Y156.006 E22.69765
G1 X95.222 Y155.342 E22.71992
G1 X95.209 Y154.961 E22.7326
G1 X95.21 Y80.039 E25.22451
G1 X95.25 Y79.371 E25.24677
G1 X95.369 Y78.713 E25.26901
G1 X95.566 Y78.073 E25.29128
G1 X95.838 Y77.462 E25.31353
G1 X96.181 Y76.888 E25.33577
G1 X96.59 Y76.358 E25.35803
M204 S5000
M205 X30 Y30
G0 F3600 X96.579 Y77.016
M204 S500
M205 X20 Y20
G1 F1800 X97.125 Y76.37 E25.38617
G1 X97.353 Y76.141 E25.39691
G1 X97.835 Y75.713 E25.41835
G1 X98.367 Y75.349 E25.43979
G1 X98.939 Y75.052 E25.46123
G1 X99.544 Y74.829 E25.48268
G1 X100.172 Y74.683 E25.50412
G1 X100.813 Y74.615 E25.52556
G1 X101.155 Y74.611 E25.53694
G1 X109.522 Y74.8 E25.81529
G1 X133.993 Y74.81 E26.6292
G1 X134.637 Y74.85 E26.65066
G1 X135.27 Y74.97 E26.67209
G1 X135.884 Y75.167 E26.69354
G1 X136.469 Y75.438 E26.71498
G1 X137.015 Y75.78 E26.73641
G1 X137.515 Y76.187 E26.75785
G1 X137.961 Y76.652 E26.77928
G1 X138.346 Y77.169 E26.80072
G1 X138.664 Y77.73 E26.82217
G1 X138.911 Y78.326 E26.84363
G1 X139.081 Y78.947 E26.86504
G1 X139.174 Y79.585 E26.88649
G1 X139.191 Y80.01 E26.90064
G1 X139.191 Y154.991 E29.39451
G1 X139.151 Y155.634 E29.41594
G1 X139.032 Y156.268 E29.4374
G1 X138.835 Y156.882 E29.45884
G1 X138.564 Y157.467 E29.48029
G1 X138.222 Y158.014 E29.50174
G1 X137.816 Y158.514 E29.52317
G1 X137.351 Y158.96 E29.5446
G1 X136.834 Y159.345 E29.56604
G1 X136.273 Y159.664 E29.5875
G1 X135.677 Y159.91 E29.60895
G1 X135.056 Y160.081 E29.63037
G1 X134.418 Y160.173 E29.65181
G1 X133.993 Y160.191 E29.66596
G1 X109.579 Y160.2 E30.47797
G1 X101.155 Y160.389 E30.75822
G1 X100.51 Y160.363 E30.77969
G1 X99.874 Y160.258 E30.80113
G1 X99.256 Y160.075 E30.82257
G1 X98.665 Y159.817 E30.84402
G1 X98.111 Y159.488 E30.86545
G1 X97.602 Y159.093 E30.88688
G1 X97.361 Y158.867 E30.89787
G1 X97.132 Y158.638 E30.90864
G1 X96.705 Y158.155 E30.93008
G1 X96.342 Y157.622 E30.95153
G1 X96.047 Y157.049 E30.97296
G1 X95.825 Y156.444 E30.9944
G1 X95.68 Y155.816 E31.01584
G1 X95.609 Y154.961 E31.04437
G1 X95.61 Y80.039 E33.53629
G1 X95.65 Y79.396 E33.55771
G1 X95.769 Y78.762 E33.57917
G1 X95.966 Y78.148 E33.60062
G1 X96.237 Y77.563 E33.62206
G1 X96.579 Y77.016 E33.64352
M204 S5000
M205 X30 Y30
G0 F3600 X101 Y80.116
M204 S500
M205 X20 Y20
;TYPE:SUPPORT
G1 F1800 X101.116 Y80 E33.64897
G1 X103.003 Y80 E33.71174
G1 X103.003 Y155 E36.20625
G1 X101.116 Y155 E36.26901
G1 X101 Y154.884 E36.27446
G1 X101 Y80.116 E38.76126
M204 S5000
M205 X30 Y30
G0 F3600 X101.346 Y80.16
M204 S500
M205 X20 Y20
G1 F1800 X101.346 Y154.84 E41.24512
M204 S5000
M205 X30 Y30
G0 F3600 X101.159 Y154.686
M204 S500
M205 X20 Y20
G1 F1800 X102.842 Y154.686 E41.3011
M204 S5000
M205 X30 Y30
G0 F3600 X102.842 Y152.019
M204 S500
M205 X20 Y20
G1 F1800 X101.159 Y152.019 E41.35708
M204 S5000
M205 X30 Y30
G0 F3600 X101.159 Y149.352
M204 S500
M205 X20 Y20
G1 F1800 X102.842 Y149.352 E41.41305
M204 S5000
M205 X30 Y30
G0 F3600 X102.842 Y146.685
M204 S500
M205 X20 Y20
G1 F1800 X101.159 Y146.685 E41.46903
M204 S5000
M205 X30 Y30
G0 F3600 X101.159 Y144.018
M204 S500
M205 X20 Y20
G1 F1800 X102.842 Y144.018 E41.52501
M204 S5000
M205 X30 Y30
G0 F3600 X102.842 Y141.351
M204 S500
M205 X20 Y20
G1 F1800 X101.159 Y141.351 E41.58098
M204 S5000
M205 X30 Y30
G0 F3600 X101.159 Y138.684
M204 S500
M205 X20 Y20
G1 F1800 X102.842 Y138.684 E41.63696
M204 S5000
M205 X30 Y30
G0 F3600 X102.842 Y136.017
M204 S500
M205 X20 Y20
G1 F1800 X101.159 Y136.017 E41.69294
M204 S5000
M205 X30 Y30
G0 F3600 X101.159 Y133.35
M204 S500
M205 X20 Y20
G1 F1800 X102.842 Y133.35 E41.74892
M204 S5000
M205 X30 Y30
G0 F3600 X102.842 Y130.683
M204 S500
M205 X20 Y20
G1 F1800 X101.159 Y130.683 E41.80489
M204 S5000
M205 X30 Y30
G0 F3600 X101.159 Y128.016
M204 S500
M205 X20 Y20
G1 F1800 X102.842 Y128.016 E41.86087
M204 S5000
M205 X30 Y30
G0 F3600 X102.842 Y125.349
M204 S500
M205 X20 Y20
G1 F1800 X101.159 Y125.349 E41.91685
M204 S5000
M205 X30 Y30
G0 F3600 X101.159 Y122.682
M204 S500
M205 X20 Y20
G1 F1800 X102.842 Y122.682 E41.97282
M204 S5000
M205 X30 Y30
G0 F3600 X102.842 Y120.015
M204 S500
M205 X20 Y20
G1 F1800 X101.159 Y120.015 E42.0288
M204 S5000
M205 X30 Y30
G0 F3600 X101.16 Y117.348
M204 S500
M205 X20 Y20
G1 F1800 X102.843 Y117.348 E42.08478
M204 S5000
M205 X30 Y30
G0 F3600 X102.843 Y114.681
M204 S500
M205 X20 Y20
G1 F1800 X101.16 Y114.681 E42.14075
M204 S5000
M205 X30 Y30
G0 F3600 X101.16 Y112.014
M204 S500
M205 X20 Y20
G1 F1800 X102.843 Y112.014 E42.19673
M204 S5000
M205 X30 Y30
G0 F3600 X102.843 Y109.347
M204 S500
M205 X20 Y20
G1 F1800 X101.16 Y109.347 E42.25271
M204 S5000
M205 X30 Y30
G0 F3600 X101.16 Y106.68
M204 S500
M205 X20 Y20
G1 F1800 X102.843 Y106.68 E42.30868
M204 S5000
M205 X30 Y30
G0 F3600 X102.843 Y104.013
M204 S500
M205 X20 Y20
G1 F1800 X101.16 Y104.013 E42.36466
M204 S5000
M205 X30 Y30
G0 F3600 X101.16 Y101.346
M204 S500
M205 X20 Y20
G1 F1800 X102.843 Y101.346 E42.42064
M204 S5000
M205 X30 Y30
G0 F3600 X102.843 Y98.679
M204 S500
M205 X20 Y20
G1 F1800 X101.16 Y98.679 E42.47661
M204 S5000
M205 X30 Y30
G0 F3600 X101.16 Y96.012
M204 S500
M205 X20 Y20
G1 F1800 X102.843 Y96.012 E42.53259
M204 S5000
M205 X30 Y30
G0 F3600 X102.843 Y93.345
M204 S500
M205 X20 Y20
G1 F1800 X101.16 Y93.345 E42.58857
M204 S5000
M205 X30 Y30
G0 F3600 X101.16 Y90.678
M204 S500
M205 X20 Y20
G1 F1800 X102.843 Y90.678 E42.64454
M204 S5000
M205 X30 Y30
G0 F3600 X102.843 Y88.011
M204 S500
M205 X20 Y20
G1 F1800 X101.16 Y88.011 E42.70052
M204 S5000
M205 X30 Y30
G0 F3600 X101.16 Y85.344
M204 S500
M205 X20 Y20
G1 F1800 X102.843 Y85.344 E42.7565
M204 S5000
M205 X30 Y30
G0 F3600 X102.843 Y82.677
M204 S500
M205 X20 Y20
G1 F1800 X101.16 Y82.677 E42.81247
M204 S5000
M205 X30 Y30
G1 F2400 E37.81247
;MESH:4WD Buggy (4).stl
G0 F3600 X103.238 Y82.677
G0 X104.523 Y82.677
G0 X133.33 Y154.33
G0 X133.4 Y154.4
M204 S500
M205 X20 Y20
;TYPE:WALL-INNER
G1 F2400 E42.81247
G1 F1800 X104.503 Y154.4 E43.77359
G1 X104.503 Y80.6 E46.22819
G1 X133.4 Y80.6 E47.18931
G1 X133.4 Y154.4 E49.64391
M204 S5000
M205 X30 Y30
G0 F3600 X133.8 Y154.8
M204 S500
M205 X20 Y20
;TYPE:WALL-OUTER
G1 F1800 X104.103 Y154.8 E50.63163
G1 X104.103 Y80.2 E53.11284
G1 X133.8 Y80.2 E54.10057
G1 X133.8 Y154.8 E56.58177
M204 S5000
M205 X30 Y30
G0 F3600 X133.6 Y154.8
G0 X133.33 Y154.33
G0 X133.01 Y154.01
M204 S500
M205 X20 Y20
;TYPE:SKIN
G1 F1800 X104.893 Y154.01 E57.51695
G1 X104.893 Y80.99 E59.9456
G1 X133.01 Y80.99 E60.88078
G1 X133.01 Y154.01 E63.30943
M204 S5000
M205 X30 Y30
G0 F3600 X105.18 Y153.829
M204 S500
M205 X20 Y20
G1 F1800 X105.072 Y153.721 E63.31451
M204 S5000
M205 X30 Y30
G0 F3600 X105.072 Y153.155
M204 S500
M205 X20 Y20
G1 F1800 X105.746 Y153.829 E63.34621
M204 S5000
M205 X30 Y30
G0 F3600 X106.312 Y153.829
M204 S500
M205 X20 Y20
G1 F1800 X105.072 Y152.59 E63.40452
M204 S5000
M205 X30 Y30
G0 F3600 X105.072 Y152.024
M204 S500
M205 X20 Y20
G1 F1800 X106.877 Y153.829 E63.48942
M204 S5000
M205 X30 Y30
G0 F3600 X107.443 Y153.829
M204 S500
M205 X20 Y20
G1 F1800 X105.072 Y151.458 E63.60094
M204 S5000
M205 X30 Y30
G0 F3600 X105.072 Y150.893
M204 S500
M205 X20 Y20
G1 F1800 X108.009 Y153.829 E63.73907
M204 S5000
M205 X30 Y30
G0 F3600 X108.574 Y153.829
M204 S500
M205 X20 Y20
G1 F1800 X105.072 Y150.327 E63.90379
M204 S5000
M205 X30 Y30
G0 F3600 X105.072 Y149.761
M204 S500
M205 X20 Y20
G1 F1800 X109.14 Y153.829 E64.09514
M204 S5000
M205 X30 Y30
G0 F3600 X109.706 Y153.829
M204 S500
M205 X20 Y20
G1 F1800 X105.072 Y149.195 E64.31311
M204 S5000
M205 X30 Y30
G0 F3600 X105.072 Y148.63
M204 S500
M205 X20 Y20
G1 F1800 X110.271 Y153.829 E64.55765
M204 S5000
M205 X30 Y30
G0 F3600 X110.837 Y153.829
M204 S500
M205 X20 Y20
G1 F1800 X105.072 Y148.064 E64.82882
M204 S5000
M205 X30 Y30
G0 F3600 X105.072 Y147.498
M204 S500
M205 X20 Y20
G1 F1800 X111.403 Y153.829 E65.12661
M204 S5000
M205 X30 Y30
G0 F3600 X111.968 Y153.829
M204 S500
M205 X20 Y20
G1 F1800 X105.072 Y146.933 E65.45098
M204 S5000
M205 X30 Y30
G0 F3600 X105.072 Y146.367
M204 S500
M205 X20 Y20
G1 F1800 X112.534 Y153.829 E65.80197
M204 S5000
M205 X30 Y30
G0 F3600 X113.1 Y153.829
M204 S500
M205 X20 Y20
G1 F1800 X105.072 Y145.801 E66.17958
M204 S5000
M205 X30 Y30
G0 F3600 X105.072 Y145.236
M204 S500
M205 X20 Y20
G1 F1800 X113.666 Y153.829 E66.58379
M204 S5000
M205 X30 Y30
G0 F3600 X114.231 Y153.829
M204 S500
M205 X20 Y20
G1 F1800 X105.072 Y144.67 E67.0146
M204 S5000
M205 X30 Y30
G0 F3600 X105.072 Y144.104
M204 S500
M205 X20 Y20
G1 F1800 X114.797 Y153.829 E67.47204
M204 S5000
M205 X30 Y30
G0 F3600 X115.363 Y153.829
M204 S500
M205 X20 Y20
G1 F1800 X105.072 Y143.539 E67.95607
M204 S5000
M205 X30 Y30
G0 F3600 X105.072 Y142.973
M204 S500
M205 X20 Y20
G1 F1800 X115.928 Y153.829 E68.4667
M204 S5000
M205 X30 Y30
G0 F3600 X116.494 Y153.829
M204 S500
M205 X20 Y20
G1 F1800 X105.072 Y142.407 E69.00396
M204 S5000
M205 X30 Y30
G0 F3600 X105.072 Y141.842
M204 S500
M205 X20 Y20
G1 F1800 X117.06 Y153.829 E69.56781
M204 S5000
M205 X30 Y30
G0 F3600 X117.625 Y153.829
M204 S500
M205 X20 Y20
G1 F1800 X105.072 Y141.276 E70.15827
M204 S5000
M205 X30 Y30
G0 F3600 X105.072 Y140.71
M204 S500
M205 X20 Y20
G1 F1800 X118.191 Y153.829 E70.77535
M204 S5000
M205 X30 Y30
G0 F3600 X118.757 Y153.829
M204 S500
M205 X20 Y20
G1 F1800 X105.072 Y140.145 E71.41902
M204 S5000
M205 X30 Y30
G0 F3600 X105.072 Y139.579
M204 S500
M205 X20 Y20
G1 F1800 X119.322 Y153.829 E72.0893
M204 S5000
M205 X30 Y30
G0 F3600 X119.888 Y153.829
M204 S500
M205 X20 Y20
G1 F1800 X105.072 Y139.013 E72.7862
M204 S5000
M205 X30 Y30
G0 F3600 X105.072 Y138.447
M204 S500
M205 X20 Y20
G1 F1800 X120.454 Y153.829 E73.50972
M204 S5000
M205 X30 Y30
G0 F3600 X121.019 Y153.829
M204 S500
M205 X20 Y20
G1 F1800 X105.072 Y137.882 E74.25982
M204 S5000
M205 X30 Y30
G0 F3600 X105.072 Y137.316
M204 S500
M205 X20 Y20
G1 F1800 X121.585 Y153.829 E75.03654
M204 S5000
M205 X30 Y30
G0 F3600 X122.151 Y153.829
M204 S500
M205 X20 Y20
G1 F1800 X105.072 Y136.75 E75.83988
