;FLAVOR:Marlin
;TIME:9697
;Filament used: 18.337m
;Layer height: 0.3
;Generated with Cura_SteamEngine 3.6.0
M140 S60
M105
M190 S60
M104 S200
M105
M109 S200
M82 ;absolute extrusion mode
; Ender 3 Custom Start G-code
G28 ; Home all axes
G92 E0 ; Reset Extruder
G1 Z2.0 F3000 ; Move Z Axis up little to prevent scratching of Heat Bed
G1 X0.1 Y20 Z0.3 F5000.0 ; Move to start position
G1 X0.1 Y200.0 Z0.3 F1500.0 E15 ; Draw the first line
G1 X0.4 Y200.0 Z0.3 F5000.0 ; Move to side a little
G1 X0.4 Y20 Z0.3 F1500.0 E30 ; Draw the second line
G92 E0 ; Reset Extruder
G1 Z2.0 F3000 ; Move Z Axis up little to prevent scratching of Heat Bed
; End of custom start GCode
G92 E0
G1 F2400 E-5
;LAYER_COUNT:131
;LAYER:0
M107
M204 S5000
M205 X30 Y30
G0 F3600 X59.146 Y74.73 Z0.2
M204 S500
M205 X20 Y20
;TYPE:SKIRT
G1 F2400 E0
G1 F1800 X59.737 Y74.328 E0.02377
G1 X60.369 Y73.994 E0.04755
G1 X61.035 Y73.732 E0.07135
G1 X61.726 Y73.546 E0.09515
G1 X62.433 Y73.439 E0.11894
G1 X63.184 Y73.412 E0.14393
G1 X71.5 Y73.6 E0.42059
G1 X97.598 Y73.56 E1.28862
G1 X102.311 Y73.404 E1.44546
G1 X102.744 Y73.404 E1.45986
G1 X108.132 Y73.59 E1.63917
G1 X133.996 Y73.61 E2.49941
G1 X134.71 Y73.651 E2.5232
G1 X135.415 Y73.77 E2.54698
G1 X136.103 Y73.968 E2.57079
G1 X136.763 Y74.242 E2.59456
G1 X137.39 Y74.587 E2.61836
G1 X137.974 Y75 E2.64215
G1 X138.508 Y75.476 E2.66594
G1 X138.986 Y76.008 E2.68973
G1 X139.401 Y76.591 E2.71353
G1 X139.749 Y77.216 E2.73733
G1 X140.025 Y77.876 E2.76112
G1 X140.225 Y78.562 E2.78489
G1 X140.348 Y79.267 E2.80869
G1 X140.391 Y80.01 E2.83344
G1 X140.391 Y154.991 E5.32732
G1 X140.351 Y155.705 E5.35111
G1 X140.232 Y156.41 E5.37489
G1 X140.034 Y157.098 E5.3987
G1 X139.761 Y157.759 E5.42248
G1 X139.417 Y158.386 E5.44627
G1 X139.004 Y158.97 E5.47006
G1 X138.529 Y159.504 E5.49383
G1 X137.997 Y159.983 E5.51764
G1 X137.415 Y160.398 E5.54142
G1 X136.79 Y160.747 E5.56522
G1 X136.13 Y161.023 E5.58902
G1 X135.444 Y161.224 E5.61279
G1 X134.739 Y161.347 E5.6366
G1 X133.993 Y161.391 E5.66145
G1 X109.612 Y161.4 E6.47237
G1 X102.485 Y161.598 E6.7095
G1 X102.136 Y161.598 E6.72111
G1 X94.726 Y161.4 E6.96766
G1 X68.777 Y161.44 E7.83073
G1 X63.208 Y161.588 E8.01602
G1 X62.493 Y161.567 E8.03981
G1 X61.785 Y161.466 E8.06359
G1 X61.093 Y161.287 E8.08737
G1 X60.424 Y161.032 E8.11118
G1 X59.789 Y160.704 E8.13495
G1 X59.194 Y160.307 E8.15874
G1 X58.513 Y159.715 E8.18875
G1 X58.284 Y159.486 E8.19953
G1 X57.807 Y158.953 E8.22332
G1 X57.393 Y158.37 E8.2471
G1 X57.046 Y157.744 E8.2709
G1 X56.771 Y157.084 E8.29468
G1 X56.572 Y156.397 E8.31847
G1 X56.451 Y155.692 E8.34226
G1 X56.409 Y154.961 E8.36662
G1 X56.41 Y80.039 E10.85853
G1 X56.45 Y79.325 E10.88232
G1 X56.569 Y78.62 E10.9061
G1 X56.767 Y77.932 E10.92991
G1 X57.04 Y77.271 E10.9537
G1 X57.385 Y76.644 E10.9775
G1 X57.797 Y76.06 E11.00127
G1 X58.11 Y75.696 E11.01724
G1 X58.183 Y75.617 E11.02082
G1 X58.447 Y75.347 E11.03338
G1 X58.603 Y75.197 E11.04057
G1 X59.146 Y74.73 E11.06439
M204 S5000
M205 X30 Y30
G0 F3600 X59.406 Y75.035
M204 S500
M205 X20 Y20
G1 F1800 X59.981 Y74.648 E11.08745
G1 X60.596 Y74.33 E11.11047
G1 X61.244 Y74.085 E11.13352
G1 X61.915 Y73.916 E11.15653
G1 X62.602 Y73.826 E11.17958
G1 X63.175 Y73.812 E11.19864
G1 X71.492 Y74 E11.47533
G1 X97.58 Y73.96 E12.34303
G1 X102.324 Y73.803 E12.5009
G1 X102.73 Y73.804 E12.5144
G1 X108.118 Y73.99 E12.69371
G1 X133.996 Y74.01 E13.55442
G1 X134.687 Y74.051 E13.57744
G1 X135.369 Y74.17 E13.60047
G1 X136.033 Y74.368 E13.62352
G1 X136.669 Y74.641 E13.64654
G1 X137.27 Y74.985 E13.66957
G1 X137.827 Y75.397 E13.69261
G1 X138.333 Y75.869 E13.71563
G1 X138.781 Y76.397 E13.73866
G1 X139.166 Y76.973 E13.7617
G1 X139.481 Y77.59 E13.78474
G1 X139.724 Y78.239 E13.80779
G1 X139.89 Y78.911 E13.83081
G1 X139.977 Y79.598 E13.85385
G1 X139.991 Y80.01 E13.86756
G1 X139.991 Y154.991 E16.36143
G1 X139.951 Y155.682 E16.38446
G1 X139.832 Y156.365 E16.40751
G1 X139.634 Y157.028 E16.43053
G1 X139.362 Y157.665 E16.45357
G1 X139.018 Y158.266 E16.4766
G1 X138.607 Y158.824 E16.49965
G1 X138.135 Y159.33 E16.52266
G1 X137.607 Y159.779 E16.54572
G1 X137.032 Y160.164 E16.56873
G1 X136.415 Y160.479 E16.59177
G1 X135.767 Y160.722 E16.61479
G1 X135.094 Y160.889 E16.63785
G1 X134.408 Y160.977 E16.66086
G1 X133.993 Y160.991 E16.67467
G1 X109.601 Y161 E17.48595
G1 X102.474 Y161.198 E17.72309
G1 X102.147 Y161.198 E17.73396
G1 X94.736 Y161 E17.98054
G1 X68.766 Y161.04 E18.84431
G1 X63.198 Y161.188 E19.02957
G1 X62.505 Y161.166 E19.05263
G1 X61.82 Y161.065 E19.07566
G1 X61.151 Y160.886 E19.09869
G1 X60.508 Y160.63 E19.12171
G1 X59.898 Y160.303 E19.14473
G1 X59.329 Y159.907 E19.16779
G1 X58.795 Y159.433 E19.19153
G1 X58.566 Y159.204 E19.20231
G1 X58.106 Y158.687 E19.22532
G1 X57.708 Y158.12 E19.24836
G1 X57.378 Y157.511 E19.2714
G1 X57.12 Y156.868 E19.29444
G1 X56.938 Y156.2 E19.31747
G1 X56.835 Y155.515 E19.34051
G1 X56.809 Y154.961 E19.35896
G1 X56.81 Y80.039 E21.85087
G1 X56.85 Y79.348 E21.87389
G1 X56.969 Y78.665 E21.89695
G1 X57.167 Y78.002 E21.91997
G1 X57.439 Y77.365 E21.943
G1 X57.783 Y76.764 E21.96604
G1 X58.403 Y75.967 E21.99962
G1 X58.476 Y75.888 E22.0032
G1 X58.724 Y75.635 E22.01498
G1 X58.88 Y75.485 E22.02218
G1 X59.406 Y75.035 E22.0452
M204 S5000
M205 X30 Y30
G0 F3600 X59.667 Y75.339
M204 S500
M205 X20 Y20
G1 F1800 X60.224 Y74.969 E22.06744
G1 X60.821 Y74.668 E22.08968
G1 X61.45 Y74.44 E22.11193
G1 X62.102 Y74.289 E22.13419
G1 X62.767 Y74.217 E22.15644
G1 X63.165 Y74.211 E22.16968
G1 X71.524 Y74.4 E22.44777
G1 X97.594 Y74.36 E23.31487
G1 X102.338 Y74.203 E23.47274
G1 X102.716 Y74.203 E23.48531
G1 X108.133 Y74.39 E23.66559
G1 X133.995 Y74.41 E24.52576
G1 X134.663 Y74.45 E24.54802
G1 X135.321 Y74.57 E24.57027
G1 X135.961 Y74.768 E24.59255
G1 X136.572 Y75.04 E24.61479
G1 X137.146 Y75.383 E24.63703
G1 X137.675 Y75.793 E24.65929
G1 X138.152 Y76.262 E24.68154
G1 X138.569 Y76.785 E24.70379
G1 X138.921 Y77.354 E24.72604
G1 X139.203 Y77.961 E24.7483
G1 X139.41 Y78.597 E24.77055
G1 X139.54 Y79.253 E24.79279
G1 X139.591 Y80.01 E24.81803
G1 X139.591 Y154.991 E27.31191
G1 X139.551 Y155.659 E27.33416
G1 X139.432 Y156.317 E27.3564
G1 X139.235 Y156.957 E27.37868
G1 X138.963 Y157.568 E27.40092
G1 X138.62 Y158.142 E27.42316
G1 X138.211 Y158.672 E27.44543
G1 X137.742 Y159.149 E27.46768
G1 X137.22 Y159.567 E27.48992
G1 X136.651 Y159.919 E27.51217
G1 X136.044 Y160.201 E27.53443
G1 X135.408 Y160.409 E27.55669
G1 X134.752 Y160.539 E27.57893
G1 X133.993 Y160.591 E27.60424
G1 X109.59 Y160.6 E28.41588
G1 X102.463 Y160.798 E28.65302
G1 X102.158 Y160.798 E28.66316
G1 X94.746 Y160.6 E28.90978
G1 X68.755 Y160.64 E29.77424
G1 X63.187 Y160.788 E29.9595
G1 X62.518 Y160.766 E29.98176
G1 X61.857 Y160.664 E30.00401
G1 X61.213 Y160.484 E30.02625
G1 X60.594 Y160.229 E30.04851
G1 X60.011 Y159.901 E30.07076
G1 X59.471 Y159.507 E30.093
G1 X59.078 Y159.15 E30.11066
G1 X58.849 Y158.921 E30.12143
G1 X58.405 Y158.42 E30.14369
G1 X58.024 Y157.87 E30.16595
G1 X57.711 Y157.279 E30.18819
G1 X57.471 Y156.655 E30.21043
G1 X57.307 Y156.006 E30.23269
G1 X57.222 Y155.342 E30.25496
G1 X57.209 Y154.961 E30.26763
G1 X57.21 Y80.039 E32.75955
G1 X57.25 Y79.371 E32.78181
G1 X57.369 Y78.713 E32.80405
G1 X57.566 Y78.073 E32.82632
G1 X57.838 Y77.462 E32.84857
G1 X58.181 Y76.888 E32.87081
G1 X58.697 Y76.238 E32.89841
G1 X58.77 Y76.159 E32.90199
G1 X59.002 Y75.923 E32.91299
G1 X59.158 Y75.773 E32.92019
G1 X59.667 Y75.339 E32.94244
M204 S5000
M205 X30 Y30
G0 F3600 X59.926 Y75.645
M204 S500
M205 X20 Y20
G1 F1800 X60.466 Y75.291 E32.96391
G1 X61.045 Y75.008 E32.98535
G1 X61.654 Y74.798 E33.00678
G1 X62.285 Y74.665 E33.02822
G1 X63.156 Y74.611 E33.05725
G1 X71.516 Y74.8 E33.33537
G1 X97.608 Y74.76 E34.2032
G1 X102.351 Y74.603 E34.36104
G1 X102.702 Y74.603 E34.37271
G1 X108.119 Y74.79 E34.55299
G1 X133.995 Y74.81 E35.41363
G1 X134.638 Y74.85 E35.43506
G1 X135.272 Y74.97 E35.45652
G1 X135.886 Y75.167 E35.47797
G1 X136.47 Y75.439 E35.49939
G1 X137.017 Y75.781 E35.52085
G1 X137.517 Y76.188 E35.54229
G1 X137.963 Y76.654 E35.56375
G1 X138.347 Y77.171 E35.58517
G1 X138.665 Y77.732 E35.60661
G1 X138.911 Y78.328 E35.62806
G1 X139.082 Y78.949 E35.64948
G1 X139.174 Y79.587 E35.67092
G1 X139.191 Y80.01 E35.685
G1 X139.191 Y154.991 E38.17888
G1 X139.151 Y155.634 E38.20031
G1 X139.032 Y156.268 E38.22176
G1 X138.835 Y156.882 E38.24321
G1 X138.564 Y157.467 E38.26465
G1 X138.222 Y158.014 E38.28611
G1 X137.816 Y158.514 E38.30753
G1 X137.351 Y158.96 E38.32896
G1 X136.834 Y159.345 E38.3504
G1 X136.273 Y159.664 E38.37187
G1 X135.677 Y159.91 E38.39331
G1 X135.056 Y160.081 E38.41474
G1 X134.418 Y160.173 E38.43618
G1 X133.993 Y160.191 E38.45032
G1 X109.578 Y160.2 E39.26237
G1 X102.451 Y160.398 E39.49951
G1 X102.168 Y160.398 E39.50892
G1 X94.756 Y160.2 E39.75553
G1 X68.743 Y160.24 E40.62073
G1 X63.176 Y160.388 E40.80595
G1 X62.532 Y160.365 E40.82739
G1 X61.896 Y160.263 E40.84881
G1 X61.277 Y160.083 E40.87025
G1 X60.685 Y159.827 E40.8917
G1 X60.129 Y159.5 E40.91316
G1 X59.618 Y159.107 E40.9346
G1 X59.361 Y158.867 E40.94629
G1 X59.132 Y158.638 E40.95706
G1 X58.705 Y158.155 E40.97851
G1 X58.342 Y157.622 E40.99996
G1 X58.047 Y157.049 E41.02139
G1 X57.825 Y156.444 E41.04282
G1 X57.68 Y155.816 E41.06426
G1 X57.609 Y154.961 E41.0928
G1 X57.61 Y80.039 E43.58471
G1 X57.65 Y79.396 E43.60614
G1 X57.769 Y78.762 E43.6276
G1 X57.966 Y78.148 E43.64904
G1 X58.237 Y77.563 E43.67049
G1 X58.579 Y77.016 E43.69194
G1 X58.991 Y76.51 E43.71365
G1 X59.064 Y76.431 E43.71722
G1 X59.279 Y76.212 E43.72743
G1 X59.435 Y76.062 E43.73463
G1 X59.926 Y75.645 E43.75605
M204 S5000
M205 X30 Y30
G0 F3600 X63.116 Y80
M204 S500
M205 X20 Y20
;TYPE:SUPPORT
G1 F1800 X65.003 Y80 E43.81882
G1 X65.003 Y155 E46.31333
G1 X63.116 Y155 E46.37609
G1 X63 Y154.884 E46.38154
G1 X63 Y80.116 E48.86834
G1 X63.116 Y80 E48.87379
M204 S5000
M205 X30 Y30
G0 F3600 X64.008 Y80.16
M204 S500
M205 X20 Y20
G1 F1800 X64.008 Y154.84 E51.35766
M204 S5000
M205 X30 Y30
G0 F3600 X64.842 Y154.686
M204 S500
M205 X20 Y20
G1 F1800 X63.159 Y154.686 E51.41364
M204 S5000
M205 X30 Y30
G0 F3600 X63.159 Y152.019
M204 S500
M205 X20 Y20
G1 F1800 X64.842 Y152.019 E51.46962
M204 S5000
M205 X30 Y30
G0 F3600 X64.842 Y149.352
M204 S500
M205 X20 Y20
G1 F1800 X63.159 Y149.352 E51.52559
M204 S5000
M205 X30 Y30
G0 F3600 X63.159 Y146.685
M204 S500
M205 X20 Y20
G1 F1800 X64.842 Y146.685 E51.58157
M204 S5000
M205 X30 Y30
G0 F3600 X64.842 Y144.018
M204 S500
M205 X20 Y20
G1 F1800 X63.159 Y144.018 E51.63755
M204 S5000
M205 X30 Y30
G0 F3600 X63.159 Y141.351
M204 S500
M205 X20 Y20
G1 F1800 X64.842 Y141.351 E51.69352
M204 S5000
M205 X30 Y30
G0 F3600 X64.842 Y138.684
M204 S500
M205 X20 Y20
G1 F1800 X63.159 Y138.684 E51.7495
M204 S5000
M205 X30 Y30
G0 F3600 X63.159 Y136.017
M204 S500
M205 X20 Y20
G1 F1800 X64.842 Y136.017 E51.80548
M204 S5000
M205 X30 Y30
G0 F3600 X64.842 Y133.35
M204 S500
M205 X20 Y20
G1 F1800 X63.159 Y133.35 E51.86145
M204 S5000
M205 X30 Y30
G0 F3600 X63.159 Y130.683
M204 S500
M205 X20 Y20
G1 F1800 X64.842 Y130.683 E51.91743
M204 S5000
M205 X30 Y30
G0 F3600 X64.842 Y128.016
M204 S500
M205 X20 Y20
G1 F1800 X63.159 Y128.016 E51.97341
M204 S5000
M205 X30 Y30
G0 F3600 X63.159 Y125.349
M204 S500
M205 X20 Y20
G1 F1800 X64.842 Y125.349 E52.02938
M204 S5000
M205 X30 Y30
G0 F3600 X64.842 Y122.682
M204 S500
M205 X20 Y20
G1 F1800 X63.159 Y122.682 E52.08536
M204 S5000
M205 X30 Y30
G0 F3600 X63.159 Y120.015
M204 S500
M205 X20 Y20
G1 F1800 X64.842 Y120.015 E52.14134
M204 S5000
M205 X30 Y30
G0 F3600 X64.842 Y117.348
M204 S500
M205 X20 Y20
G1 F1800 X63.159 Y117.348 E52.19731
M204 S5000
M205 X30 Y30
G0 F3600 X63.159 Y114.681
M204 S500
M205 X20 Y20
G1 F1800 X64.842 Y114.681 E52.25329
M204 S5000
M205 X30 Y30
G0 F3600 X64.842 Y112.014
M204 S500
M205 X20 Y20
G1 F1800 X63.159 Y112.014 E52.30927
M204 S5000
M205 X30 Y30
G0 F3600 X63.159 Y109.347
M204 S500
M205 X20 Y20
G1 F1800 X64.842 Y109.347 E52.36524
M204 S5000
M205 X30 Y30
G0 F3600 X64.842 Y106.68
M204 S500
M205 X20 Y20
G1 F1800 X63.159 Y106.68 E52.42122
M204 S5000
M205 X30 Y30
G0 F3600 X63.159 Y104.013
M204 S500
M205 X20 Y20
G1 F1800 X64.842 Y104.013 E52.4772
M204 S5000
M205 X30 Y30
G0 F3600 X64.842 Y101.346
M204 S500
M205 X20 Y20
G1 F1800 X63.159 Y101.346 E52.53317
M204 S5000
M205 X30 Y30
G0 F3600 X63.159 Y98.679
M204 S500
M205 X20 Y20
G1 F1800 X64.842 Y98.679 E52.58915
M204 S5000
M205 X30 Y30
G0 F3600 X64.842 Y96.012
M204 S500
M205 X20 Y20
G1 F1800 X63.159 Y96.012 E52.64513
M204 S5000
M205 X30 Y30
G0 F3600 X63.159 Y93.345
M204 S500
M205 X20 Y20
G1 F1800 X64.842 Y93.345 E52.7011
M204 S5000
M205 X30 Y30
G0 F3600 X64.842 Y90.678
M204 S500
M205 X20 Y20
G1 F1800 X63.159 Y90.678 E52.75708
M204 S5000
M205 X30 Y30
G0 F3600 X63.159 Y88.011
M204 S500
M205 X20 Y20
G1 F1800 X64.842 Y88.011 E52.81306
M204 S5000
M205 X30 Y30
G0 F3600 X64.842 Y85.344
M204 S500
M205 X20 Y20
G1 F1800 X63.159 Y85.344 E52.86904
M204 S5000
M205 X30 Y30
G0 F3600 X63.159 Y82.677
M204 S500
M205 X20 Y20
G1 F1800 X64.842 Y82.677 E52.92501
M204 S5000
M205 X30 Y30
G1 F2400 E47.92501
G0 F3600 X65.242 Y79.843
G0 X65.746 Y79.339
G0 X96.157 Y79.339
G0 X101 Y80.116
M204 S500
M205 X20 Y20
G1 F2400 E52.92501
G1 F1800 X101.116 Y80 E52.93047
G1 X103.003 Y80 E52.99323
G1 X103.003 Y155 E55.48774
G1 X101.116 Y155 E55.5505
G1 X101 Y154.884 E55.55596
G1 X101 Y80.116 E58.04275
M204 S5000
M205 X30 Y30
G0 F3600 X101.346 Y80.16
M204 S500
M205 X20 Y20
G1 F1800 X101.346 Y154.84 E60.52662
M204 S5000
M205 X30 Y30
G0 F3600 X101.159 Y154.686
M204 S500
M205 X20 Y20
G1 F1800 X102.842 Y154.686 E60.5826
M204 S5000
M205 X30 Y30
G0 F3600 X102.842 Y152.019
M204 S500
M205 X20 Y20
G1 F1800 X101.159 Y152.019 E60.63857
M204 S5000
M205 X30 Y30
G0 F3600 X101.159 Y149.352
M204 S500
M205 X20 Y20
G1 F1800 X102.842 Y149.352 E60.69455
M204 S5000
M205 X30 Y30
G0 F3600 X102.842 Y146.685
M204 S500
M205 X20 Y20
G1 F1800 X101.159 Y146.685 E60.75053
M204 S5000
M205 X30 Y30
G0 F3600 X101.159 Y144.018
M204 S500
M205 X20 Y20
G1 F1800 X102.842 Y144.018 E60.8065
M204 S5000
M205 X30 Y30
G0 F3600 X102.842 Y141.351
M204 S500
M205 X20 Y20
G1 F1800 X101.159 Y141.351 E60.86248
M204 S5000
M205 X30 Y30
G0 F3600 X101.159 Y138.684
M204 S500
M205 X20 Y20
G1 F1800 X102.842 Y138.684 E60.91846
M204 S5000
M205 X30 Y30
G0 F3600 X102.842 Y136.017
M204 S500
M205 X20 Y20
G1 F1800 X101.159 Y136.017 E60.97443
M204 S5000
M205 X30 Y30
G0 F3600 X101.159 Y133.35
M204 S500
M205 X20 Y20
G1 F1800 X102.842 Y133.35 E61.03041
M204 S5000
M205 X30 Y30
G0 F3600 X102.842 Y130.683
M204 S500
M205 X20 Y20
G1 F1800 X101.159 Y130.683 E61.08639
M204 S5000
M205 X30 Y30
G0 F3600 X101.159 Y128.016
M204 S500
M205 X20 Y20
G1 F1800 X102.842 Y128.016 E61.14236
M204 S5000
M205 X30 Y30
G0 F3600 X102.842 Y125.349
M204 S500
M205 X20 Y20
G1 F1800 X101.159 Y125.349 E61.19834
M204 S5000
M205 X30 Y30
G0 F3600 X101.159 Y122.682
M204 S500
M205 X20 Y20
G1 F1800 X102.842 Y122.682 E61.25432
M204 S5000
M205 X30 Y30
G0 F3600 X102.842 Y120.015
M204 S500
M205 X20 Y20
G1 F1800 X101.159 Y120.015 E61.31029
M204 S5000
M205 X30 Y30
G0 F3600 X101.16 Y117.348
M204 S500
M205 X20 Y20
G1 F1800 X102.843 Y117.348 E61.36627
M204 S5000
M205 X30 Y30
G0 F3600 X102.843 Y114.681
M204 S500
M205 X20 Y20
G1 F1800 X101.16 Y114.681 E61.42225
M204 S5000
M205 X30 Y30
G0 F3600 X101.16 Y112.014
M204 S500
M205 X20 Y20
G1 F1800 X102.843 Y112.014 E61.47822
M204 S5000
M205 X30 Y30
G0 F3600 X102.843 Y109.347
M204 S500
M205 X20 Y20
G1 F1800 X101.16 Y109.347 E61.5342
M204 S5000
M205 X30 Y30
G0 F3600 X101.16 Y106.68
M204 S500
M205 X20 Y20
G1 F1800 X102.843 Y106.68 E61.59018
M204 S5000
M205 X30 Y30
G0 F3600 X102.843 Y104.013
M204 S500
M205 X20 Y20
G1 F1800 X101.16 Y104.013 E61.64616
M204 S5000
M205 X30 Y30
G0 F3600 X101.16 Y101.346
M204 S500
M205 X20 Y20
G1 F1800 X102.843 Y101.346 E61.70213
M204 S5000
M205 X30 Y30
G0 F3600 X102.843 Y98.679
M204 S500
M205 X20 Y20
G1 F1800 X101.16 Y98.679 E61.75811
M204 S5000
M205 X30 Y30
G0 F3600 X101.16 Y96.012
M204 S500
M205 X20 Y20
G1 F1800 X102.843 Y96.012 E61.81409
M204 S5000
M205 X30 Y30
G0 F3600 X102.843 Y93.345
M204 S500
M205 X20 Y20
G1 F1800 X101.16 Y93.345 E61.87006
M204 S5000
M205 X30 Y30
G0 F3600 X101.16 Y90.678
M204 S500
M205 X20 Y20
