;FLAVOR:Marlin
;TIME:10936
;Filament used: 21.024m
;Layer height: 0.3
;Generated with Cura_SteamEngine 3.6.0
M140 S60
M105
M190 S60
M104 S200
M105
M109 S200
M82 ;absolute extrusion mode
; Ender 3 Custom Start G-code
G28 ; Home all axes
G92 E0 ; Reset Extruder
G1 Z2.0 F3000 ; Move Z Axis up little to prevent scratching of Heat Bed
G1 X0.1 Y20 Z0.3 F5000.0 ; Move to start position
G1 X0.1 Y200.0 Z0.3 F1500.0 E15 ; Draw the first line
G1 X0.4 Y200.0 Z0.3 F5000.0 ; Move to side a little
G1 X0.4 Y20 Z0.3 F1500.0 E30 ; Draw the second line
G92 E0 ; Reset Extruder
G1 Z2.0 F3000 ; Move Z Axis up little to prevent scratching of Heat Bed
; End of custom start GCode
G92 E0
G1 F2400 E-5
;LAYER_COUNT:111
;LAYER:0
M107
M204 S5000
M205 X30 Y30
G0 F3600 X50.586 Y74.602 Z0.2
M204 S500
M205 X20 Y20
;TYPE:SKIRT
G1 F2400 E0
G1 F1800 X51.211 Y74.253 E0.02381
G1 X51.871 Y73.977 E0.0476
G1 X52.557 Y73.776 E0.07138
G1 X53.262 Y73.653 E0.09518
G1 X54.01 Y73.609 E0.1201
G1 X92.991 Y73.61 E1.41662
G1 X93.927 Y73.679 E1.44783
G1 X98.092 Y74.295 E1.58787
G1 X103.411 Y74.823 E1.76565
G1 X108.689 Y75.046 E1.94135
G1 X114.015 Y74.971 E2.11851
G1 X117.681 Y74.764 E2.24064
G1 X118.043 Y74.754 E2.25268
G1 X156.704 Y74.763 E3.53855
G1 X157.419 Y74.803 E3.56237
G1 X158.124 Y74.923 E3.58616
G1 X158.811 Y75.12 E3.60993
G1 X159.472 Y75.393 E3.63371
G1 X160.099 Y75.738 E3.65752
G1 X160.683 Y76.151 E3.68131
G1 X161.217 Y76.626 E3.70508
G1 X161.695 Y77.159 E3.72889
G1 X162.111 Y77.741 E3.75268
G1 X162.459 Y78.365 E3.77645
G1 X162.735 Y79.025 E3.80024
G1 X162.936 Y79.712 E3.82405
G1 X163.059 Y80.416 E3.84782
G1 X163.103 Y81.177 E3.87317
G1 X163.085 Y89.331 E4.14438
G1 X163.306 Y94.942 E4.33114
G1 X163.311 Y95.197 E4.33963
G1 X163.291 Y145.32 E6.00672
G1 X163.286 Y145.578 E6.01531
G1 X163.08 Y150.628 E6.18341
G1 X163.102 Y156.119 E6.36604
G1 X163.065 Y156.833 E6.38982
G1 X162.948 Y157.539 E6.41362
G1 X162.754 Y158.227 E6.4374
G1 X162.484 Y158.889 E6.46118
G1 X162.141 Y159.518 E6.48501
G1 X161.731 Y160.103 E6.50877
G1 X161.258 Y160.64 E6.53257
G1 X160.728 Y161.12 E6.55635
G1 X160.148 Y161.538 E6.58013
G1 X159.524 Y161.889 E6.60394
G1 X158.866 Y162.168 E6.62771
G1 X158.18 Y162.372 E6.65152
G1 X157.476 Y162.498 E6.6753
G1 X156.702 Y162.545 E6.7011
G1 X117.709 Y162.543 E7.99801
G1 X116.856 Y162.486 E8.02644
G1 X109.926 Y161.555 E8.25901
G1 X104.664 Y161.182 E8.43446
G1 X99.384 Y161.108 E8.61009
G1 X93.279 Y161.384 E8.81335
G1 X92.988 Y161.391 E8.82303
G1 X54.007 Y161.38 E10.11955
G1 X53.293 Y161.34 E10.14333
G1 X52.588 Y161.22 E10.16712
G1 X51.9 Y161.023 E10.19092
G1 X51.239 Y160.75 E10.21471
G1 X50.613 Y160.405 E10.23848
G1 X50.029 Y159.992 E10.26227
G1 X49.494 Y159.516 E10.28609
G1 X49.016 Y158.984 E10.30987
G1 X48.601 Y158.402 E10.33365
G1 X48.253 Y157.777 E10.35744
G1 X47.976 Y157.117 E10.38125
G1 X47.776 Y156.431 E10.40501
G1 X47.653 Y155.726 E10.42882
G1 X47.609 Y154.98 E10.45367
G1 X47.61 Y80.009 E12.94722
G1 X47.65 Y79.295 E12.971
G1 X47.769 Y78.59 E12.99478
G1 X47.967 Y77.902 E13.01859
G1 X48.24 Y77.241 E13.04238
G1 X48.585 Y76.614 E13.06618
G1 X48.997 Y76.03 E13.08995
G1 X49.472 Y75.496 E13.11373
G1 X50.004 Y75.017 E13.13753
G1 X50.586 Y74.602 E13.16131
M204 S5000
M205 X30 Y30
G0 F3600 X50.97 Y74.836
M204 S500
M205 X20 Y20
G1 F1800 X51.586 Y74.521 E13.18432
G1 X52.234 Y74.278 E13.20734
G1 X52.907 Y74.111 E13.2304
G1 X53.594 Y74.023 E13.25344
G1 X54.01 Y74.009 E13.26728
G1 X92.991 Y74.01 E14.5638
G1 X93.869 Y74.075 E14.59308
G1 X98.039 Y74.692 E14.73328
G1 X103.371 Y75.221 E14.9115
G1 X108.696 Y75.446 E15.08877
G1 X114.044 Y75.371 E15.26666
G1 X117.704 Y75.164 E15.38858
G1 X118.043 Y75.154 E15.39986
G1 X156.704 Y75.163 E16.68573
G1 X157.396 Y75.203 E16.70879
G1 X158.078 Y75.323 E16.73182
G1 X158.742 Y75.52 E16.75486
G1 X159.378 Y75.792 E16.77786
G1 X159.979 Y76.137 E16.80091
G1 X160.537 Y76.548 E16.82396
G1 X161.043 Y77.02 E16.84698
G1 X161.492 Y77.548 E16.87003
G1 X161.876 Y78.124 E16.89306
G1 X162.192 Y78.74 E16.91608
G1 X162.435 Y79.389 E16.93913
G1 X162.601 Y80.061 E16.96215
G1 X162.689 Y80.748 E16.98519
G1 X162.703 Y81.176 E16.99943
G1 X162.685 Y89.346 E17.27117
G1 X162.906 Y94.958 E17.45797
G1 X162.911 Y95.196 E17.46589
G1 X162.891 Y145.319 E19.13299
G1 X162.886 Y145.562 E19.14107
G1 X162.68 Y150.613 E19.30921
G1 X162.702 Y156.121 E19.4924
G1 X162.665 Y156.812 E19.51542
G1 X162.548 Y157.495 E19.53847
G1 X162.354 Y158.159 E19.56148
G1 X162.084 Y158.797 E19.58452
G1 X161.743 Y159.4 E19.60756
G1 X161.334 Y159.959 E19.6306
G1 X160.864 Y160.467 E19.65361
G1 X160.338 Y160.918 E19.67666
G1 X159.764 Y161.305 E19.69968
G1 X159.149 Y161.624 E19.72273
G1 X158.501 Y161.869 E19.74577
G1 X157.829 Y162.038 E19.76882
G1 X157.143 Y162.129 E19.79183
G1 X156.702 Y162.145 E19.80651
G1 X117.709 Y162.143 E21.10342
G1 X116.91 Y162.09 E21.13005
G1 X109.962 Y161.156 E21.36323
G1 X104.68 Y160.783 E21.53934
G1 X99.388 Y160.708 E21.71537
G1 X93.261 Y160.985 E21.91937
G1 X92.988 Y160.991 E21.92845
G1 X54.007 Y160.98 E23.22496
G1 X53.316 Y160.94 E23.24798
G1 X52.634 Y160.82 E23.27101
G1 X51.97 Y160.623 E23.29405
G1 X51.333 Y160.35 E23.3171
G1 X50.732 Y160.006 E23.34013
G1 X50.175 Y159.595 E23.36316
G1 X49.669 Y159.123 E23.38617
G1 X49.22 Y158.595 E23.40922
G1 X48.836 Y158.019 E23.43225
G1 X48.52 Y157.403 E23.45528
G1 X48.277 Y156.754 E23.47833
G1 X48.111 Y156.082 E23.50135
G1 X48.023 Y155.395 E23.52438
G1 X48.009 Y154.98 E23.5382
G1 X48.01 Y80.009 E26.03174
G1 X48.05 Y79.318 E26.05476
G1 X48.169 Y78.635 E26.07782
G1 X48.367 Y77.972 E26.10083
G1 X48.639 Y77.335 E26.12387
G1 X48.983 Y76.734 E26.1469
G1 X49.394 Y76.176 E26.16995
G1 X49.866 Y75.67 E26.19297
G1 X50.394 Y75.221 E26.21602
G1 X50.97 Y74.836 E26.23907
M204 S5000
M205 X30 Y30
G0 F3600 X50.782 Y75.433
M204 S500
M205 X20 Y20
G1 F1800 X51.35 Y75.081 E26.26129
G1 X51.957 Y74.799 E26.28355
G1 X52.593 Y74.591 E26.30581
G1 X53.249 Y74.461 E26.32805
G1 X54.01 Y74.409 E26.35342
G1 X92.991 Y74.41 E27.64993
G1 X93.81 Y74.47 E27.67725
G1 X98.002 Y75.09 E27.81819
G1 X103.349 Y75.621 E27.99691
G1 X108.685 Y75.847 E28.17454
G1 X114.048 Y75.771 E28.35293
G1 X117.726 Y75.563 E28.47546
G1 X118.043 Y75.554 E28.48601
G1 X156.704 Y75.563 E29.77188
G1 X157.372 Y75.603 E29.79414
G1 X158.03 Y75.723 E29.81638
G1 X158.67 Y75.92 E29.83865
G1 X159.281 Y76.192 E29.8609
G1 X159.855 Y76.535 E29.88314
G1 X160.385 Y76.944 E29.90541
G1 X160.862 Y77.413 E29.92765
G1 X161.279 Y77.936 E29.9499
G1 X161.632 Y78.504 E29.97214
G1 X161.914 Y79.111 E29.99441
G1 X162.121 Y79.747 E30.01665
G1 X162.251 Y80.403 E30.03889
G1 X162.303 Y81.175 E30.06463
G1 X162.285 Y89.338 E30.33613
G1 X162.507 Y94.974 E30.52373
G1 X162.511 Y95.196 E30.53112
G1 X162.491 Y145.319 E32.19822
G1 X162.486 Y145.546 E32.20577
G1 X162.279 Y150.599 E32.37397
G1 X162.302 Y156.122 E32.55767
G1 X162.265 Y156.79 E32.57992
G1 X162.148 Y157.449 E32.60218
G1 X161.954 Y158.089 E32.62442
G1 X161.684 Y158.702 E32.6467
G1 X161.344 Y159.277 E32.66892
G1 X160.937 Y159.809 E32.6912
G1 X160.47 Y160.288 E32.71345
G1 X159.949 Y160.707 E32.73569
G1 X159.382 Y161.062 E32.75794
G1 X158.776 Y161.347 E32.78021
G1 X158.141 Y161.557 E32.80246
G1 X157.486 Y161.69 E32.82469
G1 X156.702 Y161.745 E32.85083
G1 X117.709 Y161.743 E34.14774
G1 X116.963 Y161.693 E34.17261
G1 X110.011 Y160.759 E34.40591
G1 X104.696 Y160.383 E34.58313
G1 X99.376 Y160.307 E34.76009
G1 X93.243 Y160.585 E34.96428
G1 X92.988 Y160.591 E34.97277
G1 X54.007 Y160.58 E36.26928
G1 X53.34 Y160.54 E36.2915
G1 X52.681 Y160.42 E36.31378
G1 X52.042 Y160.223 E36.33602
G1 X51.431 Y159.951 E36.35827
G1 X50.856 Y159.608 E36.38054
G1 X50.327 Y159.199 E36.40278
G1 X49.85 Y158.73 E36.42503
G1 X49.432 Y158.207 E36.44729
G1 X49.08 Y157.638 E36.46955
G1 X48.798 Y157.032 E36.49178
G1 X48.591 Y156.396 E36.51402
G1 X48.461 Y155.739 E36.5363
G1 X48.409 Y154.98 E36.5616
G1 X48.41 Y80.009 E39.05515
G1 X48.45 Y79.341 E39.07741
G1 X48.569 Y78.683 E39.09965
G1 X48.766 Y78.043 E39.12192
G1 X49.038 Y77.432 E39.14416
G1 X49.381 Y76.858 E39.1664
G1 X49.79 Y76.328 E39.18867
G1 X50.259 Y75.851 E39.21092
G1 X50.782 Y75.433 E39.23319
M204 S5000
M205 X30 Y30
G0 F3600 X51.167 Y75.655
M204 S500
M205 X20 Y20
G1 F1800 X51.728 Y75.336 E39.25465
G1 X52.324 Y75.09 E39.2761
G1 X52.945 Y74.919 E39.29752
G1 X53.583 Y74.827 E39.31896
G1 X54.01 Y74.809 E39.33318
G1 X92.991 Y74.81 E40.62969
G1 X93.752 Y74.866 E40.65507
G1 X97.947 Y75.486 E40.79611
G1 X103.328 Y76.021 E40.97597
G1 X108.673 Y76.247 E41.1539
G1 X114.053 Y76.171 E41.33286
G1 X117.749 Y75.962 E41.45598
G1 X118.043 Y75.954 E41.46577
G1 X156.704 Y75.963 E42.75164
G1 X157.348 Y76.003 E42.7731
G1 X157.981 Y76.123 E42.79452
G1 X158.595 Y76.319 E42.81596
G1 X159.18 Y76.591 E42.83742
G1 X159.727 Y76.932 E42.85886
G1 X160.227 Y77.339 E42.8803
G1 X160.673 Y77.804 E42.90173
G1 X161.058 Y78.321 E42.92317
G1 X161.376 Y78.882 E42.94462
G1 X161.622 Y79.478 E42.96606
G1 X161.793 Y80.1 E42.98752
G1 X161.886 Y80.738 E43.00896
G1 X161.903 Y81.174 E43.02348
G1 X161.885 Y89.353 E43.29551
G1 X162.107 Y94.99 E43.48314
G1 X162.111 Y95.196 E43.49
G1 X162.091 Y145.319 E45.15709
G1 X162.087 Y145.529 E45.16408
G1 X161.88 Y150.606 E45.33308
G1 X161.902 Y156.124 E45.51661
G1 X161.865 Y156.767 E45.53804
G1 X161.748 Y157.401 E45.55948
G1 X161.554 Y158.016 E45.58093
G1 X161.285 Y158.602 E45.60237
G1 X160.946 Y159.15 E45.6238
G1 X160.541 Y159.652 E45.64526
G1 X160.078 Y160.1 E45.66669
G1 X159.562 Y160.488 E45.68816
G1 X159.003 Y160.808 E45.70958
G1 X158.408 Y161.057 E45.73103
G1 X157.787 Y161.23 E45.75248
G1 X157.15 Y161.326 E45.7739
G1 X156.702 Y161.345 E45.78882
G1 X117.709 Y161.343 E47.08573
G1 X117.016 Y161.297 E47.10883
G1 X110.045 Y160.36 E47.34277
G1 X104.712 Y159.983 E47.52059
G1 X99.38 Y159.907 E47.69795
G1 X93.225 Y160.186 E47.90288
G1 X92.989 Y160.191 E47.91073
G1 X54.008 Y160.18 E49.20724
G1 X53.364 Y160.14 E49.2287
G1 X52.731 Y160.02 E49.25013
G1 X52.117 Y159.823 E49.27158
G1 X51.532 Y159.552 E49.29302
G1 X50.985 Y159.21 E49.31448
G1 X50.485 Y158.804 E49.3359
G1 X50.039 Y158.338 E49.35735
G1 X49.654 Y157.821 E49.37879
G1 X49.336 Y157.261 E49.40021
G1 X49.09 Y156.665 E49.42166
G1 X48.919 Y156.043 E49.44311
G1 X48.826 Y155.405 E49.46456
G1 X48.809 Y154.98 E49.4787
G1 X48.81 Y80.009 E51.97225
G1 X48.85 Y79.366 E51.99368
G1 X48.969 Y78.732 E52.01513
G1 X49.166 Y78.118 E52.03658
G1 X49.437 Y77.533 E52.05802
G1 X49.779 Y76.986 E52.07948
G1 X50.185 Y76.486 E52.1009
G1 X50.651 Y76.04 E52.12236
G1 X51.167 Y75.655 E52.14377
M204 S5000
M205 X30 Y30
G1 F2400 E47.14377
G0 F3600 X93.157 Y79.339
G0 X93.661 Y79.843
G0 X93.661 Y84.403
G0 X93.208 Y84.856
G0 X70.999 Y93.899
M204 S500
M205 X20 Y20
;TYPE:SUPPORT
G1 F2400 E52.14377
G1 F1800 X93 Y93.898 E52.87552
G1 X93 Y143.702 E54.53201
G1 X70.498 Y143.702 E55.28043
G1 X70.099 Y144.101 E55.2992
G1 X70.099 Y147.302 E55.40567
G1 X66.198 Y147.302 E55.53541
G1 X66.198 Y132.101 E56.041
G1 X70.355 Y132.101 E56.17926
G1 X70.999 Y131.457 E56.20955
G1 X70.999 Y93.899 E57.45874
M204 S5000
M205 X30 Y30
G0 F3600 X72.009 Y94.058
M204 S500
M205 X20 Y20
G1 F1800 X72.009 Y143.542 E59.10458
M204 S5000
M205 X30 Y30
G0 F3600 X69.954 Y144.018
M204 S500
M205 X20 Y20
G1 F1800 X66.357 Y144.018 E59.22422
M204 S5000
M205 X30 Y30
G0 F3600 X66.357 Y141.351
M204 S500
M205 X20 Y20
G1 F1800 X92.839 Y141.351 E60.10502
M204 S5000
M205 X30 Y30
G0 F3600 X92.839 Y138.684
M204 S500
M205 X20 Y20
G1 F1800 X66.357 Y138.684 E60.98581
M204 S5000
M205 X30 Y30
G0 F3600 X66.357 Y136.017
M204 S500
M205 X20 Y20
G1 F1800 X92.839 Y136.017 E61.8666
M204 S5000
M205 X30 Y30
G0 F3600 X92.839 Y133.35
M204 S500
M205 X20 Y20
G1 F1800 X66.357 Y133.35 E62.7474
M204 S5000
M205 X30 Y30
G0 F3600 X66.675 Y132.261
M204 S500
M205 X20 Y20
G1 F1800 X66.675 Y147.142 E63.24234
M204 S5000
M205 X30 Y30
G0 F3600 X66.357 Y146.685
M204 S500
M205 X20 Y20
G1 F1800 X69.938 Y146.685 E63.36145
M204 S5000
M205 X30 Y30
G0 F3600 X69.342 Y147.142
M204 S500
M205 X20 Y20
G1 F1800 X69.342 Y132.261 E63.85639
M204 S5000
M205 X30 Y30
G1 F2400 E58.85639
G0 F3600 X71.158 Y130.683
M204 S500
M205 X20 Y20
G1 F2400 E63.85639
G1 F1800 X92.839 Y130.683 E64.57751
M204 S5000
M205 X30 Y30
G0 F3600 X92.839 Y128.016
M204 S500
M205 X20 Y20
G1 F1800 X71.158 Y128.016 E65.29862
M204 S5000
M205 X30 Y30
G0 F3600 X71.158 Y125.349
M204 S500
M205 X20 Y20
G1 F1800 X92.839 Y125.349 E66.01973
M204 S5000
M205 X30 Y30
G0 F3600 X92.839 Y122.682
M204 S500
M205 X20 Y20
G1 F1800 X71.158 Y122.682 E66.74084
M204 S5000
M205 X30 Y30
G0 F3600 X71.158 Y120.015
M204 S500
M205 X20 Y20
G1 F1800 X92.839 Y120.015 E67.46196
M204 S5000
M205 X30 Y30
G0 F3600 X92.84 Y117.348
M204 S500
M205 X20 Y20
G1 F1800 X71.159 Y117.348 E68.18307
M204 S5000
M205 X30 Y30
G0 F3600 X71.159 Y114.681
M204 S500
M205 X20 Y20
G1 F1800 X92.84 Y114.681 E68.90418
M204 S5000
M205 X30 Y30
G0 F3600 X92.84 Y112.014
M204 S500
M205 X20 Y20
G1 F1800 X71.159 Y112.014 E69.6253
M204 S5000
M205 X30 Y30
G0 F3600 X71.159 Y109.347
M204 S500
M205 X20 Y20
G1 F1800 X92.84 Y109.347 E70.34641
M204 S5000
M205 X30 Y30
G0 F3600 X92.84 Y106.68
M204 S500
M205 X20 Y20
G1 F1800 X71.159 Y106.68 E71.06752
M204 S5000
M205 X30 Y30
G0 F3600 X71.159 Y104.013
M204 S500
M205 X20 Y20
G1 F1800 X92.84 Y104.013 E71.78864
M204 S5000
M205 X30 Y30
G0 F3600 X92.84 Y101.346
M204 S500
M205 X20 Y20
G1 F1800 X71.159 Y101.346 E72.50975
M204 S5000
M205 X30 Y30
G0 F3600 X71.159 Y98.679
M204 S500
M205 X20 Y20
G1 F1800 X92.84 Y98.679 E73.23086
M204 S5000
M205 X30 Y30
G0 F3600 X92.84 Y96.012
M204 S500
M205 X20 Y20
G1 F1800 X71.159 Y96.012 E73.95197
M204 S5000
M205 X30 Y30
G0 F3600 X74.676 Y94.058
M204 S500
M205 X20 Y20
G1 F1800 X74.676 Y143.542 E75.59782
M204 S5000
M205 X30 Y30
G0 F3600 X77.343 Y143.542
M204 S500
M205 X20 Y20
G1 F1800 X77.343 Y94.058 E77.24366
M204 S5000
M205 X30 Y30
G0 F3600 X80.01 Y94.058
M204 S500
M205 X20 Y20
G1 F1800 X80.01 Y143.542 E78.88951
M204 S5000
M205 X30 Y30
G0 F3600 X82.677 Y143.542
M204 S500
M205 X20 Y20
G1 F1800 X82.677 Y94.058 E80.53535
M204 S5000
M205 X30 Y30
G0 F3600 X85.344 Y94.058
M204 S500
M205 X20 Y20
G1 F1800 X85.344 Y143.542 E82.1812
M204 S5000
M205 X30 Y30
G0 F3600 X88.011 Y143.542
M204 S500
M205 X20 Y20
G1 F1800 X88.011 Y94.058 E83.82704
M204 S5000
M205 X30 Y30
G0 F3600 X90.678 Y94.058
M204 S500
M205 X20 Y20
G1 F1800 X90.678 Y143.542 E85.47289
M204 S5000
M205 X30 Y30
G1 F2400 E80.47289
G0 F3600 X117.555 Y156.815
G0 X156.869 Y156.815
G0 X157.373 Y156.311
G0 X157.373 Y154.351
G0 X156.869 Y153.847
G0 X133.968 Y148.695
G0 X129.91 Y148.456
M204 S500
M205 X20 Y20
G1 F2400 E85.47289
G1 F1800 X129.91 Y133.255 E85.97847
G1 X134.067 Y133.255 E86.11674
G1 X134.711 Y132.611 E86.14703
G1 X134.711 Y95.053 E87.39621
G1 X156.712 Y95.052 E88.12797
G1 X156.712 Y144.856 E89.78446
G1 X134.21 Y144.856 E90.53288
G1 X133.811 Y145.255 E90.55164
G1 X133.811 Y148.456 E90.65811
G1 X129.91 Y148.456 E90.78786
M204 S5000
M205 X30 Y30
G0 F3600 X130.683 Y148.296
M204 S500
M205 X20 Y20
G1 F1800 X130.683 Y133.415 E91.2828
M204 S5000
M205 X30 Y30
G0 F3600 X133.35 Y133.415
M204 S500
M205 X20 Y20
G1 F1800 X133.35 Y148.296 E91.77774
M204 S5000
M205 X30 Y30
G0 F3600 X133.651 Y146.685
M204 S500
M205 X20 Y20
G1 F1800 X130.069 Y146.685 E91.89688
M204 S5000
M205 X30 Y30
G0 F3600 X130.069 Y144.018
M204 S500
M205 X20 Y20
G1 F1800 X156.552 Y144.018 E92.77771
M204 S5000
M205 X30 Y30
G0 F3600 X154.686 Y144.696
M204 S500
M205 X20 Y20
G1 F1800 X154.686 Y95.212 E94.42356
M204 S5000
M205 X30 Y30
G0 F3600 X156.552 Y96.012
M204 S500
M205 X20 Y20
G1 F1800 X134.871 Y96.012 E95.14467
M204 S5000
M205 X30 Y30
G0 F3600 X136.017 Y95.212
M204 S500
M205 X20 Y20
G1 F1800 X136.017 Y144.696 E96.79051
M204 S5000
M205 X30 Y30
G0 F3600 X138.684 Y144.696
M204 S500
M205 X20 Y20
G1 F1800 X138.684 Y95.212 E98.43636
M204 S5000
M205 X30 Y30
G0 F3600 X141.351 Y95.212
M204 S500
M205 X20 Y20
G1 F1800 X141.351 Y144.696 E100.0822
M204 S5000
M205 X30 Y30
G0 F3600 X144.018 Y144.696
M204 S500
M205 X20 Y20
G1 F1800 X144.018 Y95.212 E101.72805
M204 S5000
M205 X30 Y30
G0 F3600 X146.685 Y95.212
M204 S500
M205 X20 Y20
G1 F1800 X146.685 Y144.696 E103.37389
M204 S5000
M205 X30 Y30
G0 F3600 X149.352 Y144.696
M204 S500
M205 X20 Y20
