;FLAVOR:Marlin
;TIME:5028
;Filament used: 5.78396m
;Layer height: 0.3
;MINX:87.6
;MINY:65.325
;MINZ:0.2
;MAXX:147.4
;MAXY:169.675
;MAXZ:21.2
;Generated with Cura_SteamEngine 4.1.0
M140 S60
M105
M190 S60
M104 S200
M105
M109 S200
M82 ;absolute extrusion mode
; Ender 3 Custom Start G-code
G28 ; Home all axes
G92 E0 ; Reset Extruder
G1 Z2.0 F3000 ; Move Z Axis up little to prevent scratching of Heat Bed
G1 X0.1 Y20 Z0.3 F5000.0 ; Move to start position
G1 X0.1 Y200.0 Z0.3 F1500.0 E15 ; Draw the first line
G1 X0.4 Y200.0 Z0.3 F5000.0 ; Move to side a little
G1 X0.4 Y20 Z0.3 F1500.0 E30 ; Draw the second line
G92 E0 ; Reset Extruder
G1 Z2.0 F3000 ; Move Z Axis up little to prevent scratching of Heat Bed
; End of custom start GCode
G92 E0
G92 E0
G1 F2400 E-5
;LAYER_COUNT:71
;LAYER:0
M107
M204 S500
M205 X10 Y10
G0 F3600 X89.05 Y67.688 Z0.2
;TYPE:SKIRT
G1 F2400 E0
G1 F1800 X89.533 Y67.16 E0.0238
G1 X90.071 Y66.689 E0.04758
G1 X90.659 Y66.281 E0.07139
G1 X91.288 Y65.941 E0.09517
G1 X91.952 Y65.674 E0.11897
G1 X92.641 Y65.482 E0.14276
G1 X93.347 Y65.368 E0.16655
G1 X93.83 Y65.337 E0.18264
G1 X94.151 Y65.328 E0.19333
G1 X94.33 Y65.325 E0.19928
G1 X140.293 Y65.325 E1.72802
G1 X140.385 Y65.326 E1.73108
G1 X141.083 Y65.336 E1.75429
G1 X141.796 Y65.386 E1.77807
G1 X142.5 Y65.515 E1.80187
G1 X143.184 Y65.723 E1.82565
G1 X143.841 Y66.005 E1.84943
G1 X144.463 Y66.359 E1.87323
G1 X145.041 Y66.78 E1.89702
G1 X145.569 Y67.263 E1.92082
G1 X146.039 Y67.801 E1.94458
G1 X146.447 Y68.389 E1.96838
G1 X146.786 Y69.019 E1.99218
G1 X147.053 Y69.682 E2.01595
G1 X147.244 Y70.372 E2.03976
G1 X147.357 Y71.078 E2.06354
G1 X147.388 Y71.555 E2.07944
G1 X147.397 Y71.875 E2.09009
G1 X147.4 Y72.055 E2.09608
G1 X147.4 Y162.618 E5.10821
G1 X147.391 Y163.345 E5.13239
G1 X147.342 Y164.059 E5.1562
G1 X147.214 Y164.763 E5.18
G1 X147.008 Y165.448 E5.20379
G1 X146.727 Y166.105 E5.22756
G1 X146.374 Y166.728 E5.25137
G1 X145.954 Y167.307 E5.27516
G1 X145.472 Y167.835 E5.29894
G1 X144.935 Y168.307 E5.32272
G1 X144.347 Y168.715 E5.34652
G1 X143.718 Y169.056 E5.37032
G1 X143.055 Y169.324 E5.39411
G1 X142.366 Y169.516 E5.4179
G1 X141.66 Y169.631 E5.44169
G1 X141.17 Y169.663 E5.45802
G1 X140.849 Y169.672 E5.4687
G1 X140.67 Y169.675 E5.47465
G1 X94.707 Y169.675 E7.00339
G1 X94.624 Y169.674 E7.00615
G1 X93.926 Y169.665 E7.02937
G1 X93.213 Y169.616 E7.05314
G1 X92.509 Y169.488 E7.07694
G1 X91.824 Y169.282 E7.10073
G1 X91.167 Y169 E7.12451
G1 X90.545 Y168.647 E7.1483
G1 X89.966 Y168.227 E7.17209
G1 X89.437 Y167.745 E7.19589
G1 X88.966 Y167.207 E7.21967
G1 X88.558 Y166.62 E7.24345
G1 X88.218 Y165.99 E7.26726
G1 X87.95 Y165.327 E7.29104
G1 X87.758 Y164.638 E7.31483
G1 X87.644 Y163.932 E7.33862
G1 X87.611 Y163.439 E7.35505
G1 X87.602 Y163.106 E7.36613
G1 X87.6 Y162.933 E7.37189
G1 X87.6 Y72.399 E10.38306
G1 X87.601 Y72.312 E10.38595
G1 X87.61 Y71.647 E10.40807
G1 X87.659 Y70.934 E10.43184
G1 X87.788 Y70.23 E10.45565
G1 X87.995 Y69.546 E10.47942
G1 X88.277 Y68.888 E10.50323
G1 X88.63 Y68.266 E10.52701
G1 X89.05 Y67.688 E10.55078
G0 F3600 X89.445 Y67.839
G1 F1800 X89.924 Y67.339 E10.57381
G1 X90.458 Y66.898 E10.59684
G1 X91.039 Y66.521 E10.61988
G1 X91.659 Y66.213 E10.6429
G1 X92.311 Y65.979 E10.66594
G1 X92.985 Y65.822 E10.68896
G1 X93.841 Y65.736 E10.71758
G1 X94.162 Y65.727 E10.72826
G1 X94.33 Y65.725 E10.73384
G1 X140.293 Y65.725 E12.26258
G1 X140.379 Y65.726 E12.26544
G1 X141.077 Y65.736 E12.28866
G1 X141.768 Y65.785 E12.3117
G1 X142.448 Y65.915 E12.33473
G1 X143.109 Y66.121 E12.35775
G1 X143.742 Y66.403 E12.3808
G1 X144.338 Y66.755 E12.40382
G1 X144.889 Y67.174 E12.42685
G1 X145.389 Y67.654 E12.4499
G1 X145.83 Y68.188 E12.47294
G1 X146.207 Y68.769 E12.49597
G1 X146.514 Y69.39 E12.51901
G1 X146.747 Y70.042 E12.54204
G1 X146.904 Y70.716 E12.56506
G1 X146.989 Y71.566 E12.59347
G1 X146.998 Y71.886 E12.60412
G1 X147 Y72.055 E12.60974
G1 X147 Y162.613 E15.62171
G1 X146.991 Y163.34 E15.64589
G1 X146.942 Y164.031 E15.66893
G1 X146.814 Y164.712 E15.69198
G1 X146.609 Y165.373 E15.715
G1 X146.329 Y166.006 E15.73802
G1 X145.977 Y166.603 E15.76107
G1 X145.56 Y167.156 E15.78411
G1 X145.081 Y167.656 E15.80714
G1 X144.548 Y168.098 E15.83017
G1 X143.967 Y168.476 E15.85322
G1 X143.347 Y168.784 E15.87625
G1 X142.696 Y169.019 E15.89926
G1 X142.021 Y169.177 E15.92232
G1 X141.159 Y169.264 E15.95114
G1 X140.838 Y169.273 E15.96182
G1 X140.67 Y169.275 E15.96741
G1 X94.63 Y169.275 E17.4987
G1 X93.932 Y169.266 E17.52192
G1 X93.241 Y169.217 E17.54496
G1 X92.56 Y169.088 E17.56801
G1 X91.899 Y168.883 E17.59103
G1 X91.266 Y168.602 E17.61407
G1 X90.669 Y168.251 E17.6371
G1 X90.117 Y167.833 E17.66013
G1 X89.617 Y167.354 E17.68316
G1 X89.175 Y166.82 E17.70622
G1 X88.798 Y166.24 E17.72922
G1 X88.49 Y165.619 E17.75228
G1 X88.255 Y164.968 E17.7753
G1 X88.098 Y164.293 E17.79835
G1 X88.011 Y163.428 E17.82726
G1 X88.002 Y163.095 E17.83834
G1 X88 Y162.933 E17.84373
G1 X88 Y72.399 E20.85491
G1 X88.001 Y72.318 E20.8576
G1 X88.01 Y71.653 E20.87972
G1 X88.059 Y70.962 E20.90276
G1 X88.187 Y70.282 E20.92578
G1 X88.394 Y69.62 E20.94884
G1 X88.675 Y68.987 E20.97188
G1 X89.027 Y68.391 E20.9949
G1 X89.445 Y67.839 E21.01793
G0 F3600 X89.839 Y67.996
G1 F1800 X90.314 Y67.526 E21.04016
G1 X90.843 Y67.115 E21.06244
G1 X91.416 Y66.77 E21.08468
G1 X92.027 Y66.497 E21.10694
G1 X92.665 Y66.298 E21.12917
G1 X93.323 Y66.176 E21.15143
G1 X93.852 Y66.136 E21.16907
G1 X94.173 Y66.127 E21.17975
G1 X94.33 Y66.125 E21.18498
G1 X140.293 Y66.125 E22.71371
G1 X140.373 Y66.126 E22.71637
G1 X141.071 Y66.136 E22.73959
G1 X141.738 Y66.185 E22.76183
G1 X142.395 Y66.314 E22.7841
G1 X143.031 Y66.52 E22.80634
G1 X143.639 Y66.801 E22.82862
G1 X144.208 Y67.151 E22.85084
G1 X144.732 Y67.568 E22.87311
G1 X145.202 Y68.044 E22.89536
G1 X145.612 Y68.572 E22.91759
G1 X145.957 Y69.146 E22.93987
G1 X146.23 Y69.757 E22.96212
G1 X146.428 Y70.396 E22.98437
G1 X146.549 Y71.054 E23.00663
G1 X146.589 Y71.578 E23.02411
G1 X146.598 Y71.898 E23.03475
G1 X146.6 Y72.055 E23.03998
G1 X146.6 Y162.608 E26.05178
G1 X146.591 Y163.335 E26.07596
G1 X146.542 Y164.003 E26.09824
G1 X146.415 Y164.659 E26.12046
G1 X146.21 Y165.296 E26.14272
G1 X145.931 Y165.904 E26.16497
G1 X145.581 Y166.474 E26.18722
G1 X145.165 Y166.999 E26.2095
G1 X144.69 Y167.47 E26.23174
G1 X144.163 Y167.881 E26.25397
G1 X143.59 Y168.227 E26.27624
G1 X142.98 Y168.501 E26.29848
G1 X142.341 Y168.701 E26.32075
G1 X141.683 Y168.823 E26.34301
G1 X141.148 Y168.864 E26.36085
G1 X140.827 Y168.873 E26.37153
G1 X140.67 Y168.875 E26.37675
G1 X94.635 Y168.875 E27.90789
G1 X93.937 Y168.866 E27.9311
G1 X93.27 Y168.817 E27.95335
G1 X92.613 Y168.689 E27.97561
G1 X91.976 Y168.484 E27.99787
G1 X91.368 Y168.204 E28.02013
G1 X90.798 Y167.854 E28.04238
G1 X90.274 Y167.438 E28.06463
G1 X89.803 Y166.963 E28.08688
G1 X89.392 Y166.435 E28.10913
G1 X89.047 Y165.862 E28.13138
G1 X88.773 Y165.252 E28.15362
G1 X88.573 Y164.613 E28.17589
G1 X88.452 Y163.955 E28.19814
G1 X88.411 Y163.417 E28.21609
G1 X88.402 Y163.084 E28.22717
G1 X88.4 Y162.933 E28.23219
G1 X88.4 Y72.399 E31.24336
G1 X88.401 Y72.323 E31.24589
G1 X88.41 Y71.658 E31.26801
G1 X88.459 Y70.991 E31.29026
G1 X88.587 Y70.334 E31.31252
G1 X88.792 Y69.698 E31.33474
G1 X89.072 Y69.09 E31.35701
G1 X89.423 Y68.52 E31.37927
G1 X89.839 Y67.996 E31.40152
G0 F3600 X89.819 Y68.654
G1 F1800 X90.232 Y68.16 E31.42294
G1 X90.703 Y67.72 E31.44438
G1 X91.226 Y67.342 E31.46584
G1 X91.79 Y67.031 E31.48726
G1 X92.389 Y66.793 E31.5087
G1 X93.013 Y66.63 E31.53015
G1 X93.863 Y66.536 E31.5586
G1 X94.184 Y66.527 E31.56928
G1 X94.33 Y66.525 E31.57413
G1 X140.293 Y66.525 E33.10287
G1 X140.367 Y66.526 E33.10533
G1 X141.065 Y66.536 E33.12855
G1 X141.708 Y66.585 E33.15
G1 X142.34 Y66.713 E33.17144
G1 X142.951 Y66.919 E33.19289
G1 X143.532 Y67.198 E33.21433
G1 X144.074 Y67.547 E33.23577
G1 X144.568 Y67.961 E33.2572
G1 X145.008 Y68.433 E33.27867
G1 X145.386 Y68.955 E33.3001
G1 X145.696 Y69.52 E33.32154
G1 X145.934 Y70.119 E33.34297
G1 X146.096 Y70.743 E33.36442
G1 X146.189 Y71.589 E33.39272
G1 X146.198 Y71.909 E33.40337
G1 X146.2 Y72.055 E33.40823
G1 X146.2 Y162.603 E36.41987
G1 X146.191 Y163.33 E36.44405
G1 X146.143 Y163.973 E36.46549
G1 X146.016 Y164.605 E36.48694
G1 X145.811 Y165.217 E36.5084
G1 X145.533 Y165.798 E36.52982
G1 X145.185 Y166.341 E36.55128
G1 X144.772 Y166.836 E36.57272
G1 X144.301 Y167.276 E36.59415
G1 X143.779 Y167.655 E36.61561
G1 X143.215 Y167.966 E36.63703
G1 X142.616 Y168.205 E36.65848
G1 X141.993 Y168.369 E36.67991
G1 X141.137 Y168.464 E36.70855
G1 X140.816 Y168.473 E36.71923
G1 X140.67 Y168.475 E36.72409
G1 X94.64 Y168.475 E38.25506
G1 X93.942 Y168.466 E38.27827
G1 X93.299 Y168.417 E38.29972
G1 X92.667 Y168.29 E38.32116
G1 X92.056 Y168.085 E38.3426
G1 X91.475 Y167.807 E38.36402
G1 X90.932 Y167.458 E38.38549
G1 X90.437 Y167.045 E38.40693
G1 X89.997 Y166.574 E38.42837
G1 X89.618 Y166.052 E38.44982
G1 X89.307 Y165.488 E38.47124
G1 X89.069 Y164.889 E38.49268
G1 X88.906 Y164.265 E38.51413
G1 X88.811 Y163.406 E38.54288
G1 X88.802 Y163.073 E38.55396
G1 X88.8 Y162.933 E38.55861
G1 X88.8 Y72.329 E41.57212
G1 X88.809 Y71.664 E41.59424
G1 X88.858 Y71.021 E41.61568
G1 X88.986 Y70.389 E41.63713
G1 X89.191 Y69.778 E41.65857
G1 X89.47 Y69.197 E41.68
G1 X89.819 Y68.654 E41.70147
G1 F2400 E36.70147
;MESH:Blind_Controller_Button_Surround_v2.stl
G0 F3600 X93.335 Y72.339
G0 X94.614 Y72.339
G0 X111.014 Y97.891
G0 X111.101 Y97.94
;TYPE:WALL-INNER
G1 F2400 E41.70147
G1 F1800 X110.947 Y98.326 E41.71529
G1 X110.9 Y98.686 E41.72737
G1 X110.9 Y108.768 E42.0627
G1 X110.957 Y109.161 E42.07591
G1 X111.122 Y109.544 E42.08978
G1 X111.38 Y109.872 E42.10366
G1 X111.715 Y110.124 E42.1176
G1 X112.101 Y110.278 E42.13142
G1 X112.461 Y110.325 E42.1435
G1 X122.543 Y110.325 E42.47883
G1 X122.936 Y110.268 E42.49203
G1 X123.319 Y110.103 E42.5059
G1 X123.647 Y109.845 E42.51978
G1 X123.899 Y109.51 E42.53373
G1 X124.053 Y109.124 E42.54755
G1 X124.1 Y108.764 E42.55962
G1 X124.1 Y98.682 E42.89495
G1 X124.043 Y98.289 E42.90816
G1 X123.878 Y97.906 E42.92203
G1 X123.62 Y97.578 E42.93591
G1 X123.285 Y97.326 E42.94985
G1 X122.899 Y97.172 E42.96368
G1 X122.539 Y97.125 E42.97575
G1 X112.457 Y97.125 E43.31108
G1 X112.064 Y97.182 E43.32429
G1 X111.681 Y97.347 E43.33816
G1 X111.353 Y97.605 E43.35204
G1 X111.101 Y97.94 E43.36598
G0 F3600 X111.014 Y97.891
G0 X110.861 Y98.684
G0 X110.861 Y106.853
G0 X111.014 Y115.891
G0 X111.101 Y115.94
G1 F1800 X110.947 Y116.326 E43.3798
G1 X110.9 Y116.686 E43.39188
G1 X110.9 Y126.768 E43.72721
G1 X110.957 Y127.161 E43.74042
G1 X111.122 Y127.544 E43.75429
G1 X111.38 Y127.872 E43.76817
G1 X111.715 Y128.124 E43.78211
G1 X112.101 Y128.278 E43.79593
G1 X112.461 Y128.325 E43.80801
G1 X122.543 Y128.325 E44.14334
G1 X122.936 Y128.268 E44.15654
G1 X123.319 Y128.103 E44.17041
G1 X123.647 Y127.845 E44.18429
G1 X123.899 Y127.51 E44.19824
G1 X124.053 Y127.124 E44.21206
G1 X124.1 Y126.764 E44.22413
G1 X124.1 Y116.682 E44.55946
G1 X124.043 Y116.289 E44.57267
G1 X123.878 Y115.906 E44.58654
G1 X123.62 Y115.578 E44.60042
G1 X123.285 Y115.326 E44.61436
G1 X122.899 Y115.172 E44.62819
G1 X122.539 Y115.125 E44.64026
G1 X112.457 Y115.125 E44.97559
G1 X112.064 Y115.182 E44.9888
G1 X111.681 Y115.347 E45.00267
G1 X111.353 Y115.605 E45.01655
G1 X111.101 Y115.94 E45.03049
G0 F3600 X111.014 Y115.891
G0 X110.861 Y116.684
G0 X110.861 Y126.77
G0 X114.08 Y148.92
G0 X114.15 Y148.85
G1 F1800 X120.85 Y148.85 E45.25333
G1 X120.85 Y142.15 E45.47618
G1 X114.15 Y142.15 E45.69902
G1 X114.15 Y148.85 E45.92186
G0 F3600 X114.08 Y148.92
G0 X94.67 Y162.605
G0 X94.6 Y162.675
G1 F1800 X94.6 Y72.325 E48.92692
G1 X140.4 Y72.325 E50.45023
G1 X140.4 Y162.675 E53.45528
G1 X94.6 Y162.675 E54.9786
G0 F3600 X94.2 Y163.075
;TYPE:WALL-OUTER
G1 F1800 X94.2 Y71.925 E58.01026
G1 X140.8 Y71.925 E59.56018
G1 X140.8 Y163.075 E62.59184
G1 X94.2 Y163.075 E64.14176
G0 F3600 X94.2 Y162.875
G0 X94.67 Y162.605
G0 X114.05 Y148.45
G0 X114.55 Y148.45
G1 F1800 X120.45 Y148.45 E64.338
G1 X120.45 Y142.55 E64.53423
G1 X114.55 Y142.55 E64.73047
G1 X114.55 Y148.45 E64.9267
G0 F3600 X114.75 Y148.45
G0 X114.75 Y148.95
G0 X110.861 Y126.77
G0 X110.861 Y116.684
G0 X111.325 Y115.578
G0 X112.103 Y115.076
G0 X112.174 Y115.57
G1 F1800 X111.887 Y115.694 E64.9371
G1 X111.641 Y115.887 E64.9475
G1 X111.453 Y116.138 E64.95793
G1 X111.337 Y116.428 E64.96832
G1 X111.3 Y116.712 E64.97785
G1 X111.3 Y126.739 E65.31135
G1 X111.345 Y127.051 E65.32183
G1 X111.469 Y127.338 E65.33223
G1 X111.662 Y127.584 E65.34263
G1 X111.913 Y127.772 E65.35306
G1 X112.203 Y127.888 E65.36345
G1 X112.487 Y127.925 E65.37297
G1 X122.514 Y127.925 E65.70647
G1 X122.826 Y127.88 E65.71696
G1 X123.113 Y127.756 E65.72736
G1 X123.359 Y127.563 E65.73775
G1 X123.547 Y127.312 E65.74819
G1 X123.663 Y127.022 E65.75857
G1 X123.7 Y126.738 E65.7681
G1 X123.7 Y116.711 E66.1016
G1 X123.655 Y116.399 E66.11208
G1 X123.531 Y116.112 E66.12248
G1 X123.338 Y115.866 E66.13288
G1 X123.087 Y115.678 E66.14331
G1 X122.797 Y115.562 E66.1537
G1 X122.513 Y115.525 E66.16323
G1 X112.486 Y115.525 E66.49673
G1 X112.174 Y115.57 E66.50721
G0 F3600 X111.991 Y115.649
G0 X111.795 Y115.19
G0 X110.861 Y108.77
G0 X110.861 Y98.684
G0 X111.325 Y97.578
G0 X112.103 Y97.076
G0 X112.174 Y97.57
G1 F1800 X111.887 Y97.694 E66.51761
G1 X111.641 Y97.887 E66.52801
G1 X111.453 Y98.138 E66.53844
G1 X111.337 Y98.428 E66.54883
G1 X111.3 Y98.712 E66.55835
G1 X111.3 Y108.739 E66.89185
G1 X111.345 Y109.051 E66.90234
G1 X111.469 Y109.338 E66.91273
G1 X111.662 Y109.584 E66.92313
G1 X111.913 Y109.772 E66.93356
G1 X112.203 Y109.888 E66.94395
G1 X112.487 Y109.925 E66.95348
G1 X122.514 Y109.925 E67.28698
G1 X122.826 Y109.88 E67.29746
G1 X123.113 Y109.756 E67.30786
G1 X123.359 Y109.563 E67.31826
G1 X123.547 Y109.312 E67.32869
G1 X123.663 Y109.022 E67.33908
G1 X123.7 Y108.738 E67.34861
G1 X123.7 Y98.711 E67.6821
G1 X123.655 Y98.399 E67.69259
G1 X123.531 Y98.112 E67.70299
G1 X123.338 Y97.866 E67.71339
G1 X123.087 Y97.678 E67.72382
G1 X122.797 Y97.562 E67.73421
G1 X122.513 Y97.525 E67.74373
G1 X112.486 Y97.525 E68.07723
G1 X112.174 Y97.57 E68.08772
G0 F3600 X111.991 Y97.649
G0 X111.48 Y97.009
;TYPE:SKIN
G1 F1800 X111.072 Y97.33 E68.10498
G1 X110.758 Y97.747 E68.12234
G1 X110.567 Y98.227 E68.13953
G1 X110.51 Y98.661 E68.15409
G1 X110.51 Y108.796 E68.49118
G1 X110.579 Y109.268 E68.50704
G1 X110.784 Y109.745 E68.52431
G1 X111.105 Y110.153 E68.54158
G1 X111.522 Y110.467 E68.55894
G1 X112.002 Y110.658 E68.57612
G1 X112.436 Y110.715 E68.59068
G1 X122.571 Y110.715 E68.92777
G1 X123.043 Y110.646 E68.94364
G1 X123.52 Y110.441 E68.96091
G1 X123.928 Y110.12 E68.97817
G1 X124.242 Y109.703 E68.99553
G1 X124.433 Y109.223 E69.01272
G1 X124.49 Y108.789 E69.02728
G1 X124.49 Y98.654 E69.36437
G1 X124.421 Y98.182 E69.38023
G1 X124.216 Y97.705 E69.3975
G1 X123.895 Y97.297 E69.41477
G1 X123.478 Y96.983 E69.43213
G1 X122.998 Y96.792 E69.44931
G1 X122.564 Y96.735 E69.46387
G1 X112.429 Y96.735 E69.80096
G1 X111.957 Y96.804 E69.81683
G1 X111.48 Y97.009 E69.8341
G0 F3600 X110.909 Y98.316
G0 X110.861 Y108.77
G0 X112.429 Y114.735
G1 F1800 X111.957 Y114.804 E69.84996
G1 X111.48 Y115.009 E69.86723
G1 X111.072 Y115.33 E69.8845
G1 X110.758 Y115.747 E69.90186
G1 X110.567 Y116.227 E69.91904
G1 X110.51 Y116.661 E69.9336
G1 X110.51 Y126.796 E70.27069
G1 X110.579 Y127.268 E70.28656
G1 X110.784 Y127.745 E70.30382
G1 X111.105 Y128.153 E70.32109
G1 X111.522 Y128.467 E70.33845
G1 X112.002 Y128.658 E70.35564
G1 X112.436 Y128.715 E70.37019
G1 X122.571 Y128.715 E70.70729
G1 X123.043 Y128.646 E70.72315
G1 X123.52 Y128.441 E70.74042
G1 X123.928 Y128.12 E70.75769
G1 X124.242 Y127.703 E70.77505
G1 X124.433 Y127.223 E70.79223
G1 X124.49 Y126.789 E70.80679
G1 X124.49 Y116.654 E71.14388
G1 X124.421 Y116.182 E71.15975
G1 X124.216 Y115.705 E71.17701
G1 X123.895 Y115.297 E71.19428
G1 X123.478 Y114.983 E71.21164
G1 X122.998 Y114.792 E71.22883
G1 X122.564 Y114.735 E71.24338
G1 X112.429 Y114.735 E71.58048
G0 F3600 X111.325 Y115.578
G0 X110.909 Y116.316
G0 X110.861 Y126.77
G0 X113.76 Y141.76
G1 F1800 X113.76 Y149.24 E71.82926
G1 X121.24 Y149.24 E72.07805
G1 X121.24 Y141.76 E72.32683
G1 X113.76 Y141.76 E72.57562
G0 F3600 X94.99 Y72.715
