;FLAVOR:Marlin
;TIME:9858
;Filament used: 11.2172m
;Layer height: 0.3
;MINX:87.6
;MINY:37.575
;MINZ:0.2
;MAXX:147.4
;MAXY:197.425
;MAXZ:32.9
;Generated with Cura_SteamEngine 4.1.0
M140 S60
M105
M190 S60
M104 S200
M105
M109 S200
M82 ;absolute extrusion mode
; Ender 3 Custom Start G-code
G28 ; Home all axes
G92 E0 ; Reset Extruder
G1 Z2.0 F3000 ; Move Z Axis up little to prevent scratching of Heat Bed
G1 X0.1 Y20 Z0.3 F5000.0 ; Move to start position
G1 X0.1 Y200.0 Z0.3 F1500.0 E15 ; Draw the first line
G1 X0.4 Y200.0 Z0.3 F5000.0 ; Move to side a little
G1 X0.4 Y20 Z0.3 F1500.0 E30 ; Draw the second line
G92 E0 ; Reset Extruder
G1 Z2.0 F3000 ; Move Z Axis up little to prevent scratching of Heat Bed
; End of custom start GCode
G92 E0
G92 E0
G1 F2400 E-5
;LAYER_COUNT:110
;LAYER:0
M107
M204 S500
M205 X10 Y10
G0 F3600 X88.282 Y41.13 Z0.2
;TYPE:SKIRT
G1 F2400 E0
G1 F1800 X88.636 Y40.508 E0.0238
G1 X89.058 Y39.93 E0.04761
G1 X89.541 Y39.403 E0.07138
G1 X90.08 Y38.933 E0.09517
G1 X90.668 Y38.526 E0.11895
G1 X91.298 Y38.187 E0.14275
G1 X91.962 Y37.921 E0.16654
G1 X92.651 Y37.73 E0.19032
G1 X93.358 Y37.617 E0.21413
G1 X93.83 Y37.587 E0.22986
G1 X94.149 Y37.578 E0.24048
G1 X94.329 Y37.575 E0.24647
G1 X140.293 Y37.575 E1.77523
G1 X140.385 Y37.576 E1.77829
G1 X141.083 Y37.586 E1.80151
G1 X141.796 Y37.636 E1.82528
G1 X142.5 Y37.765 E1.84909
G1 X143.184 Y37.973 E1.87287
G1 X143.841 Y38.255 E1.89665
G1 X144.463 Y38.609 E1.92045
G1 X145.041 Y39.03 E1.94424
G1 X145.569 Y39.513 E1.96804
G1 X146.039 Y40.051 E1.9918
G1 X146.447 Y40.639 E2.0156
G1 X146.786 Y41.269 E2.0394
G1 X147.053 Y41.932 E2.06317
G1 X147.244 Y42.622 E2.08698
G1 X147.357 Y43.328 E2.11076
G1 X147.388 Y43.805 E2.12666
G1 X147.397 Y44.125 E2.13731
G1 X147.4 Y44.305 E2.14329
G1 X147.4 Y179.553 E6.64166
G1 X147.399 Y179.646 E6.64475
G1 X147.388 Y180.406 E6.67003
G1 X147.382 Y180.609 E6.67679
G1 X147.341 Y181.496 E6.70632
G1 X147.333 Y181.641 E6.71115
G1 X147.286 Y182.322 E6.73386
G1 X147.201 Y183.009 E6.75688
G1 X147.086 Y183.651 E6.77857
G1 X147.047 Y183.852 E6.78538
G1 X146.901 Y184.54 E6.80878
G1 X146.773 Y185.042 E6.82601
G1 X146.69 Y185.32 E6.83566
G1 X146.637 Y185.486 E6.84145
G1 X146.57 Y185.69 E6.84859
G1 X146.527 Y185.817 E6.85305
G1 X146.23 Y186.661 E6.88281
G1 X145.971 Y187.289 E6.90541
G1 X145.68 Y187.9 E6.92792
G1 X145.609 Y188.044 E6.93326
G1 X145.305 Y188.643 E6.9556
G1 X145.036 Y189.122 E6.97387
G1 X144.897 Y189.346 E6.98264
G1 X144.813 Y189.477 E6.98781
G1 X144.667 Y189.7 E6.99668
G1 X144.591 Y189.814 E7.00124
G1 X144.1 Y190.53 E7.03011
G1 X143.769 Y190.971 E7.04845
G1 X143.581 Y191.2 E7.05831
G1 X143.458 Y191.345 E7.06463
G1 X143.213 Y191.626 E7.07703
G1 X143.143 Y191.704 E7.08051
G1 X142.687 Y192.21 E7.10317
G1 X142.364 Y192.544 E7.11862
G1 X142.216 Y192.686 E7.12545
G1 X142.043 Y192.846 E7.13328
G1 X141.786 Y193.075 E7.14473
G1 X141.691 Y193.158 E7.14893
G1 X141.065 Y193.694 E7.17634
G1 X140.657 Y194.015 E7.19361
G1 X140.45 Y194.165 E7.20211
G1 X140.299 Y194.272 E7.20826
G1 X140.095 Y194.411 E7.21647
G1 X139.995 Y194.478 E7.22048
G1 X139.272 Y194.951 E7.24921
G1 X138.822 Y195.219 E7.26663
G1 X138.59 Y195.345 E7.27541
G1 X138.398 Y195.445 E7.28261
G1 X138.094 Y195.597 E7.29392
G1 X137.299 Y195.979 E7.32325
G1 X136.792 Y196.196 E7.3416
G1 X136.541 Y196.291 E7.35052
G1 X136.37 Y196.353 E7.35657
G1 X135.983 Y196.487 E7.37019
G1 X135.863 Y196.527 E7.3744
G1 X135.2 Y196.742 E7.39758
G1 X134.679 Y196.887 E7.41557
G1 X134.413 Y196.949 E7.42466
G1 X134.232 Y196.988 E7.43081
G1 X133.803 Y197.075 E7.44537
G1 X133.701 Y197.095 E7.44883
G1 X133.072 Y197.212 E7.47011
G1 X132.552 Y197.287 E7.48758
G1 X132.268 Y197.316 E7.49708
G1 X132.061 Y197.334 E7.50399
G1 X131.672 Y197.361 E7.51696
G1 X131.567 Y197.367 E7.52046
G1 X131.076 Y197.393 E7.53681
G1 X130.857 Y197.401 E7.5441
G1 X129.678 Y197.423 E7.58332
G1 X129.559 Y197.424 E7.58728
G1 X105.289 Y197.425 E8.3945
G1 X105.2 Y197.424 E8.39746
G1 X104.623 Y197.416 E8.41665
G1 X104.424 Y197.41 E8.42328
G1 X103.515 Y197.369 E8.45354
G1 X103.313 Y197.357 E8.46027
G1 X102.636 Y197.305 E8.48285
G1 X102.004 Y197.225 E8.50404
G1 X101.493 Y197.134 E8.52131
G1 X101.309 Y197.098 E8.52754
G1 X100.498 Y196.929 E8.55509
G1 X99.872 Y196.766 E8.57661
G1 X99.395 Y196.615 E8.59325
G1 X99.204 Y196.551 E8.59995
G1 X98.362 Y196.255 E8.62964
G1 X97.73 Y195.994 E8.65238
G1 X97.122 Y195.704 E8.67478
G1 X96.981 Y195.634 E8.68002
G1 X96.372 Y195.325 E8.70273
G1 X95.871 Y195.042 E8.72187
G1 X95.657 Y194.908 E8.73027
G1 X95.548 Y194.838 E8.73458
G1 X95.325 Y194.692 E8.74344
G1 X95.212 Y194.616 E8.74797
G1 X94.493 Y194.123 E8.77697
G1 X94.045 Y193.787 E8.79559
G1 X93.819 Y193.601 E8.80533
G1 X93.68 Y193.483 E8.81139
G1 X93.399 Y193.238 E8.82379
G1 X93.323 Y193.171 E8.82716
G1 X92.812 Y192.711 E8.85003
G1 X92.364 Y192.265 E8.87106
G1 X91.994 Y191.859 E8.88933
G1 X91.863 Y191.711 E8.8959
G1 X91.326 Y191.084 E8.92336
G1 X90.997 Y190.665 E8.94108
G1 X90.852 Y190.464 E8.94932
G1 X90.753 Y190.324 E8.95502
G1 X90.614 Y190.12 E8.96323
G1 X90.546 Y190.018 E8.96731
G1 X90.07 Y189.29 E8.99624
G1 X89.794 Y188.827 E9.01417
G1 X89.671 Y188.599 E9.02278
G1 X89.585 Y188.433 E9.029
G1 X89.478 Y188.22 E9.03693
G1 X89.426 Y188.114 E9.04086
G1 X89.042 Y187.313 E9.0704
G1 X88.825 Y186.806 E9.08874
G1 X88.728 Y186.549 E9.09788
G1 X88.667 Y186.38 E9.10386
G1 X88.537 Y186.004 E9.11709
G1 X88.496 Y185.882 E9.12137
G1 X88.281 Y185.217 E9.14461
G1 X88.142 Y184.716 E9.16191
G1 X88.08 Y184.453 E9.17089
G1 X88.037 Y184.257 E9.17757
G1 X87.95 Y183.828 E9.19213
G1 X87.93 Y183.726 E9.19558
G1 X87.813 Y183.097 E9.21686
G1 X87.738 Y182.577 E9.23434
G1 X87.709 Y182.293 E9.24383
G1 X87.691 Y182.087 E9.25071
G1 X87.664 Y181.699 E9.26365
G1 X87.658 Y181.594 E9.26714
G1 X87.632 Y181.104 E9.28347
G1 X87.624 Y180.884 E9.29079
G1 X87.602 Y179.703 E9.33007
G1 X87.601 Y179.584 E9.33403
G1 X87.6 Y44.649 E13.82199
G1 X87.601 Y44.553 E13.82518
G1 X87.611 Y43.888 E13.8473
G1 X87.661 Y43.174 E13.87111
G1 X87.791 Y42.471 E13.89489
G1 X87.999 Y41.787 E13.91867
G1 X88.282 Y41.13 E13.94246
G0 F3600 X88.68 Y41.229
G1 F1800 X89.033 Y40.634 E13.96547
G1 X89.452 Y40.082 E13.98852
G1 X89.932 Y39.583 E14.01155
G1 X90.466 Y39.142 E14.03458
G1 X91.048 Y38.766 E14.05763
G1 X91.669 Y38.46 E14.08065
G1 X92.321 Y38.227 E14.10368
G1 X92.995 Y38.07 E14.1267
G1 X93.841 Y37.986 E14.15498
G1 X94.16 Y37.977 E14.16559
G1 X94.329 Y37.975 E14.17121
G1 X140.293 Y37.975 E15.69998
G1 X140.379 Y37.976 E15.70284
G1 X141.077 Y37.986 E15.72606
G1 X141.768 Y38.035 E15.7491
G1 X142.448 Y38.165 E15.77213
G1 X143.109 Y38.371 E15.79515
G1 X143.742 Y38.653 E15.8182
G1 X144.338 Y39.005 E15.84122
G1 X144.889 Y39.424 E15.86425
G1 X145.389 Y39.904 E15.8873
G1 X145.83 Y40.438 E15.91034
G1 X146.207 Y41.019 E15.93337
G1 X146.514 Y41.64 E15.95641
G1 X146.747 Y42.292 E15.97944
G1 X146.904 Y42.966 E16.00246
G1 X146.989 Y43.816 E16.03087
G1 X146.998 Y44.136 E16.04152
G1 X147 Y44.305 E16.04714
G1 X147 Y179.553 E20.54551
G1 X146.999 Y179.64 E20.5484
G1 X146.988 Y180.4 E20.57368
G1 X146.983 Y180.59 E20.58
G1 X146.942 Y181.477 E20.60953
G1 X146.934 Y181.613 E20.61407
G1 X146.887 Y182.294 E20.63677
G1 X146.807 Y182.939 E20.65839
G1 X146.692 Y183.581 E20.68008
G1 X146.655 Y183.769 E20.68645
G1 X146.509 Y184.457 E20.70985
G1 X146.389 Y184.927 E20.72598
G1 X146.306 Y185.205 E20.73563
G1 X146.257 Y185.361 E20.74107
G1 X146.19 Y185.565 E20.74821
G1 X146.15 Y185.685 E20.75242
G1 X145.853 Y186.529 E20.78217
G1 X145.61 Y187.117 E20.80334
G1 X145.319 Y187.728 E20.82584
G1 X145.252 Y187.863 E20.83086
G1 X144.948 Y188.462 E20.8532
G1 X144.696 Y188.911 E20.87032
G1 X144.557 Y189.135 E20.87909
G1 X144.479 Y189.258 E20.88394
G1 X144.333 Y189.481 E20.8928
G1 X144.261 Y189.587 E20.89706
G1 X143.77 Y190.303 E20.92594
G1 X143.459 Y190.717 E20.94316
G1 X143.271 Y190.946 E20.95302
G1 X143.156 Y191.082 E20.95894
G1 X142.911 Y191.363 E20.97134
G1 X142.846 Y191.437 E20.97462
G1 X142.39 Y191.943 E20.99727
G1 X142.087 Y192.255 E21.01174
G1 X141.939 Y192.397 E21.01856
G1 X141.777 Y192.548 E21.02592
G1 X141.52 Y192.777 E21.03737
G1 X141.43 Y192.855 E21.04133
G1 X140.804 Y193.391 E21.06874
G1 X140.423 Y193.691 E21.08487
G1 X140.216 Y193.841 E21.09338
G1 X140.074 Y193.941 E21.09915
G1 X139.87 Y194.08 E21.10736
G1 X139.776 Y194.143 E21.11113
G1 X139.053 Y194.616 E21.13986
G1 X138.632 Y194.868 E21.15618
G1 X138.4 Y194.994 E21.16496
G1 X138.219 Y195.088 E21.17175
G1 X138.005 Y195.195 E21.1797
G1 X137.921 Y195.236 E21.18281
G1 X137.126 Y195.618 E21.21215
G1 X136.651 Y195.822 E21.22934
G1 X136.4 Y195.917 E21.23827
G1 X136.239 Y195.975 E21.24396
G1 X135.852 Y196.109 E21.25758
G1 X135.74 Y196.146 E21.26151
G1 X135.077 Y196.361 E21.28469
G1 X134.588 Y196.497 E21.30157
G1 X134.322 Y196.559 E21.31065
G1 X134.153 Y196.596 E21.31641
G1 X133.724 Y196.683 E21.33097
G1 X133.628 Y196.702 E21.33422
G1 X132.999 Y196.819 E21.3555
G1 X132.512 Y196.889 E21.37186
G1 X132.228 Y196.918 E21.38136
G1 X132.033 Y196.935 E21.38787
G1 X131.644 Y196.962 E21.40084
G1 X131.546 Y196.968 E21.40411
G1 X131.055 Y196.994 E21.42046
G1 X130.85 Y197.001 E21.42728
G1 X129.671 Y197.023 E21.4665
G1 X129.559 Y197.024 E21.47023
G1 X105.289 Y197.025 E22.27745
G1 X105.206 Y197.024 E22.28021
G1 X104.629 Y197.016 E22.2994
G1 X104.442 Y197.011 E22.30563
G1 X103.533 Y196.97 E22.33589
G1 X103.343 Y196.958 E22.34222
G1 X102.666 Y196.906 E22.36481
G1 X102.074 Y196.831 E22.38465
G1 X101.563 Y196.74 E22.40192
G1 X101.391 Y196.707 E22.40774
G1 X100.58 Y196.538 E22.43529
G1 X99.993 Y196.384 E22.45548
G1 X99.516 Y196.233 E22.47212
G1 X99.337 Y196.173 E22.4784
G1 X98.495 Y195.877 E22.50808
G1 X97.902 Y195.633 E22.52941
G1 X97.294 Y195.343 E22.55182
G1 X97.162 Y195.278 E22.55671
G1 X96.553 Y194.969 E22.57942
G1 X96.084 Y194.703 E22.59736
G1 X95.87 Y194.569 E22.60576
G1 X95.767 Y194.504 E22.60981
G1 X95.544 Y194.358 E22.61867
G1 X95.438 Y194.286 E22.62293
G1 X94.719 Y193.793 E22.65193
G1 X94.299 Y193.478 E22.66939
G1 X94.073 Y193.292 E22.67913
G1 X93.943 Y193.181 E22.68481
G1 X93.662 Y192.936 E22.69721
G1 X93.591 Y192.873 E22.70037
G1 X93.08 Y192.413 E22.72324
G1 X92.659 Y191.995 E22.74297
G1 X92.289 Y191.589 E22.76124
G1 X92.167 Y191.451 E22.76736
G1 X91.63 Y190.824 E22.79482
G1 X91.321 Y190.431 E22.81145
G1 X91.176 Y190.23 E22.81969
G1 X91.084 Y190.099 E22.82502
G1 X90.945 Y189.895 E22.83323
G1 X90.881 Y189.799 E22.83706
G1 X90.405 Y189.071 E22.86599
G1 X90.146 Y188.637 E22.8828
G1 X90.023 Y188.409 E22.89142
G1 X89.942 Y188.253 E22.89727
G1 X89.835 Y188.04 E22.9052
G1 X89.787 Y187.941 E22.90885
G1 X89.403 Y187.14 E22.9384
G1 X89.2 Y186.665 E22.95558
G1 X89.103 Y186.408 E22.96472
G1 X89.045 Y186.25 E22.97031
G1 X88.915 Y185.874 E22.98355
G1 X88.877 Y185.759 E22.98758
G1 X88.662 Y185.094 E23.01082
G1 X88.531 Y184.625 E23.02702
G1 X88.469 Y184.362 E23.036
G1 X88.429 Y184.178 E23.04227
G1 X88.342 Y183.749 E23.05683
G1 X88.323 Y183.653 E23.06008
G1 X88.206 Y183.024 E23.08136
G1 X88.136 Y182.537 E23.09772
G1 X88.107 Y182.253 E23.10722
G1 X88.09 Y182.06 E23.11366
G1 X88.063 Y181.672 E23.1266
G1 X88.057 Y181.573 E23.1299
G1 X88.031 Y181.083 E23.14622
G1 X88.024 Y180.877 E23.15307
G1 X88.002 Y179.696 E23.19236
G1 X88.001 Y179.584 E23.19609
G1 X88 Y44.649 E27.68404
G1 X88.001 Y44.559 E27.68704
G1 X88.011 Y43.894 E27.70916
G1 X88.061 Y43.203 E27.7322
G1 X88.191 Y42.523 E27.75523
G1 X88.398 Y41.862 E27.77826
G1 X88.68 Y41.229 E27.80131
G0 F3600 X89.077 Y41.333
G1 F1800 X89.429 Y40.763 E27.82359
G1 X89.846 Y40.24 E27.84584
G1 X90.322 Y39.77 E27.86809
G1 X90.851 Y39.36 E27.89035
G1 X91.425 Y39.017 E27.91259
G1 X92.035 Y38.744 E27.93482
G1 X92.674 Y38.546 E27.95707
G1 X93.333 Y38.425 E27.97935
G1 X93.852 Y38.386 E27.99666
G1 X94.171 Y38.377 E28.00728
G1 X94.329 Y38.375 E28.01253
G1 X140.293 Y38.375 E29.5413
G1 X140.373 Y38.376 E29.54396
G1 X141.071 Y38.386 E29.56718
G1 X141.738 Y38.435 E29.58943
G1 X142.395 Y38.564 E29.6117
G1 X143.031 Y38.77 E29.63393
G1 X143.639 Y39.051 E29.65621
G1 X144.208 Y39.401 E29.67843
G1 X144.732 Y39.818 E29.7007
G1 X145.202 Y40.294 E29.72295
G1 X145.612 Y40.822 E29.74518
G1 X145.957 Y41.396 E29.76746
G1 X146.23 Y42.007 E29.78972
G1 X146.428 Y42.646 E29.81197
G1 X146.549 Y43.304 E29.83422
G1 X146.589 Y43.828 E29.8517
G1 X146.598 Y44.148 E29.86235
G1 X146.6 Y44.305 E29.86757
G1 X146.6 Y179.553 E34.36593
G1 X146.599 Y179.634 E34.36863
G1 X146.588 Y180.394 E34.39391
G1 X146.583 Y180.572 E34.39983
G1 X146.542 Y181.459 E34.42936
G1 X146.535 Y181.586 E34.4336
G1 X146.488 Y182.267 E34.4563
G1 X146.413 Y182.868 E34.47644
G1 X146.298 Y183.51 E34.49814
G1 X146.264 Y183.685 E34.50407
G1 X146.118 Y184.373 E34.52746
G1 X146.006 Y184.813 E34.54256
G1 X145.923 Y185.091 E34.55221
G1 X145.877 Y185.236 E34.55727
G1 X145.81 Y185.44 E34.56441
G1 X145.772 Y185.552 E34.56834
G1 X145.475 Y186.396 E34.5981
G1 X145.249 Y186.945 E34.61785
G1 X144.958 Y187.556 E34.64036
G1 X144.896 Y187.682 E34.64503
G1 X144.592 Y188.281 E34.66737
G1 X144.356 Y188.7 E34.68337
G1 X144.217 Y188.924 E34.69213
G1 X144.144 Y189.038 E34.69664
G1 X143.998 Y189.261 E34.7055
G1 X143.931 Y189.361 E34.7095
G1 X143.44 Y190.077 E34.73838
G1 X143.15 Y190.463 E34.75444
G1 X142.962 Y190.692 E34.76429
G1 X142.855 Y190.819 E34.76982
G1 X142.61 Y191.1 E34.78222
G1 X142.549 Y191.169 E34.78528
G1 X142.093 Y191.675 E34.80793
G1 X141.81 Y191.967 E34.82146
G1 X141.662 Y192.109 E34.82828
G1 X141.51 Y192.249 E34.83515
G1 X141.253 Y192.478 E34.8466
G1 X141.17 Y192.551 E34.85028
G1 X140.544 Y193.087 E34.87769
G1 X140.188 Y193.368 E34.89277
G1 X139.981 Y193.518 E34.90128
G1 X139.848 Y193.611 E34.90667
G1 X139.644 Y193.75 E34.91489
G1 X139.557 Y193.808 E34.91836
G1 X138.834 Y194.281 E34.9471
G1 X138.441 Y194.516 E34.96233
G1 X138.209 Y194.642 E34.97111
G1 X138.04 Y194.73 E34.97745
G1 X137.826 Y194.837 E34.9854
G1 X137.747 Y194.876 E34.98834
G1 X136.952 Y195.258 E35.01767
G1 X136.509 Y195.447 E35.03369
G1 X136.258 Y195.542 E35.04262
G1 X136.108 Y195.597 E35.04793
G1 X135.721 Y195.731 E35.06155
G1 X135.616 Y195.766 E35.06523
G1 X134.953 Y195.981 E35.08842
G1 X134.497 Y196.108 E35.10416
G1 X134.231 Y196.17 E35.11324
G1 X134.073 Y196.204 E35.11862
G1 X133.644 Y196.291 E35.13318
G1 X133.555 Y196.309 E35.1362
G1 X132.926 Y196.426 E35.15748
G1 X132.471 Y196.491 E35.17276
G1 X132.187 Y196.52 E35.18226
G1 X132.006 Y196.536 E35.1883
G1 X131.617 Y196.563 E35.20127
G1 X131.525 Y196.568 E35.20434
G1 X131.034 Y196.594 E35.22069
G1 X130.842 Y196.601 E35.22708
G1 X129.663 Y196.623 E35.2663
G1 X129.559 Y196.624 E35.26976
G1 X105.289 Y196.625 E36.07698
G1 X105.211 Y196.624 E36.07958
G1 X104.634 Y196.616 E36.09877
G1 X104.46 Y196.611 E36.10456
G1 X103.551 Y196.57 E36.13482
G1 X103.374 Y196.56 E36.14072
G1 X102.697 Y196.508 E36.1633
G1 X102.144 Y196.437 E36.18185
G1 X101.633 Y196.346 E36.19911
G1 X101.473 Y196.315 E36.20453
G1 X100.662 Y196.146 E36.23209
G1 X100.114 Y196.003 E36.25092
G1 X99.637 Y195.852 E36.26756
G1 X99.47 Y195.796 E36.27342
G1 X98.628 Y195.5 E36.30311
G1 X98.074 Y195.271 E36.32305
G1 X97.466 Y194.981 E36.34545
G1 X97.343 Y194.921 E36.35
G1 X96.734 Y194.612 E36.37272
G1 X96.296 Y194.364 E36.38946
G1 X96.082 Y194.23 E36.39785
G1 X95.987 Y194.169 E36.40161
G1 X95.764 Y194.023 E36.41047
G1 X95.664 Y193.957 E36.41446
G1 X94.945 Y193.464 E36.44346
G1 X94.553 Y193.169 E36.45977
G1 X94.327 Y192.983 E36.46951
G1 X94.206 Y192.88 E36.47479
G1 X93.925 Y192.635 E36.48719
G1 X93.858 Y192.576 E36.49016
G1 X93.347 Y192.116 E36.51303
G1 X92.955 Y191.726 E36.53142
G1 X92.585 Y191.32 E36.54969
G1 X92.471 Y191.191 E36.55542
G1 X91.934 Y190.564 E36.58287
G1 X91.645 Y190.197 E36.59841
G1 X91.5 Y189.996 E36.60665
G1 X91.414 Y189.873 E36.61165
G1 X91.275 Y189.669 E36.61986
G1 X91.216 Y189.581 E36.62338
G1 X90.74 Y188.853 E36.65231
G1 X90.498 Y188.447 E36.66803
G1 X90.375 Y188.219 E36.67665
G1 X90.3 Y188.074 E36.68208
G1 X90.193 Y187.861 E36.69001
G1 X90.147 Y187.768 E36.69346
G1 X89.763 Y186.967 E36.723
G1 X89.574 Y186.523 E36.73905
G1 X89.477 Y186.266 E36.74819
G1 X89.423 Y186.119 E36.7534
G1 X89.293 Y185.743 E36.76663
G1 X89.258 Y185.636 E36.77037
G1 X89.043 Y184.971 E36.79362
