;FLAVOR:Marlin
;TIME:938
;Filament used: 1.39997m
;Layer height: 0.3
;Generated with Cura_SteamEngine 4.0.0
M140 S60
M105
M190 S60
M104 S200
M105
M109 S200
M82 ;absolute extrusion mode
; Ender 3 Custom Start G-code
G28 ; Home all axes
G92 E0 ; Reset Extruder
G1 Z2.0 F3000 ; Move Z Axis up little to prevent scratching of Heat Bed
G1 X0.1 Y20 Z0.3 F5000.0 ; Move to start position
G1 X0.1 Y200.0 Z0.3 F1500.0 E15 ; Draw the first line
G1 X0.4 Y200.0 Z0.3 F5000.0 ; Move to side a little
G1 X0.4 Y20 Z0.3 F1500.0 E30 ; Draw the second line
G92 E0 ; Reset Extruder
G1 Z2.0 F3000 ; Move Z Axis up little to prevent scratching of Heat Bed
; End of custom start GCode
G92 E0
G1 F2400 E-5
;LAYER_COUNT:39
;LAYER:0
M107
M204 S5000
M205 X30 Y30
G0 F3600 X101.534 Y101.816 Z0.2
M204 S500
M205 X20 Y20
;TYPE:SKIRT
G1 F2400 E0
G1 F1800 X102.925 Y100.516 E0.06332
G1 X103.519 Y100.024 E0.08898
G1 X105.108 Y98.863 E0.15443
G1 X105.766 Y98.442 E0.18041
G1 X107.449 Y97.503 E0.24451
G1 X108.025 Y97.218 E0.26589
G1 X109.215 Y96.703 E0.30902
G1 X109.771 Y96.493 E0.32878
G1 X111.327 Y95.985 E0.38322
G1 X111.867 Y95.834 E0.40187
G1 X113.053 Y95.559 E0.44237
G1 X113.617 Y95.455 E0.46144
G1 X115.198 Y95.235 E0.51453
G1 X115.905 Y95.176 E0.53813
G1 X117.874 Y95.122 E0.60364
G1 X118.654 Y95.149 E0.6296
G1 X120.561 Y95.33 E0.69331
G1 X121.19 Y95.421 E0.71445
G1 X122.462 Y95.671 E0.75757
G1 X123.037 Y95.812 E0.77726
G1 X124.591 Y96.27 E0.83114
G1 X125.253 Y96.505 E0.85451
G1 X127.033 Y97.25 E0.91869
G1 X127.623 Y97.534 E0.94047
G1 X128.741 Y98.143 E0.98281
G1 X129.276 Y98.469 E1.00365
G1 X130.857 Y99.543 E1.06722
G1 X131.422 Y99.974 E1.09085
G1 X132.669 Y101.041 E1.14544
G1 X133.184 Y101.534 E1.16915
G1 X134.484 Y102.925 E1.23248
G1 X134.977 Y103.522 E1.25823
G1 X136.139 Y105.114 E1.32378
G1 X136.559 Y105.768 E1.34963
G1 X137.496 Y107.447 E1.41358
G1 X137.78 Y108.022 E1.43491
G1 X138.296 Y109.213 E1.47808
G1 X138.507 Y109.77 E1.4979
G1 X139.015 Y111.325 E1.5523
G1 X139.166 Y111.866 E1.57099
G1 X139.441 Y113.052 E1.61148
G1 X139.545 Y113.616 E1.63055
G1 X139.765 Y115.198 E1.68368
G1 X139.824 Y115.905 E1.70727
G1 X139.878 Y117.874 E1.77279
G1 X139.852 Y118.65 E1.79861
G1 X139.673 Y120.547 E1.86199
G1 X139.581 Y121.18 E1.88326
G1 X139.329 Y122.462 E1.92672
G1 X139.189 Y123.035 E1.94634
G1 X138.734 Y124.581 E1.99994
G1 X138.499 Y125.243 E2.0233
G1 X137.759 Y127.013 E2.08711
G1 X137.473 Y127.607 E2.10904
G1 X136.832 Y128.783 E2.15358
G1 X136.502 Y129.324 E2.17466
G1 X135.452 Y130.865 E2.23668
G1 X135.026 Y131.422 E2.26001
G1 X133.959 Y132.669 E2.31459
G1 X133.466 Y133.184 E2.3383
G1 X132.075 Y134.484 E2.40163
G1 X131.481 Y134.976 E2.42728
G1 X129.892 Y136.137 E2.49274
G1 X129.235 Y136.558 E2.51869
G1 X127.556 Y137.495 E2.58264
G1 X126.98 Y137.779 E2.604
G1 X125.786 Y138.296 E2.64728
G1 X125.229 Y138.507 E2.66709
G1 X123.673 Y139.015 E2.72153
G1 X123.132 Y139.166 E2.74021
G1 X121.984 Y139.432 E2.7794
G1 X121.344 Y139.546 E2.80103
G1 X119.278 Y139.808 E2.87029
G1 X118.49 Y139.859 E2.89655
G1 X116.638 Y139.864 E2.95815
G1 X115.895 Y139.823 E2.9829
G1 X114.029 Y139.61 E3.04537
G1 X113.336 Y139.492 E3.06875
G1 X111.735 Y139.128 E3.12336
G1 X111.043 Y138.929 E3.14731
G1 X109.22 Y138.292 E3.21154
G1 X108.633 Y138.054 E3.2326
G1 X107.482 Y137.519 E3.27482
G1 X106.901 Y137.211 E3.29669
G1 X105.196 Y136.194 E3.36272
G1 X104.545 Y135.749 E3.38895
G1 X103.014 Y134.558 E3.45346
G1 X102.487 Y134.1 E3.47669
G1 X101.333 Y132.98 E3.53017
G1 X100.851 Y132.457 E3.55383
G1 X99.647 Y130.996 E3.6168
G1 X99.2 Y130.383 E3.64203
G1 X98.161 Y128.764 E3.70601
G1 X97.755 Y128.029 E3.73394
G1 X96.785 Y125.965 E3.80979
G1 X96.493 Y125.229 E3.83613
G1 X95.985 Y123.673 E3.89057
G1 X95.834 Y123.133 E3.90922
G1 X95.559 Y121.947 E3.94971
G1 X95.455 Y121.382 E3.96882
G1 X95.235 Y119.799 E4.02198
G1 X95.176 Y119.094 E4.04551
G1 X95.122 Y117.127 E4.11095
G1 X95.149 Y116.346 E4.13695
G1 X95.33 Y114.439 E4.20066
G1 X95.421 Y113.81 E4.2218
G1 X95.671 Y112.538 E4.26491
G1 X95.812 Y111.963 E4.2846
G1 X96.27 Y110.409 E4.33849
G1 X96.505 Y109.747 E4.36185
G1 X97.25 Y107.967 E4.42603
G1 X97.538 Y107.368 E4.44814
G1 X98.171 Y106.21 E4.49203
G1 X98.498 Y105.676 E4.51286
G1 X99.548 Y104.135 E4.57488
G1 X99.974 Y103.578 E4.5982
G1 X101.041 Y102.331 E4.65279
G1 X101.534 Y101.816 E4.6765
M204 S5000
M205 X30 Y30
G0 F3600 X101.807 Y102.108
M204 S500
M205 X20 Y20
G1 F1800 X103.198 Y100.808 E4.73982
G1 X103.755 Y100.347 E4.76387
G1 X105.344 Y99.186 E4.82933
G1 X105.961 Y98.791 E4.85369
G1 X107.644 Y97.852 E4.91779
G1 X108.184 Y97.586 E4.93781
G1 X109.374 Y97.071 E4.98094
G1 X109.895 Y96.873 E4.99948
G1 X111.451 Y96.365 E5.05392
G1 X111.958 Y96.224 E5.07142
G1 X113.144 Y95.949 E5.11192
G1 X113.672 Y95.851 E5.12978
G1 X115.253 Y95.631 E5.18287
G1 X115.916 Y95.576 E5.205
G1 X117.885 Y95.522 E5.27051
G1 X118.616 Y95.547 E5.29484
G1 X120.523 Y95.728 E5.35855
G1 X121.113 Y95.814 E5.37838
G1 X122.385 Y96.064 E5.4215
G1 X122.924 Y96.196 E5.43995
G1 X124.478 Y96.654 E5.49384
G1 X125.099 Y96.874 E5.51575
G1 X126.879 Y97.619 E5.57993
G1 X127.432 Y97.885 E5.60034
G1 X128.55 Y98.494 E5.64268
G1 X129.052 Y98.8 E5.66224
G1 X130.633 Y99.874 E5.72581
G1 X131.162 Y100.278 E5.74795
G1 X132.409 Y101.345 E5.80253
G1 X132.892 Y101.807 E5.82476
G1 X134.192 Y103.198 E5.88809
G1 X134.654 Y103.758 E5.91223
G1 X135.816 Y105.35 E5.97779
G1 X136.209 Y105.963 E6.00201
G1 X137.146 Y107.642 E6.06596
G1 X137.413 Y108.181 E6.08596
G1 X137.929 Y109.372 E6.12913
G1 X138.126 Y109.894 E6.14769
G1 X138.634 Y111.449 E6.2021
G1 X138.776 Y111.957 E6.21964
G1 X139.051 Y113.143 E6.26014
G1 X139.149 Y113.672 E6.27803
G1 X139.369 Y115.254 E6.33116
G1 X139.424 Y115.916 E6.35325
G1 X139.478 Y117.885 E6.41876
G1 X139.453 Y118.613 E6.44299
G1 X139.274 Y120.51 E6.50637
G1 X139.188 Y121.103 E6.5263
G1 X138.936 Y122.385 E6.56975
G1 X138.805 Y122.922 E6.58814
G1 X138.35 Y124.468 E6.64174
G1 X138.13 Y125.088 E6.66362
G1 X137.39 Y126.858 E6.72743
G1 X137.122 Y127.416 E6.74801
G1 X136.481 Y128.592 E6.79256
G1 X136.171 Y129.099 E6.81233
G1 X135.121 Y130.64 E6.87435
G1 X134.722 Y131.162 E6.8962
G1 X133.655 Y132.409 E6.95079
G1 X133.193 Y132.892 E6.97302
G1 X131.802 Y134.192 E7.03634
G1 X131.245 Y134.653 E7.06039
G1 X129.656 Y135.814 E7.12584
G1 X129.04 Y136.208 E7.15016
G1 X127.361 Y137.145 E7.21412
G1 X126.821 Y137.412 E7.23415
G1 X125.627 Y137.929 E7.27743
G1 X125.105 Y138.127 E7.296
G1 X123.549 Y138.635 E7.35044
G1 X123.041 Y138.776 E7.36797
G1 X121.893 Y139.042 E7.40717
G1 X121.294 Y139.149 E7.4274
G1 X119.228 Y139.411 E7.49667
G1 X118.489 Y139.459 E7.5213
G1 X116.637 Y139.464 E7.5829
G1 X115.941 Y139.425 E7.60608
G1 X114.075 Y139.212 E7.66855
G1 X113.425 Y139.102 E7.69048
G1 X111.824 Y138.738 E7.74509
G1 X111.175 Y138.551 E7.76755
G1 X109.352 Y137.914 E7.83178
G1 X108.802 Y137.691 E7.85152
G1 X107.651 Y137.156 E7.89373
G1 X107.106 Y136.868 E7.91424
G1 X105.401 Y135.851 E7.98027
G1 X104.791 Y135.434 E8.00484
G1 X103.26 Y134.243 E8.06936
G1 X102.765 Y133.813 E8.09117
G1 X101.611 Y132.693 E8.14465
G1 X101.16 Y132.203 E8.1668
G1 X99.956 Y130.742 E8.22977
G1 X99.536 Y130.167 E8.25345
G1 X98.497 Y128.548 E8.31744
G1 X98.117 Y127.859 E8.34361
G1 X97.147 Y125.795 E8.41946
G1 X96.873 Y125.105 E8.44415
G1 X96.365 Y123.549 E8.49859
G1 X96.224 Y123.042 E8.51609
G1 X95.949 Y121.856 E8.55659
G1 X95.851 Y121.327 E8.57448
G1 X95.631 Y119.744 E8.62764
G1 X95.576 Y119.083 E8.6497
G1 X95.522 Y117.116 E8.71515
G1 X95.547 Y116.384 E8.73951
G1 X95.728 Y114.477 E8.80322
G1 X95.814 Y113.887 E8.82305
G1 X96.064 Y112.615 E8.86617
G1 X96.196 Y112.076 E8.88462
G1 X96.654 Y110.522 E8.93851
G1 X96.874 Y109.901 E8.96042
G1 X97.619 Y108.121 E9.0246
G1 X97.889 Y107.56 E9.04531
G1 X98.522 Y106.402 E9.0892
G1 X98.829 Y105.901 E9.10874
G1 X99.879 Y104.36 E9.17077
G1 X100.278 Y103.838 E9.19262
G1 X101.345 Y102.591 E9.2472
G1 X101.807 Y102.108 E9.26943
M204 S5000
M205 X30 Y30
G0 F3600 X102.08 Y102.401
M204 S500
M205 X20 Y20
G1 F1800 X103.471 Y101.101 E9.33276
G1 X103.991 Y100.67 E9.35522
G1 X105.58 Y99.509 E9.42068
G1 X106.156 Y99.141 E9.44341
G1 X107.839 Y98.202 E9.50751
G1 X108.343 Y97.953 E9.52621
G1 X109.533 Y97.438 E9.56934
G1 X110.019 Y97.254 E9.58662
G1 X111.575 Y96.746 E9.64106
G1 X112.048 Y96.614 E9.65739
G1 X113.234 Y96.339 E9.69789
G1 X113.727 Y96.247 E9.71457
G1 X115.308 Y96.027 E9.76766
G1 X115.926 Y95.976 E9.78828
G1 X117.895 Y95.922 E9.8538
G1 X118.578 Y95.945 E9.87653
G1 X120.485 Y96.126 E9.94024
G1 X121.036 Y96.206 E9.95876
G1 X122.308 Y96.456 E10.00187
G1 X122.811 Y96.579 E10.0191
G1 X124.365 Y97.037 E10.07298
G1 X124.944 Y97.243 E10.09342
G1 X126.724 Y97.988 E10.1576
G1 X127.241 Y98.236 E10.17667
G1 X128.359 Y98.845 E10.21901
G1 X128.827 Y99.131 E10.23726
G1 X130.408 Y100.205 E10.30083
G1 X130.902 Y100.582 E10.3215
G1 X132.149 Y101.649 E10.37608
G1 X132.599 Y102.08 E10.39681
G1 X133.899 Y103.471 E10.46013
G1 X134.331 Y103.993 E10.48267
G1 X135.493 Y105.585 E10.54822
G1 X135.86 Y106.158 E10.57085
G1 X136.797 Y107.837 E10.6348
G1 X137.045 Y108.34 E10.65346
G1 X137.561 Y109.531 E10.69663
G1 X137.746 Y110.018 E10.71396
G1 X138.254 Y111.573 E10.76836
G1 X138.386 Y112.047 E10.78473
G1 X138.661 Y113.233 E10.82522
G1 X138.753 Y113.727 E10.84194
G1 X138.973 Y115.309 E10.89506
G1 X139.024 Y115.926 E10.91565
G1 X139.078 Y117.895 E10.98117
G1 X139.055 Y118.575 E11.00379
G1 X138.876 Y120.472 E11.06717
G1 X138.796 Y121.026 E11.08579
G1 X138.544 Y122.308 E11.12924
G1 X138.421 Y122.809 E11.1464
G1 X137.966 Y124.355 E11.2
G1 X137.761 Y124.934 E11.22043
G1 X137.021 Y126.704 E11.28424
G1 X136.771 Y127.224 E11.30343
G1 X136.13 Y128.4 E11.34798
G1 X135.841 Y128.873 E11.36641
G1 X134.791 Y130.414 E11.42843
G1 X134.418 Y130.902 E11.44886
G1 X133.351 Y132.149 E11.50345
G1 X132.92 Y132.599 E11.52417
G1 X131.529 Y133.899 E11.5875
G1 X131.009 Y134.33 E11.60996
G1 X129.42 Y135.491 E11.67542
G1 X128.845 Y135.859 E11.69812
G1 X127.166 Y136.796 E11.76207
G1 X126.662 Y137.045 E11.78077
G1 X125.468 Y137.562 E11.82405
G1 X124.981 Y137.746 E11.84136
G1 X123.425 Y138.254 E11.8958
G1 X122.951 Y138.386 E11.91217
G1 X121.803 Y138.652 E11.95136
G1 X121.244 Y138.753 E11.97025
G1 X119.178 Y139.015 E12.03952
G1 X118.488 Y139.059 E12.06252
G1 X116.636 Y139.064 E12.12411
G1 X115.986 Y139.028 E12.14577
G1 X114.12 Y138.815 E12.20823
G1 X113.513 Y138.712 E12.22871
G1 X111.912 Y138.348 E12.28332
G1 X111.307 Y138.174 E12.30426
G1 X109.484 Y137.537 E12.36849
G1 X108.971 Y137.328 E12.38691
G1 X107.82 Y136.793 E12.42913
G1 X107.311 Y136.524 E12.44827
G1 X105.606 Y135.507 E12.5143
G1 X105.037 Y135.118 E12.53723
G1 X103.506 Y133.927 E12.60174
G1 X103.044 Y133.526 E12.62209
G1 X101.89 Y132.406 E12.67558
G1 X101.468 Y131.948 E12.69629
G1 X100.264 Y130.487 E12.75926
G1 X99.873 Y129.951 E12.78133
G1 X98.834 Y128.332 E12.84531
G1 X98.479 Y127.689 E12.86974
G1 X97.509 Y125.625 E12.94559
G1 X97.254 Y124.981 E12.96863
G1 X96.746 Y123.425 E13.02307
G1 X96.614 Y122.952 E13.0394
G1 X96.339 Y121.766 E13.07989
G1 X96.247 Y121.272 E13.09661
G1 X96.027 Y119.689 E13.14976
G1 X95.976 Y119.072 E13.17036
G1 X95.922 Y117.105 E13.2358
G1 X95.945 Y116.422 E13.25853
G1 X96.126 Y114.515 E13.32225
G1 X96.206 Y113.964 E13.34076
G1 X96.456 Y112.692 E13.38388
G1 X96.579 Y112.189 E13.4011
G1 X97.037 Y110.635 E13.45499
G1 X97.243 Y110.056 E13.47543
G1 X97.988 Y108.276 E13.53961
G1 X98.24 Y107.752 E13.55895
G1 X98.873 Y106.594 E13.60284
G1 X99.159 Y106.127 E13.62105
G1 X100.209 Y104.586 E13.68307
G1 X100.582 Y104.098 E13.7035
G1 X101.649 Y102.851 E13.75809
G1 X102.08 Y102.401 E13.77881
M204 S5000
M205 X30 Y30
G0 F3600 X102.353 Y102.693
M204 S500
M205 X20 Y20
G1 F1800 X103.744 Y101.393 E13.84214
G1 X104.227 Y100.993 E13.863
G1 X105.816 Y99.832 E13.92845
G1 X106.35 Y99.49 E13.94954
G1 X108.033 Y98.551 E14.01364
G1 X108.502 Y98.32 E14.03103
G1 X109.692 Y97.805 E14.07416
G1 X110.143 Y97.634 E14.0902
G1 X111.699 Y97.126 E14.14464
G1 X112.138 Y97.003 E14.1598
G1 X113.324 Y96.728 E14.2003
G1 X113.782 Y96.644 E14.21578
G1 X115.363 Y96.424 E14.26888
G1 X115.937 Y96.376 E14.28803
G1 X117.906 Y96.322 E14.35355
G1 X118.54 Y96.343 E14.37465
G1 X120.447 Y96.524 E14.43836
G1 X120.959 Y96.599 E14.45557
G1 X122.231 Y96.849 E14.49869
G1 X122.698 Y96.963 E14.51467
G1 X124.252 Y97.421 E14.56856
G1 X124.79 Y97.612 E14.58755
G1 X126.57 Y98.357 E14.65173
G1 X127.049 Y98.588 E14.66941
G1 X128.167 Y99.197 E14.71176
G1 X128.602 Y99.462 E14.7287
G1 X130.183 Y100.536 E14.79227
G1 X130.642 Y100.886 E14.81147
G1 X131.889 Y101.953 E14.86605
G1 X132.307 Y102.353 E14.8853
G1 X133.607 Y103.744 E14.94862
G1 X134.008 Y104.229 E14.96955
G1 X135.17 Y105.821 E15.03511
G1 X135.511 Y106.353 E15.05612
G1 X136.448 Y108.032 E15.12007
G1 X136.678 Y108.499 E15.13739
G1 X137.194 Y109.69 E15.18056
G1 X137.366 Y110.142 E15.19664
G1 X137.874 Y111.697 E15.25105
G1 X137.997 Y112.137 E15.26625
G1 X138.272 Y113.323 E15.30674
G1 X138.356 Y113.782 E15.32226
G1 X138.576 Y115.364 E15.37539
G1 X138.624 Y115.937 E15.39451
G1 X138.678 Y117.906 E15.46002
G1 X138.657 Y118.537 E15.48102
G1 X138.478 Y120.434 E15.5444
G1 X138.403 Y120.949 E15.56171
G1 X138.151 Y122.231 E15.60516
G1 X138.037 Y122.696 E15.62109
G1 X137.582 Y124.242 E15.67469
G1 X137.392 Y124.78 E15.69367
G1 X136.652 Y126.55 E15.75747
G1 X136.42 Y127.033 E15.7753
G1 X135.779 Y128.209 E15.81984
G1 X135.51 Y128.648 E15.83697
G1 X134.46 Y130.189 E15.89899
G1 X134.114 Y130.642 E15.91795
G1 X133.047 Y131.889 E15.97253
G1 X132.647 Y132.307 E15.99178
G1 X131.256 Y133.607 E16.0551
G1 X130.773 Y134.007 E16.07596
G1 X129.184 Y135.168 E16.14141
G1 X128.65 Y135.51 E16.1625
G1 X126.971 Y136.447 E16.22645
G1 X126.503 Y136.678 E16.24381
G1 X125.309 Y137.195 E16.28709
G1 X124.857 Y137.366 E16.30316
G1 X123.301 Y137.874 E16.3576
G1 X122.861 Y137.997 E16.3728
G1 X121.713 Y138.263 E16.41199
G1 X121.193 Y138.356 E16.42956
G1 X119.127 Y138.618 E16.49883
G1 X118.487 Y138.659 E16.52016
G1 X116.635 Y138.664 E16.58176
G1 X116.031 Y138.63 E16.60188
G1 X114.165 Y138.417 E16.66434
G1 X113.602 Y138.322 E16.68333
G1 X112.001 Y137.958 E16.73794
G1 X111.439 Y137.796 E16.7574
G1 X109.616 Y137.159 E16.82162
G1 X109.139 Y136.965 E16.83875
G1 X107.988 Y136.43 E16.88097
G1 X107.516 Y136.181 E16.89872
G1 X105.811 Y135.164 E16.96475
G1 X105.282 Y134.802 E16.98607
G1 X103.751 Y133.611 E17.05058
G1 X103.322 Y133.239 E17.06947
G1 X102.168 Y132.119 E17.12295
G1 X101.777 Y131.694 E17.14216
G1 X100.573 Y130.233 E17.20513
G1 X100.21 Y129.735 E17.22563
G1 X99.171 Y128.116 E17.28961
G1 X98.841 Y127.519 E17.3123
G1 X97.871 Y125.455 E17.38815
G1 X97.634 Y124.857 E17.40954
G1 X97.126 Y123.301 E17.46399
G1 X97.003 Y122.862 E17.47915
G1 X96.728 Y121.676 E17.51964
G1 X96.644 Y121.217 E17.53516
G1 X96.424 Y119.634 E17.58832
G1 X96.376 Y119.061 E17.60744
G1 X96.322 Y117.094 E17.67289
G1 X96.343 Y116.46 E17.69399
G1 X96.524 Y114.553 E17.7577
G1 X96.599 Y114.041 E17.77491
G1 X96.849 Y112.769 E17.81803
G1 X96.963 Y112.302 E17.83402
G1 X97.421 Y110.748 E17.8879
G1 X97.612 Y110.21 E17.90689
G1 X98.357 Y108.43 E17.97107
G1 X98.591 Y107.944 E17.98901
G1 X99.224 Y106.786 E18.0329
G1 X99.49 Y106.352 E18.04983
G1 X100.54 Y104.811 E18.11185
G1 X100.886 Y104.358 E18.13081
G1 X101.953 Y103.111 E18.1854
G1 X102.353 Y102.693 E18.20464
M204 S5000
M205 X30 Y30
G1 F2400 E13.20464
;MESH:77c7e536-188c-4a13-9f87-ac8479be15d3.stl
G0 F3600 X110.623 Y102.323
G0 X111.186 Y103.477
G0 X118.437 Y102.228
G0 X118.443 Y102.129
M204 S500
M205 X20 Y20
;TYPE:WALL-INNER
G1 F2400 E18.20464
G1 F1800 X119.352 Y102.212 E18.235
G1 X120.267 Y102.351 E18.26578
G1 X121.192 Y102.55 E18.29725
G1 X122.08 Y102.797 E18.32791
G1 X122.95 Y103.097 E18.35852
G1 X123.822 Y103.459 E18.38992
G1 X124.673 Y103.873 E18.4214
G1 X125.451 Y104.311 E18.45109
G1 X126.255 Y104.831 E18.48294
G1 X126.998 Y105.378 E18.51363
G1 X127.717 Y105.978 E18.54477
G1 X128.389 Y106.611 E18.57548
G1 X129.022 Y107.283 E18.60618
G1 X129.625 Y108.006 E18.6375
G1 X130.176 Y108.755 E18.66842
G1 X130.675 Y109.527 E18.699
G1 X131.127 Y110.327 E18.72956
G1 X131.539 Y111.173 E18.76086
G1 X131.905 Y112.056 E18.79265
G1 X132.205 Y112.925 E18.82322
G1 X132.448 Y113.797 E18.85333
