;FLAVOR:Marlin
;TIME:6779
;Filament used: 7.18922m
;Layer height: 0.3
;MINX:62.905
;MINY:87.6
;MINZ:0.2
;MAXX:169.9
;MAXY:147.4
;MAXZ:26.9
;Generated with Cura_SteamEngine 4.1.0
M140 S60
M105
M190 S60
M104 S200
M105
M109 S200
M82 ;absolute extrusion mode
; Ender 3 Custom Start G-code
G28 ; Home all axes
G92 E0 ; Reset Extruder
G1 Z2.0 F3000 ; Move Z Axis up little to prevent scratching of Heat Bed
G1 X0.1 Y20 Z0.3 F5000.0 ; Move to start position
G1 X0.1 Y200.0 Z0.3 F1500.0 E15 ; Draw the first line
G1 X0.4 Y200.0 Z0.3 F5000.0 ; Move to side a little
G1 X0.4 Y20 Z0.3 F1500.0 E30 ; Draw the second line
G92 E0 ; Reset Extruder
G1 Z2.0 F3000 ; Move Z Axis up little to prevent scratching of Heat Bed
; End of custom start GCode
G92 E0
G92 E0
G1 F2400 E-5
;LAYER_COUNT:90
;LAYER:0
M107
M204 S500
M205 X10 Y10
G0 F3600 X67.726 Y88.848 Z0.2
;TYPE:SKIRT
G1 F2400 E0
G1 F1800 X68.325 Y88.458 E0.02377
G1 X68.965 Y88.137 E0.04759
G1 X69.636 Y87.89 E0.07137
G1 X70.33 Y87.719 E0.09514
G1 X71.33 Y87.612 E0.12859
G1 X71.65 Y87.603 E0.13924
G1 X71.83 Y87.6 E0.14523
G1 X162.793 Y87.6 E3.17067
G1 X162.885 Y87.601 E3.17373
G1 X163.583 Y87.611 E3.19695
G1 X164.296 Y87.661 E3.22072
G1 X165 Y87.79 E3.24452
G1 X165.684 Y87.998 E3.2683
G1 X166.341 Y88.28 E3.29208
G1 X166.963 Y88.634 E3.31589
G1 X167.541 Y89.055 E3.33967
G1 X168.069 Y89.538 E3.36347
G1 X168.539 Y90.076 E3.38723
G1 X168.947 Y90.664 E3.41103
G1 X169.286 Y91.294 E3.43483
G1 X169.553 Y91.957 E3.4586
G1 X169.744 Y92.647 E3.48241
G1 X169.857 Y93.353 E3.5062
G1 X169.888 Y93.83 E3.52209
G1 X169.897 Y94.15 E3.53274
G1 X169.9 Y94.33 E3.53873
G1 X169.9 Y140.343 E5.06913
G1 X169.891 Y141.07 E5.09331
G1 X169.842 Y141.784 E5.11711
G1 X169.714 Y142.488 E5.14091
G1 X169.508 Y143.173 E5.1647
G1 X169.227 Y143.83 E5.18847
G1 X168.874 Y144.453 E5.21229
G1 X168.454 Y145.032 E5.23608
G1 X167.972 Y145.56 E5.25985
G1 X167.435 Y146.032 E5.28363
G1 X166.847 Y146.44 E5.30744
G1 X166.218 Y146.781 E5.33124
G1 X165.555 Y147.049 E5.35502
G1 X164.866 Y147.241 E5.37881
G1 X164.16 Y147.356 E5.4026
G1 X163.67 Y147.388 E5.41893
G1 X163.349 Y147.397 E5.42961
G1 X163.17 Y147.4 E5.43557
G1 X72.207 Y147.4 E8.46101
G1 X72.124 Y147.399 E8.46377
G1 X71.426 Y147.39 E8.48699
G1 X70.713 Y147.341 E8.51076
G1 X70.009 Y147.213 E8.53456
G1 X69.324 Y147.007 E8.55835
G1 X68.667 Y146.725 E8.58213
G1 X68.045 Y146.372 E8.60592
G1 X67.466 Y145.952 E8.62971
G1 X66.937 Y145.47 E8.65351
G1 X66.466 Y144.932 E8.67729
G1 X66.058 Y144.345 E8.70107
G1 X65.718 Y143.715 E8.72488
G1 X65.45 Y143.052 E8.74866
G1 X65.258 Y142.363 E8.77245
G1 X65.144 Y141.657 E8.79624
G1 X65.111 Y141.164 E8.81267
G1 X65.102 Y140.831 E8.82375
G1 X65.1 Y140.658 E8.82951
G1 X65.1 Y138.011 E8.91755
G1 X65.062 Y135.369 E9.00543
G1 X64.95 Y132.729 E9.09331
G1 X64.763 Y130.083 E9.18154
G1 X64.499 Y127.427 E9.27031
G1 X64.165 Y124.816 E9.35786
G1 X63.757 Y122.218 E9.44533
G1 X63.246 Y119.471 E9.53827
G1 X63.04 Y118.449 E9.57294
G1 X62.938 Y117.741 E9.59673
G1 X62.917 Y117.365 E9.60926
G1 X62.908 Y117.045 E9.61991
G1 X62.905 Y116.865 E9.62589
G1 X62.905 Y113.512 E9.73741
G1 X62.906 Y113.42 E9.74047
G1 X62.916 Y112.723 E9.76366
G1 X62.966 Y112.01 E9.78743
G1 X63.038 Y111.565 E9.80243
G1 X63.561 Y108.941 E9.89142
G1 X64.004 Y106.35 E9.97884
G1 X64.376 Y103.731 E10.06683
G1 X64.673 Y101.109 E10.15459
G1 X64.897 Y98.47 E10.24268
G1 X65.047 Y95.797 E10.33173
G1 X65.084 Y94.493 E10.37511
G1 X65.087 Y94.395 E10.37838
G1 X65.116 Y93.73 E10.40051
G1 X65.187 Y93.018 E10.42431
G1 X65.337 Y92.319 E10.44809
G1 X65.564 Y91.641 E10.47187
G1 X65.866 Y90.992 E10.49568
G1 X66.238 Y90.381 E10.51947
G1 X66.675 Y89.816 E10.54323
G1 X67.173 Y89.302 E10.56703
G1 X67.726 Y88.848 E10.59083
G0 F3600 X68.106 Y89.068
G1 F1800 X68.698 Y88.709 E10.61386
G1 X69.327 Y88.42 E10.63688
G1 X69.986 Y88.206 E10.65993
G1 X70.665 Y88.069 E10.68297
G1 X71.341 Y88.011 E10.70553
G1 X71.661 Y88.002 E10.71618
G1 X71.83 Y88 E10.7218
G1 X162.793 Y88 E13.74724
G1 X162.879 Y88.001 E13.7501
G1 X163.577 Y88.011 E13.77332
G1 X164.268 Y88.06 E13.79636
G1 X164.948 Y88.19 E13.81939
G1 X165.609 Y88.396 E13.84242
G1 X166.242 Y88.678 E13.86546
G1 X166.838 Y89.03 E13.88849
G1 X167.389 Y89.449 E13.91151
G1 X167.889 Y89.929 E13.93456
G1 X168.33 Y90.463 E13.9576
G1 X168.707 Y91.044 E13.98063
G1 X169.014 Y91.665 E14.00367
G1 X169.247 Y92.317 E14.0267
G1 X169.404 Y92.991 E14.04972
G1 X169.489 Y93.841 E14.07813
G1 X169.498 Y94.161 E14.08878
G1 X169.5 Y94.33 E14.0944
G1 X169.5 Y140.338 E15.62463
G1 X169.491 Y141.065 E15.64881
G1 X169.442 Y141.756 E15.67186
G1 X169.314 Y142.437 E15.6949
G1 X169.109 Y143.098 E15.71792
G1 X168.829 Y143.731 E15.74094
G1 X168.477 Y144.328 E15.76399
G1 X168.06 Y144.881 E15.78703
G1 X167.581 Y145.381 E15.81006
G1 X167.048 Y145.823 E15.83309
G1 X166.467 Y146.201 E15.85614
G1 X165.847 Y146.509 E15.87917
G1 X165.196 Y146.744 E15.90219
G1 X164.521 Y146.902 E15.92525
G1 X163.659 Y146.989 E15.95406
G1 X163.338 Y146.998 E15.96474
G1 X163.17 Y147 E15.97033
G1 X72.13 Y147 E18.99833
G1 X71.432 Y146.991 E19.02155
G1 X70.741 Y146.942 E19.04459
G1 X70.06 Y146.813 E19.06764
G1 X69.399 Y146.608 E19.09066
G1 X68.766 Y146.327 E19.1137
G1 X68.169 Y145.976 E19.13673
G1 X67.617 Y145.558 E19.15976
G1 X67.117 Y145.079 E19.18279
G1 X66.675 Y144.545 E19.20585
G1 X66.298 Y143.965 E19.22885
G1 X65.99 Y143.344 E19.25191
G1 X65.755 Y142.693 E19.27493
G1 X65.598 Y142.018 E19.29798
G1 X65.511 Y141.153 E19.32689
G1 X65.502 Y140.82 E19.33797
G1 X65.5 Y140.658 E19.34336
G1 X65.5 Y138.011 E19.4314
G1 X65.463 Y135.382 E19.51885
G1 X65.348 Y132.682 E19.60873
G1 X65.162 Y130.054 E19.69636
G1 X64.896 Y127.369 E19.7861
G1 X64.564 Y124.774 E19.87312
G1 X64.152 Y122.154 E19.96133
G1 X63.636 Y119.384 E20.05504
G1 X63.432 Y118.37 E20.08944
G1 X63.316 Y117.354 E20.12346
G1 X63.307 Y117.034 E20.1341
G1 X63.305 Y116.865 E20.13973
G1 X63.305 Y113.512 E20.25125
G1 X63.306 Y113.426 E20.25411
G1 X63.316 Y112.729 E20.27729
G1 X63.365 Y112.038 E20.30033
G1 X63.431 Y111.643 E20.31365
G1 X63.947 Y109.05 E20.40159
G1 X64.4 Y106.402 E20.49094
G1 X64.771 Y103.795 E20.57852
G1 X65.07 Y101.152 E20.66699
G1 X65.296 Y98.49 E20.75585
G1 X65.445 Y95.832 E20.84439
G1 X65.483 Y94.504 E20.88858
G1 X65.487 Y94.413 E20.89161
G1 X65.516 Y93.748 E20.91375
G1 X65.586 Y93.059 E20.93678
G1 X65.735 Y92.382 E20.95984
G1 X65.961 Y91.728 E20.98285
G1 X66.26 Y91.103 E21.00589
G1 X66.63 Y90.518 E21.02892
G1 X67.065 Y89.979 E21.05195
G1 X67.559 Y89.493 E21.075
G1 X68.106 Y89.068 E21.09804
G0 F3600 X67.944 Y89.692
G1 F1800 X68.484 Y89.297 E21.1203
G1 X69.067 Y88.97 E21.14253
G1 X69.686 Y88.714 E21.16481
G1 X70.33 Y88.535 E21.18704
G1 X70.991 Y88.433 E21.20928
G1 X71.353 Y88.411 E21.22135
G1 X71.673 Y88.402 E21.23199
G1 X71.83 Y88.4 E21.23722
G1 X162.793 Y88.4 E24.26266
G1 X162.873 Y88.401 E24.26532
G1 X163.571 Y88.411 E24.28854
G1 X164.238 Y88.46 E24.31078
G1 X164.895 Y88.589 E24.33305
G1 X165.531 Y88.795 E24.35529
G1 X166.139 Y89.076 E24.37756
G1 X166.708 Y89.426 E24.39978
G1 X167.232 Y89.843 E24.42205
G1 X167.702 Y90.319 E24.4443
G1 X168.112 Y90.847 E24.46654
G1 X168.457 Y91.421 E24.48881
G1 X168.73 Y92.032 E24.51107
G1 X168.928 Y92.671 E24.53332
G1 X169.049 Y93.329 E24.55557
G1 X169.089 Y93.853 E24.57305
G1 X169.098 Y94.173 E24.5837
G1 X169.1 Y94.33 E24.58892
G1 X169.1 Y140.333 E26.11899
G1 X169.091 Y141.06 E26.14317
G1 X169.042 Y141.728 E26.16545
G1 X168.915 Y142.384 E26.18767
G1 X168.71 Y143.021 E26.20993
G1 X168.431 Y143.629 E26.23218
G1 X168.081 Y144.199 E26.25442
G1 X167.665 Y144.724 E26.2767
G1 X167.19 Y145.195 E26.29895
G1 X166.663 Y145.606 E26.32118
G1 X166.09 Y145.952 E26.34344
G1 X165.48 Y146.226 E26.36568
G1 X164.841 Y146.426 E26.38795
G1 X164.183 Y146.548 E26.41021
G1 X163.648 Y146.589 E26.42806
G1 X163.327 Y146.598 E26.43874
G1 X163.17 Y146.6 E26.44396
G1 X72.135 Y146.6 E29.4718
G1 X71.437 Y146.591 E29.49502
G1 X70.77 Y146.542 E29.51726
G1 X70.113 Y146.414 E29.53952
G1 X69.476 Y146.209 E29.56178
G1 X68.868 Y145.929 E29.58404
G1 X68.298 Y145.579 E29.60629
G1 X67.774 Y145.163 E29.62854
G1 X67.303 Y144.688 E29.65079
G1 X66.892 Y144.16 E29.67305
G1 X66.547 Y143.587 E29.69529
G1 X66.273 Y142.977 E29.71753
G1 X66.073 Y142.338 E29.7398
G1 X65.952 Y141.68 E29.76206
G1 X65.911 Y141.142 E29.78
G1 X65.902 Y140.809 E29.79108
G1 X65.9 Y140.658 E29.7961
G1 X65.9 Y138.011 E29.88414
G1 X65.862 Y135.359 E29.97236
G1 X65.748 Y132.672 E30.06181
G1 X65.56 Y130.019 E30.15027
G1 X65.296 Y127.354 E30.23934
G1 X64.956 Y124.694 E30.32853
G1 X64.545 Y122.084 E30.41641
G1 X64.029 Y119.31 E30.51026
G1 X63.824 Y118.291 E30.54483
G1 X63.716 Y117.342 E30.5766
G1 X63.707 Y117.022 E30.58724
G1 X63.705 Y116.865 E30.59247
G1 X63.705 Y113.512 E30.70399
G1 X63.706 Y113.432 E30.70665
G1 X63.716 Y112.735 E30.72983
G1 X63.765 Y112.067 E30.75211
G1 X63.823 Y111.721 E30.76378
G1 X64.341 Y109.118 E30.85205
G1 X64.796 Y106.46 E30.94174
G1 X65.171 Y103.825 E31.03027
G1 X65.468 Y101.195 E31.1183
G1 X65.696 Y98.513 E31.20782
G1 X65.845 Y95.864 E31.29607
G1 X65.883 Y94.516 E31.34092
G1 X65.886 Y94.43 E31.34378
G1 X65.915 Y93.765 E31.36592
G1 X65.984 Y93.1 E31.38816
G1 X66.132 Y92.447 E31.41043
G1 X66.357 Y91.817 E31.43268
G1 X66.655 Y91.218 E31.45493
G1 X67.023 Y90.659 E31.47719
G1 X67.454 Y90.148 E31.49943
G1 X67.944 Y89.692 E31.52169
G0 F3600 X68.327 Y89.897
G1 F1800 X68.86 Y89.535 E31.54312
G1 X69.434 Y89.241 E31.56457
G1 X70.04 Y89.021 E31.58601
G1 X70.668 Y88.878 E31.60743
G1 X71.364 Y88.811 E31.63069
G1 X71.684 Y88.802 E31.64134
G1 X71.83 Y88.8 E31.64619
G1 X162.793 Y88.8 E34.67163
G1 X162.867 Y88.801 E34.6741
G1 X163.565 Y88.811 E34.69731
G1 X164.208 Y88.86 E34.71876
G1 X164.84 Y88.988 E34.74021
G1 X165.451 Y89.194 E34.76165
G1 X166.032 Y89.473 E34.78309
G1 X166.574 Y89.822 E34.80453
G1 X167.068 Y90.236 E34.82597
G1 X167.508 Y90.708 E34.84743
G1 X167.886 Y91.23 E34.86887
G1 X168.196 Y91.795 E34.8903
G1 X168.434 Y92.394 E34.91174
G1 X168.596 Y93.018 E34.93318
G1 X168.689 Y93.864 E34.96149
G1 X168.698 Y94.184 E34.97214
G1 X168.7 Y94.33 E34.97699
G1 X168.7 Y140.328 E36.50689
G1 X168.691 Y141.055 E36.53108
G1 X168.643 Y141.698 E36.55252
G1 X168.516 Y142.33 E36.57396
G1 X168.311 Y142.942 E36.59543
G1 X168.033 Y143.523 E36.61685
G1 X167.685 Y144.066 E36.6383
G1 X167.272 Y144.561 E36.65974
G1 X166.801 Y145.001 E36.68118
G1 X166.279 Y145.38 E36.70264
G1 X165.715 Y145.691 E36.72406
G1 X165.116 Y145.93 E36.74551
G1 X164.493 Y146.094 E36.76694
G1 X163.637 Y146.189 E36.79558
G1 X163.316 Y146.198 E36.80626
G1 X163.17 Y146.2 E36.81112
G1 X72.14 Y146.2 E39.83879
G1 X71.442 Y146.191 E39.86201
G1 X70.799 Y146.142 E39.88345
G1 X70.167 Y146.015 E39.90489
G1 X69.556 Y145.81 E39.92633
G1 X68.975 Y145.532 E39.94775
G1 X68.432 Y145.183 E39.96922
G1 X67.937 Y144.77 E39.99066
G1 X67.497 Y144.299 E40.0121
G1 X67.118 Y143.777 E40.03356
G1 X66.807 Y143.213 E40.05498
G1 X66.569 Y142.614 E40.07642
G1 X66.406 Y141.99 E40.09787
G1 X66.311 Y141.131 E40.12661
G1 X66.302 Y140.798 E40.13769
G1 X66.3 Y140.658 E40.14235
G1 X66.3 Y138.011 E40.23039
G1 X66.262 Y135.336 E40.31937
G1 X66.149 Y132.663 E40.40835
G1 X65.959 Y129.988 E40.49755
G1 X65.692 Y127.297 E40.58749
G1 X65.353 Y124.647 E40.67635
G1 X64.936 Y121.991 E40.76577
G1 X64.431 Y119.279 E40.85752
G1 X64.216 Y118.212 E40.89372
G1 X64.116 Y117.331 E40.92321
G1 X64.107 Y117.011 E40.93386
G1 X64.105 Y116.865 E40.93872
G1 X64.105 Y113.512 E41.05024
G1 X64.106 Y113.437 E41.05273
G1 X64.116 Y112.74 E41.07592
G1 X64.215 Y111.799 E41.10739
G1 X64.734 Y109.192 E41.1958
G1 X65.193 Y106.512 E41.28623
G1 X65.565 Y103.89 E41.37431
G1 X65.87 Y101.202 E41.46429
G1 X66.093 Y98.569 E41.55218
G1 X66.245 Y95.864 E41.64229
G1 X66.283 Y94.527 E41.68678
G1 X66.286 Y94.447 E41.68944
G1 X66.315 Y93.782 E41.71158
G1 X66.383 Y93.141 E41.73302
G1 X66.53 Y92.514 E41.75444
G1 X66.753 Y91.909 E41.77588
G1 X67.049 Y91.336 E41.79733
G1 X67.414 Y90.805 E41.81876
G1 X67.842 Y90.323 E41.8402
G1 X68.327 Y89.897 E41.86167
G0 F3600 X69.505 Y113.005
;TYPE:SUPPORT
G1 F1800 X70.6 Y113.005 E41.89809
G1 X70.6 Y116.995 E42.0308
G1 X69.505 Y116.995 E42.06722
G1 X69.505 Y113.005 E42.19993
G0 F3600 X69.665 Y114.681
G1 F1800 X70.44 Y114.681 E42.22571
G1 F2400 E37.22571
;MESH:ButtonSurround_v2a_custom.stl
G0 F3600 X72.12 Y114.681
G0 X72.17 Y140.33
G0 X72.1 Y140.4
;TYPE:WALL-INNER
G1 F2400 E42.22571
G1 F1800 X72.1 Y94.6 E43.74902
G1 X162.9 Y94.6 E46.76904
G1 X162.9 Y140.4 E48.29235
G1 X72.1 Y140.4 E51.31237
G0 F3600 X72.17 Y140.33
G0 X97.33 Y123.67
G0 X97.4 Y123.6
G1 F1800 X110.1 Y123.6 E51.73478
G1 X110.1 Y111.4 E52.14055
G1 X97.4 Y111.4 E52.56296
G1 X97.4 Y123.6 E52.96873
G0 F3600 X97.33 Y123.67
G0 X115.33 Y123.67
G0 X115.4 Y123.6
G1 F1800 X128.1 Y123.6 E53.39113
G1 X128.1 Y111.4 E53.79691
G1 X115.4 Y111.4 E54.21931
G1 X115.4 Y123.6 E54.62508
G0 F3600 X115.33 Y123.67
G0 X128.128 Y123.628
G0 X141.83 Y120.67
G0 X141.9 Y120.6
G1 F1800 X149.1 Y120.6 E54.86456
G1 X149.1 Y114.4 E55.07077
G1 X141.9 Y114.4 E55.31024
G1 X141.9 Y120.6 E55.51646
G0 F3600 X142.3 Y120.2
;TYPE:WALL-OUTER
G1 F1800 X148.7 Y120.2 E55.72932
G1 X148.7 Y114.8 E55.90892
G1 X142.3 Y114.8 E56.12179
G1 X142.3 Y120.2 E56.30139
G0 F3600 X142.5 Y120.2
G0 X142.5 Y120.7
G0 X128.128 Y123.628
G0 X115.372 Y123.628
G0 X115.8 Y123.2
G1 F1800 X127.7 Y123.2 E56.69719
G1 X127.7 Y111.8 E57.07636
G1 X115.8 Y111.8 E57.47215
G1 X115.8 Y123.2 E57.85132
G0 F3600 X116 Y123.2
G0 X116 Y123.7
G0 X97.372 Y123.628
G0 X97.8 Y123.2
G1 F1800 X109.7 Y123.2 E58.24711
G1 X109.7 Y111.8 E58.62628
G1 X97.8 Y111.8 E59.02207
G1 X97.8 Y123.2 E59.40124
G0 F3600 X98 Y123.2
G0 X98 Y123.7
G0 X72.17 Y140.33
G0 X71.7 Y140.8
G1 F1800 X71.7 Y94.2 E60.95116
G1 X163.3 Y94.2 E63.99779
G1 X163.3 Y140.8 E65.54771
G1 X71.7 Y140.8 E68.59434
G0 F3600 X71.7 Y140.6
G0 X72.49 Y140.01
;TYPE:SKIN
G1 F1800 X72.49 Y94.99 E70.09171
G1 X162.51 Y94.99 E73.08579
G1 X162.51 Y140.01 E74.58316
G1 X72.49 Y140.01 E77.57724
G0 F3600 X97.01 Y123.99
G1 F1800 X110.49 Y123.99 E78.02558
G1 X110.49 Y111.01 E78.4573
G1 X97.01 Y111.01 E78.90565
G1 X97.01 Y123.99 E79.33736
G0 F3600 X115.01 Y123.99
G1 F1800 X128.49 Y123.99 E79.78571
G1 X128.49 Y111.01 E80.21743
G1 X115.01 Y111.01 E80.66577
G1 X115.01 Y123.99 E81.09749
G0 F3600 X128.128 Y123.628
G0 X141.51 Y120.99
G1 F1800 X149.49 Y120.99 E81.36291
G1 X149.49 Y114.01 E81.59506
G1 X141.51 Y114.01 E81.86048
G1 X141.51 Y120.99 E82.09263
G0 F3600 X141.872 Y114.372
G0 X162.329 Y95.578
G1 F1800 X161.92 Y95.169 E82.11187
G0 F3600 X161.354 Y95.169
G1 F1800 X162.329 Y96.143 E82.15771
G0 F3600 X162.329 Y96.709
G1 F1800 X160.789 Y95.169 E82.23015
G0 F3600 X160.223 Y95.169
G1 F1800 X162.329 Y97.275 E82.32921
G0 F3600 X162.329 Y97.84
G1 F1800 X159.657 Y95.169 E82.45486
G0 F3600 X159.091 Y95.169
G1 F1800 X162.329 Y98.406 E82.60715
G0 F3600 X162.329 Y98.972
G1 F1800 X158.526 Y95.169 E82.78603
G0 F3600 X157.96 Y95.169
G1 F1800 X162.329 Y99.538 E82.99153
G0 F3600 X162.329 Y100.103
G1 F1800 X157.394 Y95.169 E83.22364
G0 F3600 X156.829 Y95.169
G1 F1800 X162.329 Y100.669 E83.48234
G0 F3600 X162.329 Y101.235
G1 F1800 X156.263 Y95.169 E83.76767
G0 F3600 X155.697 Y95.169
G1 F1800 X162.329 Y101.8 E84.07959
G0 F3600 X162.329 Y102.366
G1 F1800 X155.132 Y95.169 E84.41812
G0 F3600 X154.566 Y95.169
G1 F1800 X162.329 Y102.932 E84.78326
G0 F3600 X162.329 Y103.497
G1 F1800 X154 Y95.169 E85.17501
G0 F3600 X153.435 Y95.169
G1 F1800 X162.329 Y104.063 E85.59336
G0 F3600 X162.329 Y104.629
G1 F1800 X152.869 Y95.169 E86.03833
G0 F3600 X152.303 Y95.169
G1 F1800 X162.329 Y105.194 E86.5099
G0 F3600 X162.329 Y105.76
G1 F1800 X151.738 Y95.169 E87.00806
G0 F3600 X151.172 Y95.169
G1 F1800 X162.329 Y106.326 E87.53285
G0 F3600 X162.329 Y106.891
G1 F1800 X150.606 Y95.169 E88.08425
G0 F3600 X150.04 Y95.169
G1 F1800 X162.329 Y107.457 E88.66226
G0 F3600 X162.329 Y108.023
G1 F1800 X149.475 Y95.169 E89.26687
G0 F3600 X148.909 Y95.169
G1 F1800 X162.329 Y108.588 E89.89808
G0 F3600 X162.329 Y109.154
G1 F1800 X148.343 Y95.169 E90.55592
G0 F3600 X147.778 Y95.169
G1 F1800 X162.329 Y109.72 E91.24035
G0 F3600 X162.329 Y110.286
G1 F1800 X147.212 Y95.169 E91.95141
G0 F3600 X146.646 Y95.169
G1 F1800 X162.329 Y110.851 E92.68907
