;FLAVOR:Marlin
;TIME:1800
;Filament used: 1.68615m
;Layer height: 0.2
;Generated with Cura_SteamEngine 4.0.0
M140 S60
M105
M190 S60
M104 S200
M105
M109 S200
M82 ;absolute extrusion mode
; Ender 3 Custom Start G-code
G28 ; Home all axes
G92 E0 ; Reset Extruder
G1 Z2.0 F3000 ; Move Z Axis up little to prevent scratching of Heat Bed
G1 X0.1 Y20 Z0.3 F5000.0 ; Move to start position
G1 X0.1 Y200.0 Z0.3 F1500.0 E15 ; Draw the first line
G1 X0.4 Y200.0 Z0.3 F5000.0 ; Move to side a little
G1 X0.4 Y20 Z0.3 F1500.0 E30 ; Draw the second line
G92 E0 ; Reset Extruder
G1 Z2.0 F3000 ; Move Z Axis up little to prevent scratching of Heat Bed
; End of custom start GCode
G92 E0
G1 F2400 E-5
;LAYER_COUNT:58
;LAYER:0
M107
M204 S5000
M205 X30 Y30
G0 F3600 X40.364 Y38.129 Z0.2
M204 S500
M205 X20 Y20
;TYPE:SKIRT
G1 F2400 E0
G1 F1800 X40.889 Y37.642 E0.02382
G1 X42.414 Y36.378 E0.0897
G1 X43.045 Y35.917 E0.11569
G1 X44.663 Y34.88 E0.17961
G1 X45.391 Y34.477 E0.20728
G1 X47.427 Y33.519 E0.28212
G1 X48.146 Y33.233 E0.30786
G1 X49.679 Y32.727 E0.36155
G1 X50.235 Y32.57 E0.38077
G1 X51.452 Y32.287 E0.42233
G1 X52.084 Y32.173 E0.44369
G1 X54.04 Y31.921 E0.50928
G1 X54.814 Y31.869 E0.53508
G1 X56.723 Y31.856 E0.59858
G1 X57.493 Y31.897 E0.62422
G1 X59.428 Y32.118 E0.689
G1 X60.132 Y32.239 E0.71276
G1 X61.694 Y32.597 E0.76606
G1 X62.375 Y32.793 E0.78963
G1 X64.207 Y33.433 E0.85417
G1 X64.792 Y33.671 E0.87518
G1 X65.92 Y34.195 E0.91655
G1 X66.503 Y34.503 E0.93848
G1 X68.246 Y35.543 E1.00598
G1 X68.9 Y35.99 E1.03233
G1 X70.406 Y37.163 E1.09582
G1 X70.921 Y37.611 E1.11852
G1 X72.032 Y38.685 E1.16992
G1 X72.508 Y39.198 E1.1932
G1 X73.741 Y40.683 E1.25739
G1 X74.202 Y41.312 E1.28333
G1 X75.26 Y42.959 E1.34844
G1 X75.666 Y43.693 E1.37634
G1 X76.624 Y45.729 E1.45118
G1 X76.912 Y46.454 E1.47712
G1 X77.422 Y48.004 E1.5314
G1 X77.576 Y48.553 E1.55036
G1 X77.859 Y49.769 E1.59189
G1 X77.967 Y50.351 E1.61157
G1 X78.194 Y52.008 E1.6672
G1 X78.251 Y52.717 E1.69086
G1 X78.298 Y54.594 E1.75331
G1 X78.271 Y55.364 E1.77893
G1 X78.083 Y57.327 E1.84452
G1 X77.991 Y57.955 E1.86563
G1 X77.748 Y59.188 E1.90743
G1 X77.592 Y59.813 E1.92886
G1 X77.035 Y61.644 E1.99251
G1 X76.77 Y62.358 E2.01784
G1 X75.999 Y64.111 E2.08154
G1 X75.668 Y64.761 E2.1058
G1 X74.825 Y66.205 E2.16141
G1 X74.433 Y66.797 E2.18503
G1 X73.281 Y68.346 E2.24923
G1 X72.914 Y68.796 E2.26854
G1 X72.289 Y69.494 E2.29971
G1 X71.894 Y69.898 E2.3185
G1 X70.508 Y71.195 E2.38163
G1 X69.918 Y71.685 E2.40714
G1 X68.343 Y72.839 E2.47208
G1 X67.686 Y73.26 E2.49804
G1 X65.982 Y74.214 E2.56299
G1 X65.397 Y74.504 E2.58471
G1 X64.234 Y75.007 E2.62685
G1 X63.633 Y75.232 E2.6482
G1 X61.778 Y75.822 E2.71294
G1 X61.089 Y75.999 E2.7366
G1 X59.499 Y76.316 E2.79052
G1 X58.795 Y76.417 E2.81418
G1 X56.861 Y76.583 E2.87874
G1 X56.094 Y76.602 E2.90426
G1 X54.201 Y76.537 E2.96726
G1 X53.37 Y76.454 E2.99503
G1 X51.141 Y76.083 E3.07019
G1 X50.386 Y75.91 E3.09595
G1 X48.832 Y75.453 E3.14983
G1 X48.169 Y75.217 E3.17323
G1 X46.39 Y74.473 E3.23737
G1 X45.796 Y74.188 E3.25928
G1 X44.677 Y73.578 E3.30167
G1 X44.134 Y73.246 E3.32284
G1 X42.508 Y72.137 E3.3883
G1 X41.944 Y71.705 E3.41193
G1 X40.74 Y70.671 E3.46472
G1 X40.233 Y70.184 E3.4881
G1 X38.933 Y68.792 E3.55145
G1 X38.446 Y68.205 E3.57682
G1 X37.309 Y66.652 E3.64083
G1 X36.89 Y66 E3.66661
G1 X35.93 Y64.287 E3.73192
G1 X35.639 Y63.699 E3.75374
G1 X35.136 Y62.536 E3.79589
G1 X34.911 Y61.936 E3.8172
G1 X34.319 Y60.076 E3.88212
G1 X34.142 Y59.387 E3.90578
G1 X33.824 Y57.793 E3.95984
G1 X33.724 Y57.093 E3.98336
G1 X33.562 Y55.221 E4.04586
G1 X33.542 Y54.456 E4.07131
G1 X33.607 Y52.5 E4.1364
G1 X33.68 Y51.723 E4.16236
G1 X33.981 Y49.8 E4.2271
G1 X34.114 Y49.164 E4.24871
G1 X34.442 Y47.915 E4.29166
G1 X34.639 Y47.294 E4.31333
G1 X35.323 Y45.47 E4.37812
G1 X35.604 Y44.831 E4.40134
G1 X36.317 Y43.42 E4.45392
G1 X36.669 Y42.809 E4.47737
G1 X37.718 Y41.201 E4.54123
G1 X38.094 Y40.683 E4.56252
G1 X38.889 Y39.696 E4.60467
G1 X39.264 Y39.271 E4.62352
G1 X40.364 Y38.129 E4.67626
M204 S5000
M205 X30 Y30
G0 F3600 X40.652 Y38.407
M204 S500
M205 X20 Y20
G1 F1800 X41.144 Y37.95 E4.69859
G1 X42.669 Y36.686 E4.76447
G1 X43.26 Y36.253 E4.78884
G1 X44.878 Y35.216 E4.85276
G1 X45.561 Y34.839 E4.87871
G1 X47.597 Y33.881 E4.95355
G1 X48.271 Y33.612 E4.97768
G1 X49.804 Y33.106 E5.03138
G1 X50.326 Y32.96 E5.04941
G1 X51.543 Y32.677 E5.09096
G1 X52.135 Y32.57 E5.11097
G1 X54.091 Y32.318 E5.17657
G1 X54.817 Y32.269 E5.20077
G1 X56.726 Y32.256 E5.26426
G1 X57.448 Y32.295 E5.28831
G1 X59.383 Y32.516 E5.35309
G1 X60.042 Y32.629 E5.37533
G1 X61.604 Y32.987 E5.42863
G1 X62.243 Y33.171 E5.45074
G1 X64.075 Y33.811 E5.51529
G1 X64.624 Y34.033 E5.53498
G1 X65.752 Y34.557 E5.57635
G1 X66.298 Y34.846 E5.5969
G1 X68.041 Y35.886 E5.66441
G1 X68.654 Y36.305 E5.6891
G1 X70.16 Y37.478 E5.75259
G1 X70.643 Y37.898 E5.77388
G1 X71.754 Y38.972 E5.82528
G1 X72.2 Y39.453 E5.8471
G1 X73.433 Y40.938 E5.91129
G1 X73.865 Y41.528 E5.93561
G1 X74.923 Y43.175 E6.00072
G1 X75.304 Y43.863 E6.02688
G1 X76.262 Y45.899 E6.10172
G1 X76.532 Y46.579 E6.12605
G1 X77.042 Y48.129 E6.18033
G1 X77.187 Y48.644 E6.19812
G1 X77.47 Y49.86 E6.23965
G1 X77.57 Y50.406 E6.25811
G1 X77.797 Y52.063 E6.31373
G1 X77.851 Y52.727 E6.33589
G1 X77.898 Y54.604 E6.39834
G1 X77.873 Y55.326 E6.42237
G1 X77.685 Y57.289 E6.48796
G1 X77.599 Y57.877 E6.50772
G1 X77.356 Y59.11 E6.54952
G1 X77.209 Y59.696 E6.56962
G1 X76.652 Y61.527 E6.63327
G1 X76.404 Y62.197 E6.65703
G1 X75.633 Y63.95 E6.72073
G1 X75.323 Y64.559 E6.74346
G1 X74.48 Y66.003 E6.79907
G1 X74.113 Y66.559 E6.82123
G1 X72.961 Y68.108 E6.88543
G1 X72.616 Y68.529 E6.90354
G1 X71.991 Y69.227 E6.9347
G1 X71.621 Y69.606 E6.95232
G1 X70.235 Y70.903 E7.01545
G1 X69.681 Y71.362 E7.03938
G1 X68.106 Y72.516 E7.10432
G1 X67.491 Y72.911 E7.12863
G1 X65.787 Y73.865 E7.19358
G1 X65.238 Y74.137 E7.21396
G1 X64.075 Y74.64 E7.25611
G1 X63.512 Y74.851 E7.2761
G1 X61.657 Y75.441 E7.34085
G1 X61.011 Y75.607 E7.36303
G1 X59.421 Y75.924 E7.41695
G1 X58.761 Y76.018 E7.43913
G1 X56.827 Y76.184 E7.50369
G1 X56.108 Y76.202 E7.52761
G1 X54.215 Y76.137 E7.59061
G1 X53.436 Y76.06 E7.61665
G1 X51.207 Y75.689 E7.6918
G1 X50.499 Y75.526 E7.71597
G1 X48.945 Y75.069 E7.76984
G1 X48.323 Y74.848 E7.7918
G1 X46.544 Y74.104 E7.85593
G1 X45.987 Y73.837 E7.87648
G1 X44.868 Y73.227 E7.91887
G1 X44.359 Y72.916 E7.9387
G1 X42.733 Y71.807 E8.00417
G1 X42.205 Y71.402 E8.0263
G1 X41.001 Y70.368 E8.07909
G1 X40.525 Y69.911 E8.10103
G1 X39.225 Y68.519 E8.16438
G1 X38.769 Y67.968 E8.18817
G1 X37.632 Y66.415 E8.25219
G1 X37.239 Y65.804 E8.27635
G1 X36.279 Y64.091 E8.34166
G1 X36.006 Y63.54 E8.36211
G1 X35.503 Y62.377 E8.40426
G1 X35.293 Y61.815 E8.42421
G1 X34.701 Y59.955 E8.48913
G1 X34.534 Y59.309 E8.51133
G1 X34.216 Y57.715 E8.56539
G1 X34.122 Y57.058 E8.58746
G1 X33.96 Y55.186 E8.64996
G1 X33.941 Y54.47 E8.67378
G1 X34.006 Y52.514 E8.73887
G1 X34.075 Y51.785 E8.76323
G1 X34.376 Y49.862 E8.82797
G1 X34.501 Y49.266 E8.84822
G1 X34.829 Y48.017 E8.89117
G1 X35.014 Y47.434 E8.91151
G1 X35.698 Y45.61 E8.97631
G1 X35.961 Y45.011 E8.99807
G1 X36.674 Y43.6 E9.05065
G1 X37.004 Y43.028 E9.07261
G1 X38.053 Y41.42 E9.13647
G1 X38.405 Y40.934 E9.15643
G1 X39.2 Y39.947 E9.19858
G1 X39.552 Y39.549 E9.21625
G1 X40.652 Y38.407 E9.26899
M204 S5000
M205 X30 Y30
G0 F3600 X40.94 Y38.684
M204 S500
M205 X20 Y20
G1 F1800 X41.399 Y38.257 E9.28984
G1 X42.924 Y36.993 E9.35572
G1 X43.476 Y36.59 E9.37845
G1 X45.094 Y35.553 E9.44237
G1 X45.732 Y35.201 E9.4666
G1 X47.768 Y34.243 E9.54144
G1 X48.397 Y33.992 E9.56397
G1 X49.93 Y33.486 E9.61766
G1 X50.417 Y33.35 E9.63448
G1 X51.634 Y33.067 E9.67604
G1 X52.186 Y32.967 E9.6947
G1 X54.142 Y32.715 E9.76029
G1 X54.82 Y32.669 E9.78289
G1 X56.729 Y32.656 E9.84639
G1 X57.402 Y32.692 E9.8688
G1 X59.337 Y32.913 E9.93358
G1 X59.953 Y33.019 E9.95437
G1 X61.515 Y33.377 E10.00767
G1 X62.111 Y33.548 E10.02829
G1 X63.943 Y34.188 E10.09284
G1 X64.455 Y34.396 E10.11122
G1 X65.583 Y34.92 E10.15258
G1 X66.093 Y35.19 E10.17178
G1 X67.836 Y36.23 E10.23929
G1 X68.408 Y36.621 E10.26233
G1 X69.914 Y37.794 E10.32582
G1 X70.365 Y38.186 E10.3457
G1 X71.476 Y39.26 E10.39709
G1 X71.892 Y39.709 E10.41745
G1 X73.125 Y41.194 E10.48165
G1 X73.529 Y41.744 E10.50434
G1 X74.587 Y43.391 E10.56945
G1 X74.942 Y44.034 E10.59388
G1 X75.9 Y46.07 E10.66872
G1 X76.152 Y46.704 E10.69141
G1 X76.662 Y48.254 E10.74569
G1 X76.797 Y48.735 E10.7623
G1 X77.08 Y49.951 E10.80383
G1 X77.174 Y50.46 E10.82104
G1 X77.401 Y52.117 E10.87667
G1 X77.451 Y52.737 E10.89736
G1 X77.498 Y54.614 E10.95981
G1 X77.474 Y55.288 E10.98224
G1 X77.286 Y57.251 E11.04783
G1 X77.206 Y57.8 E11.06628
G1 X76.963 Y59.033 E11.10808
G1 X76.827 Y59.58 E11.12682
G1 X76.27 Y61.411 E11.19048
G1 X76.038 Y62.036 E11.21265
G1 X75.267 Y63.789 E11.27635
G1 X74.977 Y64.357 E11.29756
G1 X74.134 Y65.801 E11.35317
G1 X73.792 Y66.32 E11.37385
G1 X72.64 Y67.869 E11.43805
G1 X72.318 Y68.263 E11.45498
G1 X71.693 Y68.961 E11.48614
G1 X71.347 Y69.314 E11.50258
G1 X69.961 Y70.611 E11.56571
G1 X69.445 Y71.039 E11.58801
G1 X67.87 Y72.193 E11.65295
G1 X67.296 Y72.562 E11.67565
G1 X65.592 Y73.516 E11.7406
G1 X65.079 Y73.77 E11.75964
G1 X63.916 Y74.273 E11.80178
G1 X63.39 Y74.47 E11.82047
G1 X61.535 Y75.06 E11.88521
G1 X60.933 Y75.215 E11.90588
G1 X59.343 Y75.532 E11.95981
G1 X58.727 Y75.619 E11.9805
G1 X56.793 Y75.785 E12.04506
G1 X56.122 Y75.803 E12.06739
G1 X54.229 Y75.738 E12.13039
G1 X53.502 Y75.665 E12.15469
G1 X51.273 Y75.294 E12.22984
G1 X50.612 Y75.143 E12.2524
G1 X49.058 Y74.686 E12.30627
G1 X48.477 Y74.479 E12.32678
G1 X46.698 Y73.735 E12.39092
G1 X46.179 Y73.486 E12.41007
G1 X45.06 Y72.876 E12.45246
G1 X44.585 Y72.585 E12.47098
G1 X42.959 Y71.476 E12.53644
G1 X42.466 Y71.098 E12.55711
G1 X41.262 Y70.064 E12.60989
G1 X40.817 Y69.638 E12.63038
G1 X39.517 Y68.246 E12.69373
G1 X39.092 Y67.732 E12.71591
G1 X37.955 Y66.179 E12.77993
G1 X37.588 Y65.609 E12.80248
G1 X36.628 Y63.896 E12.86779
G1 X36.373 Y63.381 E12.8869
G1 X35.87 Y62.218 E12.92905
G1 X35.674 Y61.693 E12.94769
G1 X35.082 Y59.833 E13.01261
G1 X34.926 Y59.231 E13.03329
G1 X34.608 Y57.637 E13.08735
G1 X34.521 Y57.024 E13.10795
G1 X34.359 Y55.152 E13.17044
G1 X34.341 Y54.483 E13.1927
G1 X34.406 Y52.527 E13.25779
G1 X34.47 Y51.847 E13.28051
G1 X34.771 Y49.924 E13.34525
G1 X34.888 Y49.368 E13.36415
G1 X35.216 Y48.119 E13.4071
G1 X35.389 Y47.575 E13.42608
G1 X36.073 Y45.751 E13.49088
G1 X36.318 Y45.191 E13.51121
G1 X37.031 Y43.78 E13.56379
G1 X37.339 Y43.246 E13.58429
G1 X38.388 Y41.638 E13.64815
G1 X38.717 Y41.185 E13.66677
G1 X39.512 Y40.198 E13.70892
G1 X39.84 Y39.826 E13.72542
G1 X40.94 Y38.684 E13.77815
M204 S5000
M205 X30 Y30
G0 F3600 X41.228 Y38.962
M204 S500
M205 X20 Y20
G1 F1800 X41.655 Y38.565 E13.79755
G1 X43.18 Y37.301 E13.86343
G1 X43.692 Y36.927 E13.88451
G1 X45.31 Y35.89 E13.94843
G1 X45.902 Y35.563 E13.97093
G1 X47.938 Y34.605 E14.04577
G1 X48.522 Y34.372 E14.06668
G1 X50.055 Y33.866 E14.12037
G1 X50.507 Y33.739 E14.13599
G1 X51.724 Y33.456 E14.17755
G1 X52.238 Y33.364 E14.19491
G1 X54.194 Y33.112 E14.26051
G1 X54.823 Y33.069 E14.28148
G1 X56.732 Y33.056 E14.34497
G1 X57.357 Y33.09 E14.36579
G1 X59.292 Y33.311 E14.43057
G1 X59.864 Y33.408 E14.44987
G1 X61.426 Y33.766 E14.50316
G1 X61.979 Y33.926 E14.52231
G1 X63.811 Y34.566 E14.58686
G1 X64.287 Y34.759 E14.60394
G1 X65.415 Y35.283 E14.64531
G1 X65.888 Y35.533 E14.6631
G1 X67.631 Y36.573 E14.73061
G1 X68.162 Y36.937 E14.75202
G1 X69.668 Y38.11 E14.81551
G1 X70.087 Y38.473 E14.83395
G1 X71.198 Y39.547 E14.88535
G1 X71.585 Y39.964 E14.90427
G1 X72.818 Y41.449 E14.96847
G1 X73.192 Y41.961 E14.98955
G1 X74.25 Y43.608 E15.05466
G1 X74.58 Y44.204 E15.07732
G1 X75.538 Y46.24 E15.15216
G1 X75.772 Y46.829 E15.17324
G1 X76.282 Y48.379 E15.22751
G1 X76.408 Y48.825 E15.24293
G1 X76.691 Y50.041 E15.28445
G1 X76.778 Y50.514 E15.30045
G1 X77.005 Y52.171 E15.35607
G1 X77.051 Y52.747 E15.37529
G1 X77.098 Y54.624 E15.43774
G1 X77.076 Y55.25 E15.45858
G1 X76.888 Y57.213 E15.52416
G1 X76.814 Y57.722 E15.54127
G1 X76.571 Y58.955 E15.58307
G1 X76.444 Y59.463 E15.60049
G1 X75.887 Y61.294 E15.66414
G1 X75.672 Y61.875 E15.68475
G1 X74.901 Y63.628 E15.74844
G1 X74.632 Y64.156 E15.76815
G1 X73.789 Y65.6 E15.82376
G1 X73.471 Y66.081 E15.84294
G1 X72.319 Y67.63 E15.90715
G1 X72.02 Y67.996 E15.92287
G1 X71.395 Y68.694 E15.95403
G1 X71.074 Y69.022 E15.96929
G1 X69.688 Y70.319 E16.03243
G1 X69.208 Y70.717 E16.05317
G1 X67.633 Y71.871 E16.11811
G1 X67.1 Y72.213 E16.13917
G1 X65.396 Y73.167 E16.20412
G1 X64.92 Y73.403 E16.2218
G1 X63.757 Y73.906 E16.26394
G1 X63.269 Y74.088 E16.28126
G1 X61.414 Y74.678 E16.34601
G1 X60.855 Y74.823 E16.36521
G1 X59.265 Y75.14 E16.41914
G1 X58.693 Y75.221 E16.43835
G1 X56.759 Y75.387 E16.50291
G1 X56.136 Y75.403 E16.52364
G1 X54.243 Y75.338 E16.58664
G1 X53.567 Y75.27 E16.60924
G1 X51.338 Y74.899 E16.68439
G1 X50.725 Y74.759 E16.70531
G1 X49.171 Y74.302 E16.75918
G1 X48.632 Y74.11 E16.77821
G1 X46.853 Y73.366 E16.84235
G1 X46.37 Y73.135 E16.86016
G1 X45.251 Y72.525 E16.90255
G1 X44.81 Y72.255 E16.91974
G1 X43.184 Y71.146 E16.98521
G1 X42.726 Y70.795 E17.0044
G1 X41.522 Y69.761 E17.05718
G1 X41.11 Y69.365 E17.07619
G1 X39.81 Y67.973 E17.13954
G1 X39.414 Y67.496 E17.16016
G1 X38.277 Y65.943 E17.22418
G1 X37.937 Y65.413 E17.24512
G1 X36.977 Y63.7 E17.31043
G1 X36.74 Y63.222 E17.32818
G1 X36.237 Y62.059 E17.37032
G1 X36.055 Y61.572 E17.38761
G1 X35.463 Y59.712 E17.45253
G1 X35.318 Y59.152 E17.47177
G1 X35 Y57.558 E17.52584
G1 X34.919 Y56.989 E17.54495
G1 X34.757 Y55.117 E17.60745
G1 X34.741 Y54.496 E17.62811
G1 X34.806 Y52.54 E17.6932
G1 X34.866 Y51.909 E17.71428
G1 X35.167 Y49.986 E17.77902
G1 X35.275 Y49.469 E17.79659
G1 X35.603 Y48.22 E17.83954
G1 X35.763 Y47.715 E17.85716
G1 X36.447 Y45.891 E17.92195
G1 X36.675 Y45.372 E17.9408
G1 X37.388 Y43.961 E17.99338
G1 X37.674 Y43.465 E18.01243
G1 X38.723 Y41.857 E18.07628
G1 X39.028 Y41.436 E18.09358
G1 X39.823 Y40.449 E18.13573
G1 X40.128 Y40.104 E18.15104
G1 X41.228 Y38.962 E18.20378
M204 S5000
M205 X30 Y30
G1 F2400 E13.20378
G0 F3600 X44.031 Y42.604
G0 X44.058 Y42.639
G0 X53.32 Y54.668
G0 X53.359 Y54.719
G0 X53.927 Y55.455
M204 S500
M205 X20 Y20
;TYPE:SUPPORT
G1 F2400 E18.20378
G1 F1800 X57.914 Y55.455 E18.33639
G1 X57.805 Y55.624 E18.34308
G1 X57.6 Y55.864 E18.35358
G1 X57.375 Y56.065 E18.36361
G1 X57.1 Y56.252 E18.37467
G1 X56.959 Y56.322 E18.37991
G1 X54.885 Y56.322 E18.44889
G1 X54.733 Y56.247 E18.45453
G1 X54.471 Y56.069 E18.46506
G1 X54.246 Y55.868 E18.4751
G1 X54.035 Y55.623 E18.48585
G1 X53.927 Y55.455 E18.49249
M204 S5000
M205 X30 Y30
G0 F3600 X54.662 Y56.007
M204 S500
M205 X20 Y20
G1 F1800 X57.177 Y56.007 E18.57614
M204 S5000
M205 X30 Y30
G0 F3600 X56.007 Y56.162
M204 S500
M205 X20 Y20
G1 F1800 X56.007 Y55.615 E18.59434
M204 S5000
M205 X30 Y30
G1 F2400 E13.59434
;MESH:ac789a43-8e66-4f22-ae21-3f81f81f9bfd.stl
G0 F3600 X56.007 Y57.822
G0 X57.331 Y57.919
G0 X57.309 Y57.822
M204 S500
M205 X20 Y20
;TYPE:WALL-INNER
G1 F2400 E18.59434
G1 F1800 X57.865 Y57.546 E18.61498
G1 X58.292 Y57.257 E18.63213
G1 X58.677 Y56.912 E18.64933
G1 X59.011 Y56.52 E18.66645
G1 X59.29 Y56.087 E18.68359
G1 X59.51 Y55.621 E18.70073
G1 X59.664 Y55.128 E18.7179
G1 X59.751 Y54.62 E18.73505
G1 X59.77 Y54.105 E18.75219
G1 X59.721 Y53.591 E18.76936
G1 X59.601 Y53.089 E18.78653
G1 X59.417 Y52.608 E18.80366
G1 X59.17 Y52.155 E18.82082
G1 X58.864 Y51.739 E18.83799
G1 X58.507 Y51.369 E18.85509
G1 X58.102 Y51.049 E18.87226
G1 X57.659 Y50.785 E18.88941
G1 X57.184 Y50.584 E18.90657
G1 X56.687 Y50.449 E18.9237
G1 X56.176 Y50.38 E18.94085
G1 X55.661 Y50.38 E18.95798
G1 X55.15 Y50.449 E18.97513
G1 X54.652 Y50.586 E18.99231
G1 X54.178 Y50.787 E19.00943
G1 X53.734 Y51.051 E19.02661
G1 X53.33 Y51.372 E19.04377
G1 X52.973 Y51.743 E19.0609
G1 X52.668 Y52.159 E19.07805
G1 X52.422 Y52.612 E19.0952
G1 X52.239 Y53.094 E19.11235
G1 X52.12 Y53.596 E19.12951
G1 X52.071 Y54.109 E19.14665
G1 X52.09 Y54.624 E19.16379
G1 X52.177 Y55.134 E19.181
G1 X52.334 Y55.626 E19.19817
G1 X52.554 Y56.091 E19.21528
G1 X52.832 Y56.523 E19.23237
G1 X53.167 Y56.915 E19.24952
G1 X53.552 Y57.259 E19.26669
