;FLAVOR:Marlin
;TIME:6799
;Filament used: 7.18923m
;Layer height: 0.3
;MINX:62.905
;MINY:87.6
;MINZ:0.2
;MAXX:169.9
;MAXY:147.4
;MAXZ:26.9
;Generated with Cura_SteamEngine 4.1.0
M140 S60
M105
M190 S60
M104 S200
M105
M109 S200
M82 ;absolute extrusion mode
; Ender 3 Custom Start G-code
G28 ; Home all axes
G92 E0 ; Reset Extruder
G1 Z2.0 F3000 ; Move Z Axis up little to prevent scratching of Heat Bed
G1 X0.1 Y20 Z0.3 F5000.0 ; Move to start position
G1 X0.1 Y200.0 Z0.3 F1500.0 E15 ; Draw the first line
G1 X0.4 Y200.0 Z0.3 F5000.0 ; Move to side a little
G1 X0.4 Y20 Z0.3 F1500.0 E30 ; Draw the second line
G92 E0 ; Reset Extruder
G1 Z2.0 F3000 ; Move Z Axis up little to prevent scratching of Heat Bed
; End of custom start GCode
G92 E0
G92 E0
G1 F2400 E-5
;LAYER_COUNT:90
;LAYER:0
M107
M204 S500
M205 X10 Y10
G0 F3600 X67.58 Y88.958 Z0.2
;TYPE:SKIRT
G1 F2400 E0
G1 F1800 X68.168 Y88.551 E0.02378
G1 X68.798 Y88.212 E0.04758
G1 X69.462 Y87.946 E0.07137
G1 X70.151 Y87.755 E0.09515
G1 X70.858 Y87.642 E0.11896
G1 X71.33 Y87.612 E0.13469
G1 X71.65 Y87.603 E0.14534
G1 X71.83 Y87.6 E0.15133
G1 X162.793 Y87.6 E3.17677
G1 X162.885 Y87.601 E3.17983
G1 X163.583 Y87.611 E3.20305
G1 X164.296 Y87.661 E3.22682
G1 X165 Y87.79 E3.25063
G1 X165.684 Y87.998 E3.27441
G1 X166.341 Y88.28 E3.29819
G1 X166.963 Y88.634 E3.32199
G1 X167.541 Y89.055 E3.34577
G1 X168.069 Y89.538 E3.36957
G1 X168.539 Y90.076 E3.39333
G1 X168.947 Y90.664 E3.41714
G1 X169.286 Y91.294 E3.44093
G1 X169.553 Y91.957 E3.46471
G1 X169.744 Y92.647 E3.48852
G1 X169.857 Y93.353 E3.5123
G1 X169.888 Y93.83 E3.5282
G1 X169.897 Y94.15 E3.53884
G1 X169.9 Y94.33 E3.54483
G1 X169.9 Y140.343 E5.07523
G1 X169.891 Y141.07 E5.09941
G1 X169.842 Y141.784 E5.12322
G1 X169.714 Y142.488 E5.14702
G1 X169.508 Y143.173 E5.17081
G1 X169.227 Y143.83 E5.19457
G1 X168.874 Y144.453 E5.21839
G1 X168.454 Y145.032 E5.24218
G1 X167.972 Y145.56 E5.26596
G1 X167.435 Y146.032 E5.28974
G1 X166.847 Y146.44 E5.31354
G1 X166.218 Y146.781 E5.33734
G1 X165.555 Y147.049 E5.36112
G1 X164.866 Y147.241 E5.38491
G1 X164.16 Y147.356 E5.4087
G1 X163.67 Y147.388 E5.42504
G1 X163.349 Y147.397 E5.43572
G1 X163.17 Y147.4 E5.44167
G1 X72.207 Y147.4 E8.46711
G1 X72.124 Y147.399 E8.46987
G1 X71.426 Y147.39 E8.49309
G1 X70.713 Y147.341 E8.51686
G1 X70.009 Y147.213 E8.54066
G1 X69.324 Y147.007 E8.56445
G1 X68.667 Y146.725 E8.58823
G1 X68.045 Y146.372 E8.61202
G1 X67.466 Y145.952 E8.63581
G1 X66.937 Y145.47 E8.65961
G1 X66.466 Y144.932 E8.68339
G1 X66.058 Y144.345 E8.70717
G1 X65.718 Y143.715 E8.73098
G1 X65.45 Y143.052 E8.75477
G1 X65.258 Y142.363 E8.77856
G1 X65.144 Y141.657 E8.80234
G1 X65.112 Y141.176 E8.81838
G1 X65.093 Y140.507 E8.84064
G1 X64.973 Y137.754 E8.93229
G1 X64.785 Y135.142 E9.01939
G1 X64.519 Y132.487 E9.10814
G1 X64.185 Y129.894 E9.19509
G1 X63.767 Y127.252 E9.28406
G1 X63.266 Y124.571 E9.37477
G1 X63.041 Y123.455 E9.41264
G1 X62.939 Y122.747 E9.43643
G1 X62.918 Y122.388 E9.44839
G1 X62.908 Y122.061 E9.45927
G1 X62.905 Y121.865 E9.46579
G1 X62.905 Y118.512 E9.57731
G1 X62.906 Y118.42 E9.58037
G1 X62.916 Y117.723 E9.60356
G1 X63.02 Y116.662 E9.63901
G1 X63.081 Y116.329 E9.65027
G1 X63.101 Y116.224 E9.65383
G1 X63.527 Y114.101 E9.72585
G1 X63.972 Y111.499 E9.81365
G1 X64.343 Y108.887 E9.90139
G1 X64.643 Y106.25 E9.98967
G1 X64.865 Y103.623 E10.07735
G1 X65.014 Y100.994 E10.16493
G1 X65.1 Y96.927 E10.30023
G1 X65.1 Y94.674 E10.37517
G1 X65.101 Y94.578 E10.37836
G1 X65.111 Y93.913 E10.40048
G1 X65.161 Y93.199 E10.42429
G1 X65.291 Y92.496 E10.44807
G1 X65.499 Y91.812 E10.47185
G1 X65.782 Y91.155 E10.49564
G1 X66.136 Y90.533 E10.51944
G1 X66.558 Y89.955 E10.54324
G1 X67.041 Y89.428 E10.56702
G1 X67.58 Y88.958 E10.59081
G0 F3600 X67.966 Y89.167
G1 F1800 X68.548 Y88.791 E10.61385
G1 X69.169 Y88.485 E10.63688
G1 X69.821 Y88.252 E10.65991
G1 X70.495 Y88.095 E10.68292
G1 X71.341 Y88.011 E10.7112
G1 X71.661 Y88.002 E10.72185
G1 X71.83 Y88 E10.72747
G1 X162.793 Y88 E13.75291
G1 X162.879 Y88.001 E13.75577
G1 X163.577 Y88.011 E13.77899
G1 X164.268 Y88.06 E13.80203
G1 X164.948 Y88.19 E13.82506
G1 X165.609 Y88.396 E13.84808
G1 X166.242 Y88.678 E13.87113
G1 X166.838 Y89.03 E13.89415
G1 X167.389 Y89.449 E13.91718
G1 X167.889 Y89.929 E13.94023
G1 X168.33 Y90.463 E13.96327
G1 X168.707 Y91.044 E13.9863
G1 X169.014 Y91.665 E14.00934
G1 X169.247 Y92.317 E14.03237
G1 X169.404 Y92.991 E14.05539
G1 X169.489 Y93.841 E14.0838
G1 X169.498 Y94.161 E14.09445
G1 X169.5 Y94.33 E14.10007
G1 X169.5 Y140.338 E15.6303
G1 X169.491 Y141.065 E15.65448
G1 X169.442 Y141.756 E15.67752
G1 X169.314 Y142.437 E15.70057
G1 X169.109 Y143.098 E15.72359
G1 X168.829 Y143.731 E15.74661
G1 X168.477 Y144.328 E15.76966
G1 X168.06 Y144.881 E15.7927
G1 X167.581 Y145.381 E15.81573
G1 X167.048 Y145.823 E15.83876
G1 X166.467 Y146.201 E15.86181
G1 X165.847 Y146.509 E15.88484
G1 X165.196 Y146.744 E15.90786
G1 X164.521 Y146.902 E15.93091
G1 X163.659 Y146.989 E15.95973
G1 X163.338 Y146.998 E15.97041
G1 X163.17 Y147 E15.976
G1 X72.13 Y147 E19.004
G1 X71.432 Y146.991 E19.02722
G1 X70.741 Y146.942 E19.05026
G1 X70.06 Y146.813 E19.07331
G1 X69.399 Y146.608 E19.09633
G1 X68.766 Y146.327 E19.11937
G1 X68.169 Y145.976 E19.1424
G1 X67.617 Y145.558 E19.16543
G1 X67.117 Y145.079 E19.18846
G1 X66.675 Y144.545 E19.21151
G1 X66.298 Y143.965 E19.23452
G1 X65.99 Y143.344 E19.25758
G1 X65.755 Y142.693 E19.2806
G1 X65.598 Y142.018 E19.30365
G1 X65.511 Y141.164 E19.3322
G1 X65.489 Y140.402 E19.35755
G1 X65.375 Y137.777 E19.44494
G1 X65.18 Y135.074 E19.53508
G1 X64.919 Y132.467 E19.62222
G1 X64.577 Y129.818 E19.71106
G1 X64.161 Y127.182 E19.79982
G1 X63.659 Y124.497 E19.89067
G1 X63.433 Y123.376 E19.9287
G1 X63.318 Y122.375 E19.96222
G1 X63.308 Y122.048 E19.9731
G1 X63.305 Y121.865 E19.97918
G1 X63.305 Y118.512 E20.09071
G1 X63.306 Y118.426 E20.09357
G1 X63.316 Y117.729 E20.11675
G1 X63.413 Y116.734 E20.15
G1 X63.474 Y116.401 E20.16126
G1 X63.493 Y116.302 E20.16461
G1 X63.92 Y114.175 E20.23677
G1 X64.368 Y111.551 E20.32531
G1 X64.738 Y108.951 E20.41266
G1 X65.04 Y106.293 E20.50163
G1 X65.268 Y103.608 E20.59125
G1 X65.414 Y101.026 E20.67727
G1 X65.5 Y96.936 E20.81333
G1 X65.5 Y94.674 E20.88857
G1 X65.501 Y94.584 E20.89156
G1 X65.511 Y93.919 E20.91368
G1 X65.561 Y93.228 E20.93672
G1 X65.691 Y92.548 E20.95975
G1 X65.898 Y91.887 E20.98279
G1 X66.18 Y91.254 E21.00584
G1 X66.533 Y90.659 E21.02885
G1 X66.952 Y90.107 E21.0519
G1 X67.432 Y89.608 E21.07493
G1 X67.966 Y89.167 E21.09796
G0 F3600 X67.822 Y89.795
G1 F1800 X68.351 Y89.385 E21.12022
G1 X68.925 Y89.042 E21.14246
G1 X69.535 Y88.769 E21.16469
G1 X70.174 Y88.571 E21.18694
G1 X70.833 Y88.45 E21.20922
G1 X71.353 Y88.411 E21.22657
G1 X71.673 Y88.402 E21.23722
G1 X71.83 Y88.4 E21.24244
G1 X162.793 Y88.4 E24.26788
G1 X162.873 Y88.401 E24.27054
G1 X163.571 Y88.411 E24.29376
G1 X164.238 Y88.46 E24.316
G1 X164.895 Y88.589 E24.33827
G1 X165.531 Y88.795 E24.36051
G1 X166.139 Y89.076 E24.38279
G1 X166.708 Y89.426 E24.405
G1 X167.232 Y89.843 E24.42728
G1 X167.702 Y90.319 E24.44953
G1 X168.112 Y90.847 E24.47176
G1 X168.457 Y91.421 E24.49403
G1 X168.73 Y92.032 E24.51629
G1 X168.928 Y92.671 E24.53854
G1 X169.049 Y93.329 E24.5608
G1 X169.089 Y93.853 E24.57827
G1 X169.098 Y94.173 E24.58892
G1 X169.1 Y94.33 E24.59414
G1 X169.1 Y140.333 E26.12421
G1 X169.091 Y141.06 E26.14839
G1 X169.042 Y141.728 E26.17067
G1 X168.915 Y142.384 E26.19289
G1 X168.71 Y143.021 E26.21515
G1 X168.431 Y143.629 E26.2374
G1 X168.081 Y144.199 E26.25965
G1 X167.665 Y144.724 E26.28193
G1 X167.19 Y145.195 E26.30417
G1 X166.663 Y145.606 E26.3264
G1 X166.09 Y145.952 E26.34867
G1 X165.48 Y146.226 E26.37091
G1 X164.841 Y146.426 E26.39318
G1 X164.183 Y146.548 E26.41544
G1 X163.648 Y146.589 E26.43328
G1 X163.327 Y146.598 E26.44396
G1 X163.17 Y146.6 E26.44918
G1 X72.135 Y146.6 E29.47702
G1 X71.437 Y146.591 E29.50024
G1 X70.77 Y146.542 E29.52248
G1 X70.113 Y146.414 E29.54475
G1 X69.476 Y146.209 E29.567
G1 X68.868 Y145.929 E29.58927
G1 X68.298 Y145.579 E29.61151
G1 X67.774 Y145.163 E29.63377
G1 X67.303 Y144.688 E29.65601
G1 X66.892 Y144.16 E29.67827
G1 X66.547 Y143.587 E29.70051
G1 X66.273 Y142.977 E29.72276
G1 X66.073 Y142.338 E29.74503
G1 X65.952 Y141.68 E29.76728
G1 X65.911 Y141.153 E29.78486
G1 X65.89 Y140.427 E29.80902
G1 X65.773 Y137.731 E29.89877
G1 X65.579 Y135.042 E29.98844
G1 X65.316 Y132.412 E30.07635
G1 X64.97 Y129.736 E30.16609
G1 X64.563 Y127.157 E30.25293
G1 X64.052 Y124.424 E30.34541
G1 X63.825 Y123.297 E30.38365
G1 X63.718 Y122.363 E30.41491
G1 X63.708 Y122.036 E30.4258
G1 X63.705 Y121.865 E30.43148
G1 X63.705 Y118.512 E30.54301
G1 X63.706 Y118.432 E30.54567
G1 X63.716 Y117.735 E30.56885
G1 X63.807 Y116.806 E30.5999
G1 X63.868 Y116.473 E30.61116
G1 X63.885 Y116.381 E30.61427
G1 X64.312 Y114.25 E30.68656
G1 X64.764 Y111.609 E30.77567
G1 X65.138 Y108.981 E30.86396
G1 X65.438 Y106.335 E30.95253
G1 X65.664 Y103.666 E31.04162
G1 X65.814 Y101.028 E31.1295
G1 X65.9 Y96.944 E31.26537
G1 X65.9 Y94.674 E31.34087
G1 X65.901 Y94.59 E31.34366
G1 X65.911 Y93.925 E31.36578
G1 X65.961 Y93.258 E31.38803
G1 X66.09 Y92.601 E31.4103
G1 X66.296 Y91.965 E31.43253
G1 X66.577 Y91.358 E31.45478
G1 X66.929 Y90.788 E31.47706
G1 X67.346 Y90.265 E31.49931
G1 X67.822 Y89.795 E31.52156
G0 F3600 X68.211 Y89.99
G1 F1800 X68.733 Y89.612 E31.54299
G1 X69.299 Y89.303 E31.56444
G1 X69.898 Y89.065 E31.58588
G1 X70.522 Y88.904 E31.60731
G1 X71.364 Y88.811 E31.63549
G1 X71.684 Y88.802 E31.64614
G1 X71.83 Y88.8 E31.65099
G1 X162.793 Y88.8 E34.67643
G1 X162.867 Y88.801 E34.6789
G1 X163.565 Y88.811 E34.70211
G1 X164.208 Y88.86 E34.72356
G1 X164.84 Y88.988 E34.74501
G1 X165.451 Y89.194 E34.76646
G1 X166.032 Y89.473 E34.78789
G1 X166.574 Y89.822 E34.80933
G1 X167.068 Y90.236 E34.83077
G1 X167.508 Y90.708 E34.85223
G1 X167.886 Y91.23 E34.87367
G1 X168.196 Y91.795 E34.8951
G1 X168.434 Y92.394 E34.91654
G1 X168.596 Y93.018 E34.93798
G1 X168.689 Y93.864 E34.96629
G1 X168.698 Y94.184 E34.97694
G1 X168.7 Y94.33 E34.98179
G1 X168.7 Y140.328 E36.51169
G1 X168.691 Y141.055 E36.53588
G1 X168.643 Y141.698 E36.55732
G1 X168.516 Y142.33 E36.57876
G1 X168.311 Y142.942 E36.60023
G1 X168.033 Y143.523 E36.62165
G1 X167.685 Y144.066 E36.6431
G1 X167.272 Y144.561 E36.66454
G1 X166.801 Y145.001 E36.68598
G1 X166.279 Y145.38 E36.70744
G1 X165.715 Y145.691 E36.72886
G1 X165.116 Y145.93 E36.75031
G1 X164.493 Y146.094 E36.77174
G1 X163.637 Y146.189 E36.80038
G1 X163.316 Y146.198 E36.81106
G1 X163.17 Y146.2 E36.81592
G1 X72.14 Y146.2 E39.84359
G1 X71.442 Y146.191 E39.86681
G1 X70.799 Y146.142 E39.88826
G1 X70.167 Y146.015 E39.9097
G1 X69.556 Y145.81 E39.93113
G1 X68.975 Y145.532 E39.95255
G1 X68.432 Y145.183 E39.97402
G1 X67.937 Y144.77 E39.99546
G1 X67.497 Y144.299 E40.0169
G1 X67.118 Y143.777 E40.03836
G1 X66.807 Y143.213 E40.05978
G1 X66.569 Y142.614 E40.08122
G1 X66.406 Y141.99 E40.10267
G1 X66.311 Y141.141 E40.13108
G1 X66.289 Y140.379 E40.15644
G1 X66.173 Y137.719 E40.24499
G1 X65.978 Y135.009 E40.33536
G1 X65.712 Y132.358 E40.42398
G1 X65.368 Y129.694 E40.51332
G1 X64.951 Y127.053 E40.60224
G1 X64.459 Y124.42 E40.69133
G1 X64.217 Y123.218 E40.73211
G1 X64.117 Y122.351 E40.76114
G1 X64.107 Y122.024 E40.77202
G1 X64.105 Y121.865 E40.77731
G1 X64.105 Y118.512 E40.88883
G1 X64.106 Y118.437 E40.89133
G1 X64.116 Y117.74 E40.91451
G1 X64.2 Y116.878 E40.94332
G1 X64.261 Y116.545 E40.95458
G1 X64.278 Y116.46 E40.95746
G1 X64.698 Y114.364 E41.02856
G1 X65.161 Y111.661 E41.11977
G1 X65.532 Y109.046 E41.20762
G1 X65.839 Y106.343 E41.2981
G1 X66.062 Y103.722 E41.38559
G1 X66.214 Y101.032 E41.4752
G1 X66.3 Y96.952 E41.61093
G1 X66.3 Y94.674 E41.6867
G1 X66.301 Y94.596 E41.68929
G1 X66.311 Y93.931 E41.71141
G1 X66.36 Y93.288 E41.73286
G1 X66.489 Y92.656 E41.75432
G1 X66.695 Y92.045 E41.77576
G1 X66.975 Y91.465 E41.79718
G1 X67.325 Y90.923 E41.81864
G1 X67.739 Y90.429 E41.84008
G1 X68.211 Y89.99 E41.86152
G0 F3600 X69.505 Y118.005
;TYPE:SUPPORT
G1 F1800 X70.6 Y118.005 E41.89794
G1 X70.6 Y121.995 E42.03065
G1 X69.505 Y121.995 E42.06707
G1 X69.505 Y118.005 E42.19978
G0 F3600 X69.664 Y120.015
G1 F1800 X70.439 Y120.015 E42.22555
G1 F2400 E37.22555
;MESH:ButtonSurround_v2a_custom.stl
G0 F3600 X72.12 Y120.015
G0 X72.17 Y140.33
G0 X72.1 Y140.4
;TYPE:WALL-INNER
G1 F2400 E42.22555
G1 F1800 X72.1 Y94.6 E43.74887
G1 X162.9 Y94.6 E46.76889
G1 X162.9 Y140.4 E48.2922
G1 X72.1 Y140.4 E51.31222
G0 F3600 X72.17 Y140.33
G0 X97.33 Y123.67
G0 X97.4 Y123.6
G1 F1800 X110.1 Y123.6 E51.73462
G1 X110.1 Y111.4 E52.1404
G1 X97.4 Y111.4 E52.5628
G1 X97.4 Y123.6 E52.96858
G0 F3600 X97.33 Y123.67
G0 X115.33 Y123.67
G0 X115.4 Y123.6
G1 F1800 X128.1 Y123.6 E53.39098
G1 X128.1 Y111.4 E53.79675
G1 X115.4 Y111.4 E54.21916
G1 X115.4 Y123.6 E54.62493
G0 F3600 X115.33 Y123.67
G0 X128.128 Y123.628
G0 X141.83 Y120.67
G0 X141.9 Y120.6
G1 F1800 X149.1 Y120.6 E54.8644
G1 X149.1 Y114.4 E55.07062
G1 X141.9 Y114.4 E55.31009
G1 X141.9 Y120.6 E55.5163
G0 F3600 X142.3 Y120.2
;TYPE:WALL-OUTER
G1 F1800 X148.7 Y120.2 E55.72917
G1 X148.7 Y114.8 E55.90877
G1 X142.3 Y114.8 E56.12164
G1 X142.3 Y120.2 E56.30124
G0 F3600 X142.5 Y120.2
G0 X142.5 Y120.7
G0 X128.128 Y123.628
G0 X115.372 Y123.628
G0 X115.8 Y123.2
G1 F1800 X127.7 Y123.2 E56.69704
G1 X127.7 Y111.8 E57.0762
G1 X115.8 Y111.8 E57.472
G1 X115.8 Y123.2 E57.85116
G0 F3600 X116 Y123.2
G0 X116 Y123.7
G0 X97.372 Y123.628
G0 X97.8 Y123.2
G1 F1800 X109.7 Y123.2 E58.24696
G1 X109.7 Y111.8 E58.62612
G1 X97.8 Y111.8 E59.02192
G1 X97.8 Y123.2 E59.40109
G0 F3600 X98 Y123.2
G0 X98 Y123.7
G0 X72.17 Y140.33
G0 X71.7 Y140.8
G1 F1800 X71.7 Y94.2 E60.95101
G1 X163.3 Y94.2 E63.99764
G1 X163.3 Y140.8 E65.54756
G1 X71.7 Y140.8 E68.59419
G0 F3600 X71.7 Y140.6
G0 X72.49 Y140.01
;TYPE:SKIN
G1 F1800 X72.49 Y94.99 E70.09156
G1 X162.51 Y94.99 E73.08564
G1 X162.51 Y140.01 E74.58301
G1 X72.49 Y140.01 E77.57708
G0 F3600 X97.01 Y123.99
G1 F1800 X110.49 Y123.99 E78.02543
G1 X110.49 Y111.01 E78.45715
G1 X97.01 Y111.01 E78.90549
G1 X97.01 Y123.99 E79.33721
G0 F3600 X115.01 Y123.99
G1 F1800 X128.49 Y123.99 E79.78556
G1 X128.49 Y111.01 E80.21727
G1 X115.01 Y111.01 E80.66562
G1 X115.01 Y123.99 E81.09734
G0 F3600 X128.128 Y123.628
G0 X141.51 Y120.99
G1 F1800 X149.49 Y120.99 E81.36275
G1 X149.49 Y114.01 E81.59491
G1 X141.51 Y114.01 E81.86032
G1 X141.51 Y120.99 E82.09248
G0 F3600 X141.872 Y114.372
G0 X162.329 Y95.578
G1 F1800 X161.92 Y95.169 E82.11172
G0 F3600 X161.354 Y95.169
G1 F1800 X162.329 Y96.143 E82.15756
G0 F3600 X162.329 Y96.709
G1 F1800 X160.789 Y95.169 E82.22999
G0 F3600 X160.223 Y95.169
G1 F1800 X162.329 Y97.275 E82.32905
G0 F3600 X162.329 Y97.84
G1 F1800 X159.657 Y95.169 E82.45471
G0 F3600 X159.091 Y95.169
G1 F1800 X162.329 Y98.406 E82.60699
G0 F3600 X162.329 Y98.972
G1 F1800 X158.526 Y95.169 E82.78587
G0 F3600 X157.96 Y95.169
G1 F1800 X162.329 Y99.538 E82.99138
G0 F3600 X162.329 Y100.103
G1 F1800 X157.394 Y95.169 E83.22348
G0 F3600 X156.829 Y95.169
G1 F1800 X162.329 Y100.669 E83.48219
G0 F3600 X162.329 Y101.235
G1 F1800 X156.263 Y95.169 E83.76751
G0 F3600 X155.697 Y95.169
G1 F1800 X162.329 Y101.8 E84.07944
G0 F3600 X162.329 Y102.366
G1 F1800 X155.132 Y95.169 E84.41796
G0 F3600 X154.566 Y95.169
G1 F1800 X162.329 Y102.932 E84.78311
G0 F3600 X162.329 Y103.497
G1 F1800 X154 Y95.169 E85.17486
G0 F3600 X153.435 Y95.169
G1 F1800 X162.329 Y104.063 E85.5932
G0 F3600 X162.329 Y104.629
G1 F1800 X152.869 Y95.169 E86.03817
G0 F3600 X152.303 Y95.169
G1 F1800 X162.329 Y105.194 E86.50974
G0 F3600 X162.329 Y105.76
G1 F1800 X151.738 Y95.169 E87.00791
G0 F3600 X151.172 Y95.169
G1 F1800 X162.329 Y106.326 E87.5327
G0 F3600 X162.329 Y106.891
G1 F1800 X150.606 Y95.169 E88.08409
G0 F3600 X150.04 Y95.169
G1 F1800 X162.329 Y107.457 E88.6621
G0 F3600 X162.329 Y108.023
G1 F1800 X149.475 Y95.169 E89.26672
G0 F3600 X148.909 Y95.169
G1 F1800 X162.329 Y108.588 E89.89793
G0 F3600 X162.329 Y109.154
G1 F1800 X148.343 Y95.169 E90.55576
G0 F3600 X147.778 Y95.169
G1 F1800 X162.329 Y109.72 E91.2402
G0 F3600 X162.329 Y110.286
G1 F1800 X147.212 Y95.169 E91.95126
G0 F3600 X146.646 Y95.169
G1 F1800 X162.329 Y110.851 E92.68891
G0 F3600 X162.329 Y111.417
G1 F1800 X146.081 Y95.169 E93.45317
