;FLAVOR:Marlin
;TIME:1092
;Filament used: 1.58311m
;Layer height: 0.3
;Generated with Cura_SteamEngine 4.0.0
M140 S60
M105
M190 S60
M104 S200
M105
M109 S200
M82 ;absolute extrusion mode
; Ender 3 Custom Start G-code
G28 ; Home all axes
G92 E0 ; Reset Extruder
G1 Z2.0 F3000 ; Move Z Axis up little to prevent scratching of Heat Bed
G1 X0.1 Y20 Z0.3 F5000.0 ; Move to start position
G1 X0.1 Y200.0 Z0.3 F1500.0 E15 ; Draw the first line
G1 X0.4 Y200.0 Z0.3 F5000.0 ; Move to side a little
G1 X0.4 Y20 Z0.3 F1500.0 E30 ; Draw the second line
G92 E0 ; Reset Extruder
G1 Z2.0 F3000 ; Move Z Axis up little to prevent scratching of Heat Bed
; End of custom start GCode
G92 E0
G1 F2400 E-5
;LAYER_COUNT:39
;LAYER:0
M107
M204 S5000
M205 X30 Y30
G0 F3600 X101.972 Y104.267 Z0.2
M204 S500
M205 X20 Y20
;TYPE:SKIRT
G1 F2400 E0
G1 F1800 X102.445 Y103.818 E0.02169
G1 X103.402 Y102.997 E0.06363
G1 X103.907 Y102.606 E0.08487
G1 X105.502 Y101.493 E0.14956
G1 X106.099 Y101.123 E0.17292
G1 X107.503 Y100.357 E0.22612
G1 X108.152 Y100.048 E0.25002
G1 X109.938 Y99.32 E0.31417
G1 X110.655 Y99.077 E0.33935
G1 X112.504 Y98.568 E0.40314
G1 X113.145 Y98.426 E0.42497
G1 X114.439 Y98.209 E0.46861
G1 X115.074 Y98.135 E0.48988
G1 X116.978 Y98.009 E0.55334
G1 X117.754 Y98.005 E0.57915
G1 X119.707 Y98.113 E0.64421
G1 X120.471 Y98.201 E0.66979
G1 X122.338 Y98.532 E0.73285
G1 X123.026 Y98.694 E0.75636
G1 X124.587 Y99.153 E0.81048
G1 X125.253 Y99.389 E0.83398
G1 X127.033 Y100.134 E0.89816
G1 X127.633 Y100.423 E0.92031
G1 X128.792 Y101.057 E0.96425
G1 X129.324 Y101.383 E0.985
G1 X130.864 Y102.432 E1.04698
G1 X131.422 Y102.858 E1.07032
G1 X132.669 Y103.925 E1.12491
G1 X133.185 Y104.419 E1.14867
G1 X134.491 Y105.817 E1.2123
G1 X134.985 Y106.416 E1.23812
G1 X136.145 Y108.007 E1.30361
G1 X136.561 Y108.655 E1.32923
G1 X137.482 Y110.303 E1.39202
G1 X137.765 Y110.876 E1.41327
G1 X138.293 Y112.092 E1.45736
G1 X138.507 Y112.654 E1.47737
G1 X139.015 Y114.209 E1.53178
G1 X139.166 Y114.75 E1.55046
G1 X139.441 Y115.936 E1.59095
G1 X139.545 Y116.5 E1.61003
G1 X139.765 Y118.082 E1.66315
G1 X139.824 Y118.789 E1.68675
G1 X139.878 Y120.758 E1.75226
G1 X139.852 Y121.534 E1.77808
G1 X139.673 Y123.431 E1.84146
G1 X139.581 Y124.064 E1.86273
G1 X139.329 Y125.346 E1.90619
G1 X139.189 Y125.919 E1.92581
G1 X138.734 Y127.465 E1.97941
G1 X138.499 Y128.127 E2.00277
G1 X137.759 Y129.897 E2.06658
G1 X137.473 Y130.491 E2.08851
G1 X136.832 Y131.667 E2.13306
G1 X136.502 Y132.208 E2.15413
G1 X135.452 Y133.749 E2.21615
G1 X135.026 Y134.306 E2.23948
G1 X133.959 Y135.553 E2.29406
G1 X133.466 Y136.068 E2.31777
G1 X132.075 Y137.368 E2.3811
G1 X131.481 Y137.86 E2.40675
G1 X129.892 Y139.021 E2.47221
G1 X129.358 Y139.371 E2.49344
G1 X122.981 Y143.118 E2.73945
G1 X122.345 Y143.445 E2.76323
G1 X121.677 Y143.7 E2.78701
G1 X120.984 Y143.878 E2.81081
G1 X119.986 Y143.995 E2.84423
G1 X117.782 Y144.08 E2.91759
G1 X117.298 Y144.081 E2.93369
G1 X115.029 Y143.997 E3.00921
G1 X114.317 Y143.93 E3.033
G1 X113.617 Y143.785 E3.05677
G1 X112.937 Y143.562 E3.08057
G1 X112.286 Y143.265 E3.10437
G1 X111.931 Y143.063 E3.11796
G1 X109.626 Y141.656 E3.20778
G1 X105.579 Y139.326 E3.3631
G1 X104.961 Y138.921 E3.38767
G1 X103.404 Y137.767 E3.45213
G1 X102.807 Y137.265 E3.47807
G1 X101.382 Y135.911 E3.54345
G1 X100.932 Y135.438 E3.56517
G1 X100.112 Y134.482 E3.60706
G1 X99.722 Y133.977 E3.62828
G1 X98.609 Y132.382 E3.69297
G1 X98.239 Y131.785 E3.71633
G1 X97.473 Y130.381 E3.76952
G1 X97.168 Y129.74 E3.79313
G1 X96.447 Y127.978 E3.85646
G1 X96.199 Y127.252 E3.88197
G1 X95.683 Y125.377 E3.94665
G1 X95.542 Y124.739 E3.96839
G1 X95.325 Y123.447 E4.01196
G1 X95.251 Y122.81 E4.03329
G1 X95.125 Y120.906 E4.09675
G1 X95.121 Y120.13 E4.12256
G1 X95.229 Y118.176 E4.18765
G1 X95.306 Y117.477 E4.21104
G1 X95.568 Y115.904 E4.26408
G1 X95.726 Y115.202 E4.28801
G1 X96.255 Y113.346 E4.3522
G1 X96.506 Y112.63 E4.37744
G1 X97.242 Y110.871 E4.44086
G1 X97.582 Y110.179 E4.4665
G1 X98.54 Y108.493 E4.531
G1 X98.96 Y107.847 E4.55663
G1 X100.1 Y106.307 E4.62036
G1 X100.604 Y105.707 E4.64642
G1 X101.972 Y104.267 E4.71248
M204 S5000
M205 X30 Y30
G0 F3600 X102.262 Y104.543
M204 S500
M205 X20 Y20
G1 F1800 X102.705 Y104.121 E4.73283
G1 X103.662 Y103.3 E4.77477
G1 X104.135 Y102.934 E4.79466
G1 X105.73 Y101.821 E4.85935
G1 X106.29 Y101.474 E4.88126
G1 X107.694 Y100.708 E4.93445
G1 X108.303 Y100.419 E4.95687
G1 X110.089 Y99.691 E5.02102
G1 X110.762 Y99.462 E5.04467
G1 X112.611 Y98.953 E5.10845
G1 X113.211 Y98.821 E5.12889
G1 X114.505 Y98.604 E5.17253
G1 X115.101 Y98.534 E5.19248
G1 X117.005 Y98.408 E5.25595
G1 X117.732 Y98.404 E5.28013
G1 X119.685 Y98.512 E5.34519
G1 X120.401 Y98.595 E5.36916
G1 X122.268 Y98.926 E5.43223
G1 X122.914 Y99.078 E5.4543
G1 X124.475 Y99.537 E5.50842
G1 X125.099 Y99.758 E5.53043
G1 X126.879 Y100.503 E5.59461
G1 X127.441 Y100.774 E5.61536
G1 X128.6 Y101.408 E5.6593
G1 X129.099 Y101.713 E5.67876
G1 X130.639 Y102.762 E5.74073
G1 X131.162 Y103.162 E5.76263
G1 X132.409 Y104.229 E5.81722
G1 X132.892 Y104.692 E5.83947
G1 X134.198 Y106.09 E5.9031
G1 X134.662 Y106.651 E5.92731
G1 X135.822 Y108.242 E5.9928
G1 X136.212 Y108.85 E6.01683
G1 X137.133 Y110.498 E6.07962
G1 X137.399 Y111.035 E6.09955
G1 X137.927 Y112.251 E6.14364
G1 X138.126 Y112.778 E6.16238
G1 X138.634 Y114.333 E6.21679
G1 X138.776 Y114.841 E6.23433
G1 X139.051 Y116.027 E6.27483
G1 X139.149 Y116.556 E6.29272
G1 X139.369 Y118.138 E6.34584
G1 X139.424 Y118.8 E6.36794
G1 X139.478 Y120.769 E6.43345
G1 X139.453 Y121.497 E6.45768
G1 X139.274 Y123.394 E6.52105
G1 X139.188 Y123.987 E6.54098
G1 X138.936 Y125.269 E6.58444
G1 X138.805 Y125.806 E6.60282
G1 X138.35 Y127.352 E6.65642
G1 X138.13 Y127.972 E6.67831
G1 X137.39 Y129.742 E6.74211
G1 X137.122 Y130.3 E6.7627
G1 X136.481 Y131.476 E6.80725
G1 X136.171 Y131.983 E6.82701
G1 X135.121 Y133.524 E6.88904
G1 X134.722 Y134.046 E6.91089
G1 X133.655 Y135.293 E6.96547
G1 X133.193 Y135.776 E6.9877
G1 X131.802 Y137.076 E7.05103
G1 X131.245 Y137.537 E7.07508
G1 X129.656 Y138.698 E7.14053
G1 X129.156 Y139.026 E7.16042
G1 X122.779 Y142.773 E7.40642
G1 X122.162 Y143.089 E7.42948
G1 X121.514 Y143.332 E7.4525
G1 X120.841 Y143.498 E7.47555
G1 X119.97 Y143.596 E7.50471
G1 X117.766 Y143.681 E7.57807
G1 X117.313 Y143.681 E7.59313
G1 X115.044 Y143.597 E7.66865
G1 X114.355 Y143.531 E7.69167
G1 X113.677 Y143.387 E7.71473
G1 X113.021 Y143.165 E7.73776
G1 X112.14 Y142.722 E7.77056
G1 X109.812 Y141.301 E7.86127
G1 X105.779 Y138.979 E8.01606
G1 X105.199 Y138.599 E8.03912
G1 X103.642 Y137.445 E8.10358
G1 X103.082 Y136.975 E8.12789
G1 X101.657 Y135.621 E8.19327
G1 X101.236 Y135.177 E8.21362
G1 X100.416 Y134.221 E8.25551
G1 X100.05 Y133.749 E8.27538
G1 X98.937 Y132.154 E8.34007
G1 X98.59 Y131.594 E8.36198
G1 X97.824 Y130.19 E8.41518
G1 X97.538 Y129.588 E8.43734
G1 X96.817 Y127.826 E8.50066
G1 X96.585 Y127.146 E8.52456
G1 X96.069 Y125.271 E8.58924
G1 X95.937 Y124.673 E8.60961
G1 X95.72 Y123.381 E8.65318
G1 X95.65 Y122.783 E8.67321
G1 X95.524 Y120.879 E8.73668
G1 X95.52 Y120.152 E8.76086
G1 X95.628 Y118.198 E8.82595
G1 X95.701 Y117.543 E8.84787
G1 X95.963 Y115.97 E8.9009
G1 X96.111 Y115.311 E8.92337
G1 X96.64 Y113.455 E8.98756
G1 X96.875 Y112.784 E9.0112
G1 X97.611 Y111.025 E9.07462
G1 X97.929 Y110.377 E9.09863
G1 X98.887 Y108.691 E9.16313
G1 X99.282 Y108.085 E9.18719
G1 X100.422 Y106.545 E9.25092
G1 X100.894 Y105.983 E9.27533
G1 X102.262 Y104.543 E9.34139
M204 S5000
M205 X30 Y30
G0 F3600 X102.552 Y104.818
M204 S500
M205 X20 Y20
G1 F1800 X102.966 Y104.425 E9.36037
G1 X103.923 Y103.604 E9.40231
G1 X104.364 Y103.262 E9.42087
G1 X105.959 Y102.149 E9.48556
G1 X106.482 Y101.825 E9.50602
G1 X107.886 Y101.059 E9.55922
G1 X108.454 Y100.789 E9.58014
G1 X110.24 Y100.061 E9.64429
G1 X110.868 Y99.848 E9.66634
G1 X112.717 Y99.339 E9.73013
G1 X113.277 Y99.215 E9.7492
G1 X114.571 Y98.998 E9.79284
G1 X115.127 Y98.933 E9.81146
G1 X117.031 Y98.807 E9.87493
G1 X117.71 Y98.804 E9.89751
G1 X119.663 Y98.912 E9.96257
G1 X120.332 Y98.989 E9.98497
G1 X122.199 Y99.32 E10.04803
G1 X122.801 Y99.461 E10.0686
G1 X124.362 Y99.92 E10.12271
G1 X124.944 Y100.127 E10.14326
G1 X126.724 Y100.872 E10.20744
G1 X127.25 Y101.125 E10.22685
G1 X128.409 Y101.759 E10.27079
G1 X128.874 Y102.044 E10.28893
G1 X130.414 Y103.093 E10.3509
G1 X130.902 Y103.466 E10.37133
G1 X132.149 Y104.533 E10.42592
G1 X132.6 Y104.965 E10.44669
G1 X133.906 Y106.363 E10.51032
G1 X134.339 Y106.887 E10.53293
G1 X135.499 Y108.478 E10.59842
G1 X135.862 Y109.045 E10.62081
G1 X136.783 Y110.693 E10.6836
G1 X137.032 Y111.195 E10.70224
G1 X137.56 Y112.411 E10.74633
G1 X137.746 Y112.902 E10.7638
G1 X138.254 Y114.457 E10.81821
G1 X138.386 Y114.931 E10.83457
G1 X138.661 Y116.117 E10.87506
G1 X138.753 Y116.611 E10.89178
G1 X138.973 Y118.193 E10.9449
G1 X139.024 Y118.81 E10.96549
G1 X139.078 Y120.779 E11.03101
G1 X139.055 Y121.459 E11.05364
G1 X138.876 Y123.356 E11.11701
G1 X138.796 Y123.91 E11.13563
G1 X138.544 Y125.192 E11.17908
G1 X138.421 Y125.693 E11.19624
G1 X137.966 Y127.239 E11.24984
G1 X137.761 Y127.818 E11.27027
G1 X137.021 Y129.588 E11.33408
G1 X136.771 Y130.108 E11.35327
G1 X136.13 Y131.284 E11.39782
G1 X135.841 Y131.757 E11.41625
G1 X134.791 Y133.298 E11.47827
G1 X134.418 Y133.786 E11.4987
G1 X133.351 Y135.033 E11.55329
G1 X132.92 Y135.483 E11.57401
G1 X131.529 Y136.783 E11.63734
G1 X131.009 Y137.214 E11.6598
G1 X129.42 Y138.375 E11.72526
G1 X128.953 Y138.681 E11.74383
G1 X122.576 Y142.428 E11.98983
G1 X121.98 Y142.732 E12.01208
G1 X121.352 Y142.963 E12.03434
G1 X120.701 Y143.117 E12.05659
G1 X119.955 Y143.196 E12.08154
G1 X117.751 Y143.281 E12.1549
G1 X117.328 Y143.281 E12.16897
G1 X115.059 Y143.197 E12.24449
G1 X114.393 Y143.133 E12.26674
G1 X113.739 Y142.989 E12.28901
G1 X113.108 Y142.768 E12.31125
G1 X112.348 Y142.381 E12.33962
G1 X109.996 Y140.945 E12.43127
G1 X105.978 Y138.632 E12.58547
G1 X105.437 Y138.278 E12.60698
G1 X103.88 Y137.124 E12.67144
G1 X103.358 Y136.685 E12.69412
G1 X101.933 Y135.331 E12.7595
G1 X101.539 Y134.917 E12.77851
G1 X100.719 Y133.961 E12.8204
G1 X100.378 Y133.52 E12.83894
G1 X99.265 Y131.925 E12.90363
G1 X98.941 Y131.402 E12.92409
G1 X98.175 Y129.998 E12.97729
G1 X97.908 Y129.437 E12.99795
G1 X97.187 Y127.675 E13.06127
G1 X96.971 Y127.04 E13.08358
G1 X96.455 Y125.165 E13.14826
G1 X96.331 Y124.607 E13.16727
G1 X96.114 Y123.315 E13.21085
G1 X96.049 Y122.757 E13.22953
G1 X95.923 Y120.853 E13.293
G1 X95.92 Y120.174 E13.31558
G1 X96.028 Y118.22 E13.38067
G1 X96.095 Y117.609 E13.40112
G1 X96.357 Y116.036 E13.45416
G1 X96.495 Y115.421 E13.47512
G1 X97.024 Y113.565 E13.53931
G1 X97.244 Y112.938 E13.56141
G1 X97.98 Y111.179 E13.62483
G1 X98.277 Y110.574 E13.64724
G1 X99.235 Y108.888 E13.71174
G1 X99.603 Y108.323 E13.73417
G1 X100.743 Y106.783 E13.7979
G1 X101.184 Y106.258 E13.8207
G1 X102.552 Y104.818 E13.88676
M204 S5000
M205 X30 Y30
G0 F3600 X102.842 Y105.094
M204 S500
M205 X20 Y20
G1 F1800 X103.226 Y104.728 E13.90441
G1 X104.183 Y103.907 E13.94634
G1 X104.593 Y103.59 E13.96358
G1 X106.188 Y102.477 E14.02827
G1 X106.674 Y102.176 E14.04728
G1 X108.078 Y101.41 E14.10048
G1 X108.605 Y101.16 E14.11988
G1 X110.391 Y100.432 E14.18403
G1 X110.974 Y100.233 E14.20452
G1 X112.823 Y99.724 E14.2683
G1 X113.343 Y99.61 E14.28601
G1 X114.637 Y99.393 E14.32965
G1 X115.154 Y99.332 E14.34696
G1 X117.058 Y99.206 E14.41043
G1 X117.688 Y99.203 E14.43138
G1 X119.641 Y99.311 E14.49644
G1 X120.262 Y99.383 E14.51723
G1 X122.129 Y99.714 E14.5803
G1 X122.688 Y99.845 E14.59939
G1 X124.249 Y100.304 E14.65351
G1 X124.79 Y100.496 E14.6726
G1 X126.57 Y101.241 E14.73678
G1 X127.058 Y101.476 E14.7548
G1 X128.217 Y102.11 E14.79874
G1 X128.648 Y102.374 E14.81555
G1 X130.188 Y103.423 E14.87752
G1 X130.642 Y103.77 E14.89653
G1 X131.889 Y104.837 E14.95111
G1 X132.308 Y105.238 E14.9704
G1 X133.614 Y106.636 E15.03403
G1 X134.016 Y107.122 E15.05501
G1 X135.176 Y108.713 E15.1205
G1 X135.513 Y109.24 E15.14131
G1 X136.434 Y110.888 E15.2041
G1 X136.665 Y111.354 E15.2214
G1 X137.193 Y112.57 E15.26549
G1 X137.366 Y113.026 E15.28171
G1 X137.874 Y114.581 E15.33612
G1 X137.997 Y115.021 E15.35131
G1 X138.272 Y116.207 E15.39181
G1 X138.356 Y116.666 E15.40733
G1 X138.576 Y118.248 E15.46045
G1 X138.624 Y118.821 E15.47958
G1 X138.678 Y120.79 E15.54509
G1 X138.657 Y121.421 E15.56609
G1 X138.478 Y123.318 E15.62946
G1 X138.403 Y123.833 E15.64677
G1 X138.151 Y125.115 E15.69023
G1 X138.037 Y125.58 E15.70615
G1 X137.582 Y127.126 E15.75975
G1 X137.392 Y127.664 E15.77873
G1 X136.652 Y129.434 E15.84254
G1 X136.42 Y129.917 E15.86036
G1 X135.779 Y131.093 E15.90491
G1 X135.51 Y131.532 E15.92203
G1 X134.46 Y133.073 E15.98405
G1 X134.114 Y133.526 E16.00301
G1 X133.047 Y134.773 E16.0576
G1 X132.647 Y135.191 E16.07684
G1 X131.256 Y136.491 E16.14017
G1 X130.773 Y136.891 E16.16102
G1 X129.184 Y138.052 E16.22648
G1 X128.75 Y138.336 E16.24373
G1 X122.373 Y142.083 E16.48973
G1 X121.798 Y142.375 E16.51118
G1 X121.192 Y142.593 E16.5326
G1 X120.563 Y142.734 E16.55404
G1 X119.939 Y142.796 E16.5749
G1 X117.735 Y142.881 E16.64826
G1 X117.343 Y142.881 E16.6613
G1 X115.074 Y142.797 E16.73682
G1 X114.432 Y142.734 E16.75827
G1 X113.803 Y142.591 E16.77973
G1 X113.197 Y142.372 E16.80116
G1 X112.556 Y142.039 E16.82518
G1 X110.222 Y140.614 E16.91614
G1 X106.178 Y138.286 E17.07133
G1 X105.676 Y137.957 E17.0913
G1 X104.119 Y136.803 E17.15576
G1 X103.633 Y136.395 E17.17686
G1 X102.208 Y135.041 E17.24224
G1 X101.843 Y134.656 E17.25989
G1 X101.023 Y133.7 E17.30178
G1 X100.706 Y133.291 E17.31899
G1 X99.593 Y131.696 E17.38368
G1 X99.292 Y131.21 E17.40269
G1 X98.526 Y129.806 E17.45589
G1 X98.278 Y129.285 E17.47508
G1 X97.557 Y127.523 E17.5384
G1 X97.356 Y126.934 E17.5591
G1 X96.84 Y125.059 E17.62378
G1 X96.726 Y124.54 E17.64145
G1 X96.509 Y123.248 E17.68503
G1 X96.448 Y122.73 E17.70237
G1 X96.322 Y120.826 E17.76584
G1 X96.319 Y120.196 E17.78679
G1 X96.427 Y118.242 E17.85188
G1 X96.49 Y117.675 E17.87086
G1 X96.752 Y116.102 E17.9239
G1 X96.88 Y115.531 E17.94336
G1 X97.409 Y113.675 E18.00755
G1 X97.613 Y113.093 E18.02806
G1 X98.349 Y111.334 E18.09148
G1 X98.625 Y110.772 E18.11231
G1 X99.583 Y109.086 E18.1768
G1 X99.925 Y108.561 E18.19764
G1 X101.065 Y107.021 E18.26137
G1 X101.474 Y106.534 E18.28252
G1 X102.842 Y105.094 E18.34858
M204 S5000
M205 X30 Y30
G1 F2400 E13.34858
G0 F3600 X105.633 Y108.74
G0 X105.659 Y108.775
G0 X114.902 Y120.844
G0 X114.929 Y120.879
G0 X115.571 Y121.716
M204 S500
M205 X20 Y20
;TYPE:SUPPORT
G1 F2400 E18.34858
G1 F1800 X119.429 Y121.716 E18.4769
G1 X119.386 Y121.782 E18.47952
G1 X119.184 Y122.018 E18.48985
G1 X118.937 Y122.241 E18.50092
G1 X118.687 Y122.41 E18.51096
G1 X118.539 Y122.484 E18.51646
G1 X116.466 Y122.484 E18.58541
G1 X116.308 Y122.407 E18.59126
G1 X116.05 Y122.231 E18.60164
G1 X115.825 Y122.03 E18.61168
G1 X115.619 Y121.791 E18.62217
G1 X115.571 Y121.716 E18.62513
M204 S5000
M205 X30 Y30
G0 F3600 X117.348 Y121.876
M204 S500
M205 X20 Y20
G1 F1800 X117.348 Y122.324 E18.64004
M204 S5000
M205 X30 Y30
G1 F2400 E13.64004
G0 F3600 X117.321 Y122.754
G0 X117.319 Y122.798
G0 X116.496 Y136.938
G0 X116.495 Y136.982
G0 X116.479 Y137.254
M204 S500
M205 X20 Y20
G1 F2400 E18.64004
G1 F1800 X117.503 Y137.284 E18.67411
G1 X118.528 Y137.253 E18.70822
G1 X119.539 Y137.16 E18.74198
G1 X119.539 Y137.419 E18.7506
G1 X118.137 Y137.479 E18.79727
G1 X117.591 Y137.496 E18.81544
G1 X116.863 Y137.479 E18.83966
G1 X115.462 Y137.419 E18.8863
G1 X115.462 Y137.161 E18.89488
G1 X116.479 Y137.254 E18.92885
M204 S5000
M205 X30 Y30
G1 F2400 E13.92885
;MESH:db292154-2901-4c86-a9e2-0315ad4d1166.stl
G0 F3600 X116.558 Y135.736
G0 X118.911 Y124.081
G0 X118.889 Y123.984
M204 S500
M205 X20 Y20
;TYPE:WALL-INNER
G1 F2400 E18.92885
G1 F1800 X119.445 Y123.708 E18.94949
G1 X119.873 Y123.419 E18.96667
G1 X120.256 Y123.074 E18.98381
G1 X120.591 Y122.682 E19.00097
G1 X120.87 Y122.248 E19.01813
G1 X121.09 Y121.782 E19.03527
G1 X121.243 Y121.29 E19.0524
G1 X121.33 Y120.783 E19.06951
G1 X121.35 Y120.267 E19.08669
G1 X121.299 Y119.753 E19.10387
G1 X121.181 Y119.251 E19.12102
G1 X120.997 Y118.77 E19.13815
G1 X120.749 Y118.317 E19.15532
G1 X120.445 Y117.902 E19.17243
G1 X120.087 Y117.53 E19.18961
