;FLAVOR:Marlin
;TIME:1814
;Filament used: 1.6869m
;Layer height: 0.2
;Generated with Cura_SteamEngine 4.0.0
M140 S60
M105
M190 S60
M104 S200
M105
M109 S200
M82 ;absolute extrusion mode
; Ender 3 Custom Start G-code
G28 ; Home all axes
G92 E0 ; Reset Extruder
G1 Z2.0 F3000 ; Move Z Axis up little to prevent scratching of Heat Bed
G1 X0.1 Y20 Z0.3 F5000.0 ; Move to start position
G1 X0.1 Y200.0 Z0.3 F1500.0 E15 ; Draw the first line
G1 X0.4 Y200.0 Z0.3 F5000.0 ; Move to side a little
G1 X0.4 Y20 Z0.3 F1500.0 E30 ; Draw the second line
G92 E0 ; Reset Extruder
G1 Z2.0 F3000 ; Move Z Axis up little to prevent scratching of Heat Bed
; End of custom start GCode
G92 E0
G1 F2400 E-5
;LAYER_COUNT:58
;LAYER:0
M107
M204 S5000
M205 X30 Y30
G0 F3600 X47.719 Y37.917 Z0.2
M204 S500
M205 X20 Y20
;TYPE:SKIRT
G1 F2400 E0
G1 F1800 X48.214 Y37.339 E0.02531
G1 X49.315 Y36.199 E0.07802
G1 X49.837 Y35.716 E0.10168
G1 X51.332 Y34.478 E0.16624
G1 X51.956 Y34.022 E0.19194
G1 X53.582 Y32.978 E0.25621
G1 X54.259 Y32.599 E0.28202
G1 X56.002 Y31.758 E0.34638
G1 X56.604 Y31.504 E0.36812
G1 X57.83 Y31.06 E0.41148
G1 X58.429 Y30.876 E0.43233
G1 X60.266 Y30.408 E0.49538
G1 X60.978 Y30.269 E0.51951
G1 X62.608 Y30.046 E0.57422
G1 X63.314 Y29.989 E0.59778
G1 X65.247 Y29.94 E0.66209
G1 X66.015 Y29.967 E0.68765
G1 X67.938 Y30.15 E0.7519
G1 X68.576 Y30.243 E0.77335
G1 X69.812 Y30.488 E0.81526
G1 X70.373 Y30.626 E0.83447
G1 X71.934 Y31.085 E0.88859
G1 X72.6 Y31.321 E0.91209
G1 X74.38 Y32.066 E0.97627
G1 X74.976 Y32.353 E0.99827
G1 X76.108 Y32.971 E1.04117
G1 X76.638 Y33.294 E1.06181
G1 X78.195 Y34.352 E1.12442
G1 X78.755 Y34.78 E1.14786
G1 X80.003 Y35.846 E1.20245
G1 X80.523 Y36.344 E1.2264
G1 X81.853 Y37.768 E1.29121
G1 X82.346 Y38.363 E1.31691
G1 X83.472 Y39.906 E1.38044
G1 X83.886 Y40.551 E1.40593
G1 X84.826 Y42.229 E1.4699
G1 X85.117 Y42.819 E1.49178
G1 X85.657 Y44.069 E1.53707
G1 X85.884 Y44.677 E1.55866
G1 X86.45 Y46.467 E1.6211
G1 X86.626 Y47.153 E1.64465
G1 X86.946 Y48.768 E1.69941
G1 X87.045 Y49.467 E1.72289
G1 X87.208 Y51.373 E1.78652
G1 X87.227 Y52.145 E1.8122
G1 X87.159 Y54.065 E1.8761
G1 X87.076 Y54.888 E1.90362
G1 X86.709 Y57.094 E1.978
G1 X86.536 Y57.851 E2.00382
G1 X86.081 Y59.397 E2.05742
G1 X85.846 Y60.059 E2.08079
G1 X85.106 Y61.829 E2.1446
G1 X84.83 Y62.405 E2.16584
G1 X84.229 Y63.516 E2.20785
G1 X83.896 Y64.065 E2.22921
G1 X82.806 Y65.671 E2.29377
G1 X82.373 Y66.238 E2.31749
G1 X81.306 Y67.485 E2.37208
G1 X80.81 Y68.002 E2.39591
G1 X79.396 Y69.322 E2.46025
G1 X78.798 Y69.817 E2.48607
G1 X77.232 Y70.958 E2.55051
G1 X76.584 Y71.373 E2.5761
G1 X74.901 Y72.313 E2.64022
G1 X74.322 Y72.599 E2.6617
G1 X73.162 Y73.101 E2.70374
G1 X72.56 Y73.326 E2.72511
G1 X70.705 Y73.916 E2.78986
G1 X70.016 Y74.093 E2.81352
G1 X68.426 Y74.41 E2.86744
G1 X67.722 Y74.511 E2.8911
G1 X65.788 Y74.677 E2.95566
G1 X65.019 Y74.696 E2.98124
G1 X63.12 Y74.63 E3.04444
G1 X62.359 Y74.558 E3.06987
G1 X60.462 Y74.263 E3.13372
G1 X59.826 Y74.131 E3.15532
G1 X58.564 Y73.801 E3.19871
G1 X57.944 Y73.604 E3.22035
G1 X56.102 Y72.916 E3.28575
G1 X55.452 Y72.632 E3.30934
G1 X54.029 Y71.912 E3.36238
G1 X53.414 Y71.557 E3.386
G1 X51.806 Y70.505 E3.44991
G1 X51.292 Y70.13 E3.47107
G1 X50.33 Y69.354 E3.51218
G1 X49.901 Y68.976 E3.5312
G1 X48.693 Y67.809 E3.58706
G1 X48.202 Y67.277 E3.61114
G1 X46.995 Y65.813 E3.67425
G1 X46.546 Y65.197 E3.6996
G1 X45.503 Y63.571 E3.76385
G1 X45.099 Y62.841 E3.7916
G1 X44.145 Y60.814 E3.86612
G1 X43.857 Y60.092 E3.89197
G1 X43.349 Y58.55 E3.94597
G1 X43.195 Y58.001 E3.96493
G1 X42.908 Y56.771 E4.00694
G1 X42.802 Y56.198 E4.02632
G1 X42.582 Y54.615 E4.07948
G1 X42.523 Y53.91 E4.10301
G1 X42.469 Y51.943 E4.16846
G1 X42.496 Y51.162 E4.19445
G1 X42.677 Y49.257 E4.2581
G1 X42.767 Y48.633 E4.27906
G1 X43.015 Y47.366 E4.322
G1 X43.176 Y46.723 E4.34405
G1 X43.746 Y44.859 E4.40888
G1 X44.01 Y44.149 E4.43408
G1 X44.771 Y42.423 E4.49682
G1 X45.093 Y41.789 E4.52047
G1 X45.917 Y40.371 E4.57501
G1 X46.352 Y39.719 E4.60108
G1 X47.719 Y37.917 E4.67631
M204 S5000
M205 X30 Y30
G0 F3600 X48.038 Y38.159
M204 S500
M205 X20 Y20
G1 F1800 X48.502 Y37.617 E4.70004
G1 X49.603 Y36.477 E4.75276
G1 X50.092 Y36.024 E4.77493
G1 X51.587 Y34.786 E4.83949
G1 X52.172 Y34.358 E4.86359
G1 X53.798 Y33.314 E4.92786
G1 X54.433 Y32.959 E4.95206
G1 X56.176 Y32.118 E5.01643
G1 X56.74 Y31.881 E5.03677
G1 X57.966 Y31.437 E5.08014
G1 X58.528 Y31.264 E5.0997
G1 X60.365 Y30.796 E5.16275
G1 X61.033 Y30.665 E5.18539
G1 X62.663 Y30.442 E5.24011
G1 X63.324 Y30.389 E5.26217
G1 X65.257 Y30.34 E5.32648
G1 X65.977 Y30.365 E5.35044
G1 X67.9 Y30.548 E5.41469
G1 X68.499 Y30.636 E5.43483
G1 X69.735 Y30.881 E5.47674
G1 X70.261 Y31.01 E5.49475
G1 X71.822 Y31.469 E5.54887
G1 X72.446 Y31.69 E5.57088
G1 X74.226 Y32.435 E5.63506
G1 X74.784 Y32.704 E5.65567
G1 X75.916 Y33.322 E5.69856
G1 X76.413 Y33.625 E5.71792
G1 X77.97 Y34.683 E5.78053
G1 X78.495 Y35.084 E5.8025
G1 X79.743 Y36.15 E5.85709
G1 X80.231 Y36.617 E5.87956
G1 X81.561 Y38.041 E5.94437
G1 X82.023 Y38.599 E5.96846
G1 X83.149 Y40.142 E6.03199
G1 X83.537 Y40.747 E6.0559
G1 X84.477 Y42.425 E6.11987
G1 X84.75 Y42.978 E6.14038
G1 X85.29 Y44.228 E6.18567
G1 X85.503 Y44.798 E6.20591
G1 X86.069 Y46.588 E6.26835
G1 X86.234 Y47.231 E6.29043
G1 X86.554 Y48.846 E6.34519
G1 X86.646 Y49.501 E6.36719
G1 X86.809 Y51.407 E6.43081
G1 X86.827 Y52.13 E6.45487
G1 X86.759 Y54.05 E6.51877
G1 X86.682 Y54.823 E6.54461
G1 X86.315 Y57.029 E6.61899
G1 X86.152 Y57.738 E6.64318
G1 X85.697 Y59.284 E6.69678
G1 X85.477 Y59.904 E6.71866
G1 X84.737 Y61.674 E6.78247
G1 X84.478 Y62.215 E6.80242
G1 X83.877 Y63.326 E6.84443
G1 X83.565 Y63.84 E6.86443
G1 X82.475 Y65.446 E6.92899
G1 X82.069 Y65.978 E6.95125
G1 X81.002 Y67.225 E7.00583
G1 X80.537 Y67.71 E7.02818
G1 X79.123 Y69.03 E7.09252
G1 X78.562 Y69.493 E7.11671
G1 X76.996 Y70.634 E7.18116
G1 X76.389 Y71.023 E7.20514
G1 X74.706 Y71.963 E7.26925
G1 X74.163 Y72.231 E7.28939
G1 X73.003 Y72.733 E7.33143
G1 X72.439 Y72.945 E7.35147
G1 X70.584 Y73.535 E7.41621
G1 X69.938 Y73.701 E7.4384
G1 X68.348 Y74.018 E7.49232
G1 X67.688 Y74.112 E7.5145
G1 X65.754 Y74.278 E7.57906
G1 X65.033 Y74.296 E7.60305
G1 X63.134 Y74.23 E7.66625
G1 X62.42 Y74.163 E7.6901
G1 X60.523 Y73.868 E7.75395
G1 X59.927 Y73.744 E7.7742
G1 X58.665 Y73.414 E7.81758
G1 X58.084 Y73.23 E7.83785
G1 X56.242 Y72.542 E7.90325
G1 X55.632 Y72.275 E7.9254
G1 X54.209 Y71.555 E7.97844
G1 X53.633 Y71.222 E8.00057
G1 X52.025 Y70.17 E8.06448
G1 X51.543 Y69.819 E8.08431
G1 X50.581 Y69.043 E8.12542
G1 X50.179 Y68.688 E8.14326
G1 X48.971 Y67.521 E8.19913
G1 X48.511 Y67.023 E8.22167
G1 X47.304 Y65.559 E8.28478
G1 X46.883 Y64.982 E8.30854
G1 X45.84 Y63.356 E8.37279
G1 X45.461 Y62.671 E8.39883
G1 X44.507 Y60.644 E8.47334
G1 X44.237 Y59.966 E8.49761
G1 X43.729 Y58.424 E8.55161
G1 X43.585 Y57.91 E8.56936
G1 X43.298 Y56.68 E8.61137
G1 X43.198 Y56.143 E8.62954
G1 X42.978 Y54.56 E8.6827
G1 X42.923 Y53.899 E8.70476
G1 X42.869 Y51.932 E8.77021
G1 X42.894 Y51.199 E8.7946
G1 X43.075 Y49.294 E8.85825
G1 X43.16 Y48.709 E8.87791
G1 X43.408 Y47.442 E8.92085
G1 X43.558 Y46.84 E8.94148
G1 X44.128 Y44.976 E9.00631
G1 X44.376 Y44.31 E9.02995
G1 X45.137 Y42.584 E9.09269
G1 X45.439 Y41.99 E9.11485
G1 X46.263 Y40.572 E9.1694
G1 X46.671 Y39.961 E9.19384
G1 X48.038 Y38.159 E9.26907
M204 S5000
M205 X30 Y30
G0 F3600 X48.356 Y38.4
M204 S500
M205 X20 Y20
G1 F1800 X48.79 Y37.895 E9.29121
G1 X49.891 Y36.755 E9.34392
G1 X50.347 Y36.332 E9.36461
G1 X51.842 Y35.094 E9.42917
G1 X52.388 Y34.695 E9.45166
G1 X54.014 Y33.651 E9.51593
G1 X54.606 Y33.319 E9.53851
G1 X56.349 Y32.478 E9.60288
G1 X56.876 Y32.257 E9.62188
G1 X58.102 Y31.813 E9.66525
G1 X58.626 Y31.651 E9.68349
G1 X60.463 Y31.183 E9.74654
G1 X61.087 Y31.062 E9.76768
G1 X62.717 Y30.839 E9.8224
G1 X63.334 Y30.789 E9.84299
G1 X65.267 Y30.74 E9.90731
G1 X65.94 Y30.763 E9.9297
G1 X67.863 Y30.946 E9.99395
G1 X68.421 Y31.028 E10.01271
G1 X69.657 Y31.273 E10.05462
G1 X70.148 Y31.393 E10.07143
G1 X71.709 Y31.852 E10.12555
G1 X72.291 Y32.059 E10.14609
G1 X74.071 Y32.804 E10.21027
G1 X74.592 Y33.055 E10.22951
G1 X75.724 Y33.673 E10.2724
G1 X76.188 Y33.956 E10.29048
G1 X77.745 Y35.014 E10.35309
G1 X78.235 Y35.388 E10.37359
G1 X79.483 Y36.454 E10.42818
G1 X79.939 Y36.89 E10.44916
G1 X81.269 Y38.314 E10.51397
G1 X81.7 Y38.835 E10.53646
G1 X82.826 Y40.378 E10.59999
G1 X83.188 Y40.942 E10.62228
G1 X84.128 Y42.62 E10.68626
G1 X84.383 Y43.136 E10.7054
G1 X84.923 Y44.386 E10.75069
G1 X85.121 Y44.919 E10.7696
G1 X85.687 Y46.709 E10.83204
G1 X85.841 Y47.309 E10.85264
G1 X86.161 Y48.924 E10.9074
G1 X86.248 Y49.535 E10.92793
G1 X86.411 Y51.441 E10.99155
G1 X86.427 Y52.116 E11.01401
G1 X86.359 Y54.036 E11.07791
G1 X86.287 Y54.757 E11.10201
G1 X85.92 Y56.963 E11.17639
G1 X85.768 Y57.625 E11.19898
G1 X85.313 Y59.171 E11.25258
G1 X85.108 Y59.75 E11.27301
G1 X84.368 Y61.52 E11.33682
G1 X84.127 Y62.024 E11.3554
G1 X83.526 Y63.135 E11.39741
G1 X83.234 Y63.616 E11.41613
G1 X82.144 Y65.222 E11.48069
G1 X81.765 Y65.718 E11.50145
G1 X80.698 Y66.965 E11.55603
G1 X80.264 Y67.418 E11.5769
G1 X78.85 Y68.738 E11.64124
G1 X78.327 Y69.17 E11.6638
G1 X76.761 Y70.311 E11.72824
G1 X76.194 Y70.674 E11.75064
G1 X74.511 Y71.614 E11.81475
G1 X74.004 Y71.864 E11.83355
G1 X72.844 Y72.366 E11.87559
G1 X72.317 Y72.564 E11.89432
G1 X70.462 Y73.154 E11.95906
G1 X69.86 Y73.309 E11.97974
G1 X68.27 Y73.626 E12.03366
G1 X67.654 Y73.713 E12.05435
G1 X65.72 Y73.879 E12.11891
G1 X65.046 Y73.897 E12.14134
G1 X63.147 Y73.831 E12.20454
G1 X62.481 Y73.767 E12.22679
G1 X60.584 Y73.472 E12.29064
G1 X60.028 Y73.357 E12.30953
G1 X58.766 Y73.027 E12.35291
G1 X58.224 Y72.855 E12.37183
G1 X56.382 Y72.167 E12.43723
G1 X55.813 Y71.918 E12.45788
G1 X54.39 Y71.198 E12.51093
G1 X53.852 Y70.887 E12.53159
G1 X52.244 Y69.835 E12.59551
G1 X51.794 Y69.508 E12.61401
G1 X50.832 Y68.732 E12.65512
G1 X50.457 Y68.401 E12.67175
G1 X49.249 Y67.234 E12.72762
G1 X48.819 Y66.768 E12.74871
G1 X47.612 Y65.304 E12.81181
G1 X47.219 Y64.766 E12.83397
G1 X46.176 Y63.14 E12.89822
G1 X45.823 Y62.501 E12.9225
G1 X44.869 Y60.474 E12.99702
G1 X44.617 Y59.841 E13.01968
G1 X44.109 Y58.299 E13.07368
G1 X43.974 Y57.819 E13.09026
G1 X43.687 Y56.589 E13.13227
G1 X43.594 Y56.088 E13.14922
G1 X43.374 Y54.505 E13.20237
G1 X43.323 Y53.888 E13.22297
G1 X43.269 Y51.921 E13.28841
G1 X43.292 Y51.237 E13.31118
G1 X43.473 Y49.332 E13.37482
G1 X43.552 Y48.786 E13.39317
G1 X43.8 Y47.519 E13.43611
G1 X43.941 Y46.957 E13.45538
G1 X44.511 Y45.093 E13.52021
G1 X44.742 Y44.472 E13.54225
G1 X45.503 Y42.746 E13.60499
G1 X45.785 Y42.191 E13.6257
G1 X46.609 Y40.773 E13.68024
G1 X46.989 Y40.202 E13.70306
G1 X48.356 Y38.4 E13.77828
M204 S5000
M205 X30 Y30
G0 F3600 X48.675 Y38.642
M204 S500
M205 X20 Y20
G1 F1800 X49.078 Y38.173 E13.79885
G1 X50.179 Y37.033 E13.85156
G1 X50.602 Y36.64 E13.87077
G1 X52.097 Y35.402 E13.93533
G1 X52.605 Y35.031 E13.95625
G1 X54.231 Y33.987 E14.02052
G1 X54.78 Y33.68 E14.04144
G1 X56.523 Y32.839 E14.10581
G1 X57.012 Y32.633 E14.12346
G1 X58.238 Y32.189 E14.16682
G1 X58.725 Y32.039 E14.18377
G1 X60.562 Y31.571 E14.24682
G1 X61.141 Y31.458 E14.26644
G1 X62.771 Y31.235 E14.32116
G1 X63.344 Y31.189 E14.34028
G1 X65.277 Y31.14 E14.4046
G1 X65.902 Y31.161 E14.42539
G1 X67.825 Y31.344 E14.48964
G1 X68.343 Y31.42 E14.50706
G1 X69.579 Y31.665 E14.54897
G1 X70.035 Y31.777 E14.56458
G1 X71.596 Y32.236 E14.6187
G1 X72.137 Y32.428 E14.63779
G1 X73.917 Y33.173 E14.70197
G1 X74.401 Y33.406 E14.71984
G1 X75.533 Y34.024 E14.76273
G1 X75.964 Y34.287 E14.77953
G1 X77.521 Y35.345 E14.84214
G1 X77.975 Y35.692 E14.86114
G1 X79.223 Y36.758 E14.91573
G1 X79.646 Y37.163 E14.93521
G1 X80.976 Y38.587 E15.00002
G1 X81.376 Y39.071 E15.0209
G1 X82.502 Y40.614 E15.08444
G1 X82.839 Y41.138 E15.10516
G1 X83.779 Y42.816 E15.16913
G1 X84.016 Y43.295 E15.1869
G1 X84.556 Y44.545 E15.23219
G1 X84.74 Y45.039 E15.24973
G1 X85.306 Y46.829 E15.31217
G1 X85.449 Y47.386 E15.33129
G1 X85.769 Y49.001 E15.38605
G1 X85.849 Y49.569 E15.40513
G1 X86.012 Y51.475 E15.46876
G1 X86.028 Y52.102 E15.48962
G1 X85.96 Y54.022 E15.55352
G1 X85.892 Y54.691 E15.57588
G1 X85.525 Y56.897 E15.65026
G1 X85.384 Y57.512 E15.67125
G1 X84.929 Y59.058 E15.72485
G1 X84.739 Y59.596 E15.74383
G1 X83.999 Y61.366 E15.80763
G1 X83.775 Y61.834 E15.82489
G1 X83.174 Y62.945 E15.8669
G1 X82.903 Y63.391 E15.88426
G1 X81.813 Y64.997 E15.94882
G1 X81.461 Y65.458 E15.96811
G1 X80.394 Y66.705 E16.0227
G1 X79.991 Y67.125 E16.04206
G1 X78.577 Y68.445 E16.10639
G1 X78.091 Y68.847 E16.12737
G1 X76.525 Y69.988 E16.19181
G1 X75.999 Y70.325 E16.21259
G1 X74.316 Y71.265 E16.27671
G1 X73.845 Y71.497 E16.29417
G1 X72.685 Y71.999 E16.33621
G1 X72.196 Y72.182 E16.35358
G1 X70.341 Y72.772 E16.41832
G1 X69.782 Y72.917 E16.43753
G1 X68.192 Y73.234 E16.49145
G1 X67.62 Y73.315 E16.51067
G1 X65.686 Y73.481 E16.57523
G1 X65.06 Y73.497 E16.59606
G1 X63.161 Y73.431 E16.65925
G1 X62.543 Y73.372 E16.6799
G1 X60.646 Y73.077 E16.74376
G1 X60.129 Y72.97 E16.76132
G1 X58.867 Y72.64 E16.8047
G1 X58.364 Y72.48 E16.82226
G1 X56.522 Y71.792 E16.88766
G1 X55.993 Y71.561 E16.90686
G1 X54.57 Y70.841 E16.9599
G1 X54.071 Y70.552 E16.97908
G1 X52.463 Y69.5 E17.04299
G1 X52.045 Y69.196 E17.06018
G1 X51.083 Y68.42 E17.10129
G1 X50.735 Y68.113 E17.11672
G1 X49.527 Y66.946 E17.17259
G1 X49.128 Y66.514 E17.19215
G1 X47.921 Y65.05 E17.25525
G1 X47.556 Y64.55 E17.27584
G1 X46.513 Y62.924 E17.34009
G1 X46.185 Y62.33 E17.36266
G1 X45.231 Y60.303 E17.43718
G1 X44.997 Y59.716 E17.45819
G1 X44.489 Y58.174 E17.51219
G1 X44.364 Y57.729 E17.52757
G1 X44.077 Y56.499 E17.56957
G1 X43.991 Y56.033 E17.58533
G1 X43.771 Y54.45 E17.63849
G1 X43.723 Y53.877 E17.65762
G1 X43.669 Y51.91 E17.72306
G1 X43.69 Y51.275 E17.7442
G1 X43.871 Y49.37 E17.80784
G1 X43.945 Y48.863 E17.82488
G1 X44.193 Y47.596 E17.86782
G1 X44.323 Y47.074 E17.88572
G1 X44.893 Y45.21 E17.95055
G1 X45.108 Y44.633 E17.97103
G1 X45.869 Y42.907 E18.03377
G1 X46.131 Y42.392 E18.05298
G1 X46.955 Y40.974 E18.10753
G1 X47.308 Y40.444 E18.12871
G1 X48.675 Y38.642 E18.20394
M204 S5000
M205 X30 Y30
G1 F2400 E13.20394
G0 F3600 X51.85 Y41.949
G0 X51.88 Y41.981
G0 X62.242 Y52.769
G0 X62.272 Y52.801
G0 X62.691 Y53.235
M204 S500
M205 X20 Y20
;TYPE:SUPPORT
G1 F2400 E18.20394
G1 F1800 X67.001 Y53.235 E18.34729
G1 X66.925 Y53.406 E18.35352
G1 X66.761 Y53.676 E18.36402
G1 X66.564 Y53.916 E18.37435
G1 X63.131 Y53.916 E18.48853
G1 X62.927 Y53.666 E18.49926
G1 X62.758 Y53.391 E18.51
G1 X62.691 Y53.235 E18.51565
M204 S5000
M205 X30 Y30
G0 F3600 X64.008 Y53.395
M204 S500
M205 X20 Y20
G1 F1800 X64.008 Y53.756 E18.52765
M204 S5000
M205 X30 Y30
G0 F3600 X66.675 Y53.509
M204 S500
M205 X20 Y20
G1 F1800 X66.675 Y53.395 E18.53144
M204 S5000
M205 X30 Y30
G1 F2400 E13.53144
;MESH:4b16b319-8f6b-4c9a-bdd4-1f7d2505cbc4.stl
G0 F3600 X67.67 Y54.934
G0 X67.201 Y55.508
G0 X67.164 Y55.416
M204 S500
M205 X20 Y20
;TYPE:WALL-INNER
G1 F2400 E18.53144
G1 F1800 X67.67 Y54.934 E18.55469
G1 X67.991 Y54.54 E18.57159
G1 X68.257 Y54.105 E18.58855
G1 X68.462 Y53.639 E18.60548
G1 X68.606 Y53.151 E18.62241
G1 X68.683 Y52.647 E18.63936
G1 X68.692 Y52.139 E18.65626
G1 X68.638 Y51.633 E18.67319
G1 X68.515 Y51.136 E18.69022
G1 X68.325 Y50.663 E18.70717
G1 X68.077 Y50.219 E18.72408
G1 X67.772 Y49.811 E18.74103
G1 X67.415 Y49.447 E18.75798
G1 X67.014 Y49.133 E18.77492
G1 X66.575 Y48.876 E18.79184
G1 X66.106 Y48.678 E18.80878
G1 X65.615 Y48.543 E18.82571
G1 X65.111 Y48.475 E18.84263
G1 X64.602 Y48.472 E18.85956
G1 X64.095 Y48.538 E18.87656
G1 X63.602 Y48.671 E18.89355
G1 X63.133 Y48.868 E18.91047
G1 X62.694 Y49.124 E18.92737
G1 X62.291 Y49.436 E18.94432
G1 X61.934 Y49.799 E18.96125
G1 X61.626 Y50.205 E18.9782
G1 X61.376 Y50.65 E18.99518
G1 X61.186 Y51.122 E19.0121
G1 X61.061 Y51.616 E19.02905
G1 X61.002 Y52.12 E19.04593
G1 X61.007 Y52.63 E19.06289
G1 X61.082 Y53.136 E19.07991
G1 X61.225 Y53.624 E19.09682
G1 X61.428 Y54.092 E19.11379
G1 X61.694 Y54.527 E19.13074
G1 X62.014 Y54.925 E19.14773
G1 X62.54 Y55.416 E19.17166
G1 X67.164 Y55.416 E19.32546
M204 S5000
M205 X30 Y30
G0 F3600 X67.201 Y55.508
G0 X68.023 Y54.563
G0 X68.499 Y53.652
G0 X68.722 Y52.65
G0 X68.686 Y51.822
G0 X65.786 Y37.045
