;FLAVOR:Marlin
;TIME:1955
;Filament used: 2.01548m
;Layer height: 0.2
;Generated with Cura_SteamEngine 4.0.0
M140 S60
M105
M190 S60
M104 S200
M105
M109 S200
M82 ;absolute extrusion mode
; Ender 3 Custom Start G-code
G28 ; Home all axes
G92 E0 ; Reset Extruder
G1 Z2.0 F3000 ; Move Z Axis up little to prevent scratching of Heat Bed
G1 X0.1 Y20 Z0.3 F5000.0 ; Move to start position
G1 X0.1 Y200.0 Z0.3 F1500.0 E15 ; Draw the first line
G1 X0.4 Y200.0 Z0.3 F5000.0 ; Move to side a little
G1 X0.4 Y20 Z0.3 F1500.0 E30 ; Draw the second line
G92 E0 ; Reset Extruder
G1 Z2.0 F3000 ; Move Z Axis up little to prevent scratching of Heat Bed
; End of custom start GCode
G92 E0
G1 F2400 E-5
;LAYER_COUNT:58
;LAYER:0
M107
M204 S5000
M205 X30 Y30
G0 F3600 X51.347 Y34.035 Z0.2
M204 S500
M205 X20 Y20
;TYPE:SKIRT
G1 F2400 E0
G1 F1800 X51.785 Y33.465 E0.02391
G1 X52.868 Y32.207 E0.07912
G1 X53.358 Y31.697 E0.10264
G1 X54.709 Y30.44 E0.16402
G1 X55.288 Y29.962 E0.18899
G1 X56.841 Y28.825 E0.25301
G1 X57.493 Y28.406 E0.27878
G1 X59.206 Y27.446 E0.3441
G1 X59.794 Y27.155 E0.36592
G1 X60.957 Y26.652 E0.40806
G1 X61.557 Y26.427 E0.42938
G1 X63.417 Y25.835 E0.4943
G1 X64.106 Y25.658 E0.51796
G1 X65.7 Y25.34 E0.57202
G1 X66.4 Y25.24 E0.59554
G1 X68.272 Y25.078 E0.65803
G1 X69.033 Y25.057 E0.68335
G1 X70.963 Y25.12 E0.74758
G1 X71.737 Y25.193 E0.77344
G1 X73.686 Y25.496 E0.83904
G1 X74.329 Y25.63 E0.86089
G1 X75.578 Y25.958 E0.90384
G1 X76.199 Y26.155 E0.9255
G1 X78.023 Y26.839 E0.9903
G1 X78.662 Y27.12 E1.01351
G1 X80.073 Y27.833 E1.0661
G1 X80.684 Y28.185 E1.08955
G1 X82.292 Y29.234 E1.15341
G1 X82.81 Y29.61 E1.17469
G1 X83.797 Y30.405 E1.21685
G1 X84.219 Y30.776 E1.23554
G1 X85.347 Y31.861 E1.28759
G1 X85.833 Y32.385 E1.31136
G1 X87.103 Y33.914 E1.37747
G1 X87.567 Y34.547 E1.40358
G1 X88.612 Y36.176 E1.46795
G1 X89.016 Y36.907 E1.49573
G1 X89.974 Y38.943 E1.57057
G1 X90.259 Y39.659 E1.5962
G1 X90.757 Y41.165 E1.64895
G1 X90.912 Y41.711 E1.66783
G1 X91.204 Y42.955 E1.71033
G1 X91.313 Y43.543 E1.73022
G1 X91.54 Y45.187 E1.78542
G1 X91.598 Y45.9 E1.80921
G1 X91.647 Y47.836 E1.87363
G1 X91.62 Y48.604 E1.89918
G1 X91.437 Y50.527 E1.96343
G1 X91.344 Y51.165 E1.98488
G1 X91.099 Y52.401 E2.02679
G1 X90.962 Y52.96 E2.04593
G1 X90.506 Y54.513 E2.09976
G1 X90.27 Y55.178 E2.12323
G1 X89.531 Y56.946 E2.18697
G1 X89.252 Y57.529 E2.20846
G1 X88.644 Y58.65 E2.25088
G1 X88.315 Y59.191 E2.27194
G1 X87.238 Y60.779 E2.33576
G1 X86.809 Y61.342 E2.3593
G1 X85.748 Y62.585 E2.41365
G1 X85.244 Y63.111 E2.43788
G1 X83.797 Y64.46 E2.50368
G1 X83.2 Y64.953 E2.52943
G1 X81.655 Y66.078 E2.593
G1 X80.975 Y66.51 E2.6198
G1 X74.613 Y70.013 E2.86135
G1 X73.968 Y70.323 E2.88515
G1 X73.293 Y70.558 E2.90893
G1 X72.595 Y70.717 E2.93274
G1 X71.999 Y70.789 E2.9527
G1 X69.896 Y70.945 E3.02284
G1 X69.042 Y70.952 E3.05125
G1 X66.694 Y70.812 E3.12948
G1 X65.984 Y70.729 E3.15326
G1 X65.287 Y70.568 E3.17705
G1 X64.612 Y70.33 E3.20085
G1 X63.99 Y70.03 E3.22382
G1 X57.43 Y66.421 E3.47285
G1 X56.647 Y65.913 E3.50389
G1 X54.879 Y64.572 E3.5777
G1 X54.295 Y64.071 E3.60329
G1 X53.133 Y62.946 E3.65708
G1 X52.656 Y62.43 E3.68045
G1 X51.436 Y60.957 E3.74407
G1 X50.979 Y60.332 E3.76982
G1 X49.927 Y58.693 E3.8346
G1 X49.548 Y58.016 E3.8604
G1 X48.711 Y56.28 E3.9245
G1 X48.459 Y55.68 E3.94615
G1 X48.016 Y54.457 E3.98941
G1 X47.83 Y53.852 E4.01046
G1 X47.362 Y52.009 E4.07371
G1 X47.224 Y51.304 E4.0976
G1 X46.999 Y49.664 E4.15266
G1 X46.942 Y48.958 E4.17622
G1 X46.893 Y47.051 E4.23966
G1 X46.92 Y46.274 E4.26552
G1 X47.107 Y44.33 E4.33048
G1 X47.2 Y43.698 E4.35173
G1 X47.445 Y42.463 E4.3936
G1 X47.583 Y41.901 E4.41285
G1 X48.046 Y40.328 E4.46739
G1 X48.284 Y39.66 E4.49097
G1 X49.022 Y37.9 E4.55445
G1 X49.304 Y37.314 E4.57608
G1 X49.913 Y36.196 E4.61842
G1 X50.245 Y35.651 E4.63965
G1 X51.347 Y34.035 E4.7047
M204 S5000
M205 X30 Y30
G0 F3600 X51.678 Y34.261
M204 S500
M205 X20 Y20
G1 F1800 X52.088 Y33.726 E4.72712
G1 X53.171 Y32.468 E4.78233
G1 X53.631 Y31.99 E4.8044
G1 X54.982 Y30.733 E4.86577
G1 X55.525 Y30.285 E4.88919
G1 X57.078 Y29.148 E4.9532
G1 X57.689 Y28.755 E4.97737
G1 X59.402 Y27.795 E5.04268
G1 X59.953 Y27.522 E5.06313
G1 X61.116 Y27.019 E5.10528
G1 X61.678 Y26.809 E5.12523
G1 X63.538 Y26.217 E5.19015
G1 X64.184 Y26.05 E5.21234
G1 X65.778 Y25.732 E5.26641
G1 X66.435 Y25.638 E5.28848
G1 X68.307 Y25.476 E5.35098
G1 X69.02 Y25.457 E5.3747
G1 X70.95 Y25.52 E5.43892
G1 X71.676 Y25.588 E5.46318
G1 X73.625 Y25.891 E5.52878
G1 X74.227 Y26.017 E5.54924
G1 X75.476 Y26.345 E5.59219
G1 X76.059 Y26.53 E5.61253
G1 X77.883 Y27.214 E5.67732
G1 X78.482 Y27.477 E5.69908
G1 X79.893 Y28.19 E5.75166
G1 X80.465 Y28.52 E5.77363
G1 X82.073 Y29.569 E5.83748
G1 X82.559 Y29.921 E5.85744
G1 X83.546 Y30.716 E5.89959
G1 X83.941 Y31.065 E5.91712
G1 X85.069 Y32.15 E5.96918
G1 X85.526 Y32.64 E5.99147
G1 X86.796 Y34.169 E6.05758
G1 X87.23 Y34.763 E6.08204
G1 X88.275 Y36.392 E6.14641
G1 X88.654 Y37.077 E6.17245
G1 X89.612 Y39.113 E6.24729
G1 X89.88 Y39.784 E6.27132
G1 X90.378 Y41.29 E6.32408
G1 X90.522 Y41.803 E6.3418
G1 X90.814 Y43.047 E6.3843
G1 X90.917 Y43.597 E6.40291
G1 X91.144 Y45.241 E6.45811
G1 X91.198 Y45.91 E6.48044
G1 X91.247 Y47.846 E6.54485
G1 X91.222 Y48.566 E6.56881
G1 X91.039 Y50.489 E6.63306
G1 X90.951 Y51.088 E6.6532
G1 X90.706 Y52.324 E6.6951
G1 X90.578 Y52.847 E6.71301
G1 X90.122 Y54.4 E6.76685
G1 X89.901 Y55.024 E6.78886
G1 X89.162 Y56.792 E6.8526
G1 X88.9 Y57.339 E6.87277
G1 X88.292 Y58.46 E6.91519
G1 X87.984 Y58.967 E6.93492
G1 X86.907 Y60.555 E6.99874
G1 X86.505 Y61.082 E7.02078
G1 X85.444 Y62.325 E7.07514
G1 X84.971 Y62.819 E7.09788
G1 X83.524 Y64.168 E7.16368
G1 X82.965 Y64.629 E7.18778
G1 X81.42 Y65.754 E7.25135
G1 X80.782 Y66.16 E7.2765
G1 X74.42 Y69.663 E7.51806
G1 X73.795 Y69.961 E7.54109
G1 X73.14 Y70.186 E7.56412
G1 X72.463 Y70.333 E7.58716
G1 X71.97 Y70.391 E7.60367
G1 X69.867 Y70.547 E7.67381
G1 X69.066 Y70.552 E7.70045
G1 X66.718 Y70.412 E7.77869
G1 X66.03 Y70.331 E7.80173
G1 X65.356 Y70.172 E7.82476
G1 X64.705 Y69.935 E7.8478
G1 X64.183 Y69.68 E7.86713
G1 X57.623 Y66.071 E8.11615
G1 X56.889 Y65.594 E8.14527
G1 X55.121 Y64.253 E8.21907
G1 X54.574 Y63.784 E8.24304
G1 X53.412 Y62.659 E8.29683
G1 X52.964 Y62.175 E8.31877
G1 X51.744 Y60.702 E8.38238
G1 X51.316 Y60.116 E8.40652
G1 X50.264 Y58.477 E8.47129
G1 X49.908 Y57.842 E8.49551
G1 X49.071 Y56.106 E8.55961
G1 X48.835 Y55.543 E8.57991
G1 X48.392 Y54.32 E8.62317
G1 X48.218 Y53.754 E8.64287
G1 X47.75 Y51.911 E8.70611
G1 X47.621 Y51.25 E8.72851
G1 X47.396 Y49.61 E8.78357
G1 X47.342 Y48.948 E8.80566
G1 X47.293 Y47.041 E8.86911
G1 X47.319 Y46.312 E8.89337
G1 X47.506 Y44.368 E8.95833
G1 X47.593 Y43.775 E8.97826
G1 X47.838 Y42.54 E9.02014
G1 X47.967 Y42.014 E9.03815
G1 X48.43 Y40.441 E9.09269
G1 X48.653 Y39.815 E9.11479
G1 X49.391 Y38.055 E9.17827
G1 X49.655 Y37.505 E9.19856
G1 X50.264 Y36.387 E9.2409
G1 X50.576 Y35.877 E9.26079
G1 X51.678 Y34.261 E9.32584
M204 S5000
M205 X30 Y30
G0 F3600 X52.008 Y34.486
M204 S500
M205 X20 Y20
G1 F1800 X52.391 Y33.987 E9.34677
G1 X53.474 Y32.729 E9.40198
G1 X53.903 Y32.283 E9.42256
G1 X55.254 Y31.026 E9.48393
G1 X55.761 Y30.608 E9.50579
G1 X57.314 Y29.471 E9.56981
G1 X57.884 Y29.104 E9.59235
G1 X59.597 Y28.144 E9.65767
G1 X60.112 Y27.889 E9.67678
G1 X61.275 Y27.386 E9.71892
G1 X61.8 Y27.19 E9.73756
G1 X63.66 Y26.598 E9.80248
G1 X64.262 Y26.442 E9.82317
G1 X65.856 Y26.124 E9.87723
G1 X66.469 Y26.037 E9.89782
G1 X68.341 Y25.875 E9.96032
G1 X69.007 Y25.857 E9.98248
G1 X70.937 Y25.92 E10.0467
G1 X71.614 Y25.983 E10.06932
G1 X73.563 Y26.286 E10.13492
G1 X74.125 Y26.404 E10.15402
G1 X75.374 Y26.732 E10.19697
G1 X75.918 Y26.905 E10.21596
G1 X77.742 Y27.589 E10.28075
G1 X78.302 Y27.834 E10.30108
G1 X79.713 Y28.547 E10.35366
G1 X80.247 Y28.855 E10.37416
G1 X81.855 Y29.904 E10.43802
G1 X82.308 Y30.233 E10.45664
G1 X83.295 Y31.028 E10.49879
G1 X83.664 Y31.353 E10.51515
G1 X84.792 Y32.438 E10.56721
G1 X85.218 Y32.896 E10.58801
G1 X86.488 Y34.425 E10.65412
G1 X86.894 Y34.979 E10.67696
G1 X87.939 Y36.608 E10.74133
G1 X88.292 Y37.248 E10.76564
G1 X89.25 Y39.284 E10.84048
G1 X89.5 Y39.91 E10.8629
G1 X89.998 Y41.416 E10.91566
G1 X90.133 Y41.894 E10.93218
G1 X90.425 Y43.138 E10.97468
G1 X90.52 Y43.652 E10.99207
G1 X90.747 Y45.296 E11.04726
G1 X90.798 Y45.92 E11.06809
G1 X90.847 Y47.856 E11.1325
G1 X90.824 Y48.529 E11.1549
G1 X90.641 Y50.452 E11.21915
G1 X90.559 Y51.01 E11.2379
G1 X90.314 Y52.246 E11.27981
G1 X90.194 Y52.735 E11.29656
G1 X89.738 Y54.288 E11.35039
G1 X89.532 Y54.87 E11.37093
G1 X88.793 Y56.638 E11.43466
G1 X88.549 Y57.148 E11.45347
G1 X87.941 Y58.269 E11.49588
G1 X87.653 Y58.742 E11.5143
G1 X86.576 Y60.33 E11.57812
G1 X86.2 Y60.823 E11.59874
G1 X85.139 Y62.066 E11.6531
G1 X84.699 Y62.526 E11.67427
G1 X83.252 Y63.875 E11.74007
G1 X82.729 Y64.306 E11.76261
G1 X81.184 Y65.431 E11.82617
G1 X80.589 Y65.81 E11.84964
G1 X74.227 Y69.313 E12.09119
G1 X73.623 Y69.6 E12.11344
G1 X72.989 Y69.813 E12.13568
G1 X72.333 Y69.948 E12.15796
G1 X71.94 Y69.992 E12.17111
G1 X69.837 Y70.148 E12.24125
G1 X69.09 Y70.153 E12.26609
G1 X66.742 Y70.013 E12.34433
G1 X66.077 Y69.933 E12.3666
G1 X65.427 Y69.775 E12.38885
G1 X64.801 Y69.54 E12.41109
G1 X64.376 Y69.329 E12.42687
G1 X57.816 Y65.72 E12.6759
G1 X57.131 Y65.276 E12.70305
G1 X55.363 Y63.935 E12.77686
G1 X54.852 Y63.496 E12.79926
G1 X53.69 Y62.371 E12.85306
G1 X53.272 Y61.92 E12.87351
G1 X52.052 Y60.447 E12.93712
G1 X51.652 Y59.9 E12.95966
G1 X50.6 Y58.261 E13.02444
G1 X50.269 Y57.668 E13.04703
G1 X49.432 Y55.932 E13.11113
G1 X49.211 Y55.407 E13.13007
G1 X48.768 Y54.184 E13.17334
G1 X48.605 Y53.655 E13.19175
G1 X48.137 Y51.812 E13.25499
G1 X48.017 Y51.195 E13.2759
G1 X47.792 Y49.555 E13.33095
G1 X47.742 Y48.938 E13.35154
G1 X47.693 Y47.031 E13.41499
G1 X47.717 Y46.351 E13.43762
G1 X47.904 Y44.407 E13.50258
G1 X47.985 Y43.853 E13.5212
G1 X48.23 Y42.618 E13.56308
G1 X48.351 Y42.127 E13.5799
G1 X48.814 Y40.554 E13.63443
G1 X49.022 Y39.969 E13.65508
G1 X49.76 Y38.209 E13.71856
G1 X50.006 Y37.696 E13.73748
G1 X50.615 Y36.578 E13.77983
G1 X50.906 Y36.102 E13.79838
G1 X52.008 Y34.486 E13.86344
M204 S5000
M205 X30 Y30
G0 F3600 X52.339 Y34.711
M204 S500
M205 X20 Y20
G1 F1800 X52.694 Y34.248 E13.88284
G1 X53.777 Y32.99 E13.93805
G1 X54.176 Y32.576 E13.95718
G1 X55.527 Y31.319 E14.01855
G1 X55.997 Y30.93 E14.03885
G1 X57.55 Y29.793 E14.10286
G1 X58.08 Y29.453 E14.12381
G1 X59.793 Y28.493 E14.18912
G1 X60.271 Y28.256 E14.20686
G1 X61.434 Y27.753 E14.24901
G1 X61.921 Y27.571 E14.2663
G1 X63.781 Y26.979 E14.33122
G1 X64.341 Y26.834 E14.35046
G1 X65.935 Y26.516 E14.40452
G1 X66.504 Y26.435 E14.42364
G1 X68.376 Y26.273 E14.48613
G1 X68.994 Y26.257 E14.50669
G1 X70.924 Y26.32 E14.57092
G1 X71.553 Y26.379 E14.59193
G1 X73.502 Y26.682 E14.65754
G1 X74.024 Y26.791 E14.67527
G1 X75.273 Y27.119 E14.71822
G1 X75.778 Y27.279 E14.73584
G1 X77.602 Y27.963 E14.80063
G1 X78.121 Y28.191 E14.81949
G1 X79.532 Y28.904 E14.87207
G1 X80.028 Y29.19 E14.89111
G1 X81.636 Y30.239 E14.95497
G1 X82.057 Y30.544 E14.97226
G1 X83.044 Y31.339 E15.01441
G1 X83.387 Y31.641 E15.02961
G1 X84.515 Y32.726 E15.08167
G1 X84.91 Y33.151 E15.10097
G1 X86.18 Y34.68 E15.16708
G1 X86.557 Y35.195 E15.1883
G1 X87.602 Y36.824 E15.25268
G1 X87.93 Y37.418 E15.27524
G1 X88.888 Y39.454 E15.35008
G1 X89.12 Y40.035 E15.37089
G1 X89.618 Y41.541 E15.42365
G1 X89.743 Y41.986 E15.43902
G1 X90.035 Y43.23 E15.48152
G1 X90.124 Y43.707 E15.49766
G1 X90.351 Y45.351 E15.55286
G1 X90.398 Y45.93 E15.57218
G1 X90.447 Y47.866 E15.63659
G1 X90.426 Y48.491 E15.65739
G1 X90.243 Y50.414 E15.72164
G1 X90.167 Y50.932 E15.73905
G1 X89.922 Y52.168 E15.78096
G1 X89.81 Y52.622 E15.79652
G1 X89.354 Y54.175 E15.85035
G1 X89.163 Y54.715 E15.8694
G1 X88.424 Y56.483 E15.93313
G1 X88.197 Y56.957 E15.95061
G1 X87.589 Y58.078 E15.99303
G1 X87.322 Y58.518 E16.01015
G1 X86.245 Y60.106 E16.07397
G1 X85.896 Y60.563 E16.09309
G1 X84.835 Y61.806 E16.14745
G1 X84.426 Y62.233 E16.16711
G1 X82.979 Y63.582 E16.23291
G1 X82.494 Y63.983 E16.25384
G1 X80.949 Y65.108 E16.31741
G1 X80.396 Y65.459 E16.33919
G1 X74.034 Y68.962 E16.58075
G1 X73.451 Y69.237 E16.60219
G1 X72.839 Y69.439 E16.62362
G1 X71.911 Y69.593 E16.65491
G1 X69.808 Y69.749 E16.72505
G1 X69.113 Y69.754 E16.74817
G1 X66.765 Y69.614 E16.8264
G1 X66.126 Y69.536 E16.84781
G1 X65.5 Y69.379 E16.86928
G1 X64.899 Y69.146 E16.89072
G1 X64.568 Y68.979 E16.90305
G1 X58.008 Y65.37 E17.15207
G1 X57.373 Y64.957 E17.17727
G1 X55.605 Y63.616 E17.25107
G1 X55.13 Y63.209 E17.27188
G1 X53.968 Y62.084 E17.32567
G1 X53.58 Y61.665 E17.34466
G1 X52.36 Y60.192 E17.40828
G1 X51.989 Y59.684 E17.4292
G1 X50.937 Y58.045 E17.49398
G1 X50.629 Y57.494 E17.51497
G1 X49.792 Y55.758 E17.57907
G1 X49.587 Y55.271 E17.59665
G1 X49.144 Y54.048 E17.63991
G1 X48.993 Y53.557 E17.657
G1 X48.525 Y51.714 E17.72024
G1 X48.413 Y51.141 E17.73966
G1 X48.188 Y49.501 E17.79472
G1 X48.142 Y48.928 E17.81384
G1 X48.093 Y47.021 E17.87728
G1 X48.115 Y46.389 E17.89832
G1 X48.302 Y44.445 E17.96327
G1 X48.377 Y43.931 E17.98055
G1 X48.622 Y42.696 E18.02243
G1 X48.735 Y42.24 E18.03805
G1 X49.198 Y40.667 E18.09259
G1 X49.391 Y40.124 E18.11176
G1 X50.129 Y38.364 E18.17523
G1 X50.358 Y37.888 E18.1928
G1 X50.967 Y36.77 E18.23514
G1 X51.237 Y36.327 E18.2524
G1 X52.339 Y34.711 E18.31746
M204 S5000
M205 X30 Y30
G1 F2400 E13.31746
G0 F3600 X55.692 Y37.845
G0 X55.724 Y37.875
G0 X66.731 Y48.159
G0 X66.778 Y48.203
G0 X67.277 Y48.669
M204 S500
M205 X20 Y20
;TYPE:SUPPORT
G1 F2400 E18.31746
G1 F1800 X71.264 Y48.669 E18.45006
G1 X71.158 Y48.834 E18.45659
G1 X70.952 Y49.075 E18.46713
G1 X70.712 Y49.289 E18.47783
G1 X70.458 Y49.462 E18.48805
G1 X70.308 Y49.536 E18.49361
G1 X68.235 Y49.536 E18.56256
G1 X68.078 Y49.459 E18.56838
G1 X67.829 Y49.29 E18.57838
G1 X67.592 Y49.077 E18.58898
G1 X67.385 Y48.837 E18.59952
G1 X67.277 Y48.669 E18.60617
M204 S5000
M205 X30 Y30
G0 F3600 X69.342 Y48.829
M204 S500
M205 X20 Y20
G1 F1800 X69.342 Y49.376 E18.62436
M204 S5000
M205 X30 Y30
G1 F2400 E13.62436
G0 F3600 X69.37 Y49.806
G0 X69.372 Y49.85
G0 X70.278 Y63.989
G0 X70.28 Y64.033
G0 X70.299 Y64.305
M204 S500
M205 X20 Y20
G1 F2400 E18.62436
G1 F1800 X71.313 Y64.213 E18.65822
G1 X71.313 Y64.244 E18.65926
G1 X69.948 Y64.37 E18.70485
G1 X68.622 Y64.353 E18.74896
G1 X67.959 Y64.315 E18.77104
G1 X67.229 Y64.245 E18.79543
G1 X67.229 Y64.213 E18.7965
G1 X68.249 Y64.306 E18.83056
G1 X69.274 Y64.336 E18.86467
G1 X70.299 Y64.305 E18.89878
M204 S5000
M205 X30 Y30
G1 F2400 E13.89878
;MESH:db292154-2901-4c86-a9e2-0315ad4d1166.stl
G0 F3600 X70.214 Y62.788
G0 X70.681 Y51.133
G0 X70.659 Y51.036
M204 S500
M205 X20 Y20
;TYPE:WALL-INNER
G1 F2400 E18.89878
G1 F1800 X71.215 Y50.761 E18.91941
G1 X71.643 Y50.471 E18.9366
G1 X72.027 Y50.126 E18.95377
G1 X72.361 Y49.734 E18.9709
G1 X72.64 Y49.301 E18.98804
G1 X72.86 Y48.835 E19.00517
G1 X73.014 Y48.342 E19.02235
G1 X73.101 Y47.834 E19.0395
G1 X73.12 Y47.319 E19.05664
G1 X73.071 Y46.806 E19.07378
G1 X72.952 Y46.304 E19.09094
G1 X72.767 Y45.822 E19.10811
G1 X72.52 Y45.37 E19.12524
G1 X72.216 Y44.954 E19.14238
G1 X71.858 Y44.583 E19.15952
G1 X71.453 Y44.263 E19.17669
G1 X71.009 Y43.999 E19.19387
G1 X70.534 Y43.798 E19.21103
G1 X70.037 Y43.663 E19.22816
G1 X69.526 Y43.594 E19.24531
G1 X69.011 Y43.594 E19.26244
G1 X68.5 Y43.663 E19.27959
G1 X68.002 Y43.8 E19.29676
G1 X67.528 Y44.001 E19.31389
G1 X67.085 Y44.265 E19.33104
G1 X66.681 Y44.586 E19.3482
G1 X66.324 Y44.957 E19.36533
G1 X66.018 Y45.373 E19.3825
G1 X65.772 Y45.828 E19.39971
G1 X65.589 Y46.308 E19.41679
G1 X65.47 Y46.81 E19.43395
G1 X65.421 Y47.323 E19.45109
G1 X65.44 Y47.838 E19.46823
G1 X65.527 Y48.348 E19.48544
G1 X65.684 Y48.84 E19.50262
G1 X65.904 Y49.305 E19.51973
G1 X66.183 Y49.738 E19.53686
G1 X66.519 Y50.129 E19.55401
G1 X66.902 Y50.473 E19.57113
G1 X67.33 Y50.764 E19.58834
G1 X67.888 Y51.036 E19.60899
G1 X70.659 Y51.036 E19.70115
M204 S5000
M205 X30 Y30
G0 F3600 X70.681 Y51.133
G0 X71.667 Y50.502
G0 X72.393 Y49.757
G0 X72.897 Y48.849
G0 X73.14 Y47.838
G0 X73.116 Y46.998
G0 X70.21 Y32.165
G0 X70.216 Y32.066
M204 S500
M205 X20 Y20
G1 F1800 X71.122 Y32.148 E19.73141
G1 X72.038 Y32.287 E19.76223
G1 X72.958 Y32.485 E19.79353
