;FLAVOR:Marlin
;TIME:11228
;Filament used: 11.9648m
;Layer height: 0.3
;MINX:87.6
;MINY:27.825
;MINZ:0.2
;MAXX:147.4
;MAXY:207.175
;MAXZ:32.9
;Generated with Cura_SteamEngine 4.1.0
M140 S60
M105
M190 S60
M104 S200
M105
M109 S200
M82 ;absolute extrusion mode
; Ender 3 Custom Start G-code
G28 ; Home all axes
G92 E0 ; Reset Extruder
G1 Z2.0 F3000 ; Move Z Axis up little to prevent scratching of Heat Bed
G1 X0.1 Y20 Z0.3 F5000.0 ; Move to start position
G1 X0.1 Y200.0 Z0.3 F1500.0 E15 ; Draw the first line
G1 X0.4 Y200.0 Z0.3 F5000.0 ; Move to side a little
G1 X0.4 Y20 Z0.3 F1500.0 E30 ; Draw the second line
G92 E0 ; Reset Extruder
G1 Z2.0 F3000 ; Move Z Axis up little to prevent scratching of Heat Bed
; End of custom start GCode
G92 E0
G92 E0
G1 F2400 E-5
;LAYER_COUNT:110
;LAYER:0
M107
M204 S500
M205 X10 Y10
G0 F3600 X87.999 Y32.037 Z0.2
;TYPE:SKIRT
G1 F2400 E0
G1 F1800 X88.282 Y31.38 E0.02379
G1 X88.636 Y30.758 E0.0476
G1 X89.058 Y30.18 E0.0714
G1 X89.541 Y29.653 E0.09518
G1 X90.08 Y29.183 E0.11896
G1 X90.668 Y28.776 E0.14275
G1 X91.298 Y28.437 E0.16654
G1 X91.962 Y28.171 E0.19033
G1 X92.651 Y27.98 E0.21411
G1 X93.358 Y27.867 E0.23793
G1 X93.83 Y27.837 E0.25366
G1 X94.15 Y27.828 E0.2643
G1 X94.33 Y27.825 E0.27029
G1 X140.293 Y27.825 E1.79903
G1 X140.385 Y27.826 E1.80209
G1 X141.083 Y27.836 E1.8253
G1 X141.796 Y27.886 E1.84908
G1 X142.5 Y28.015 E1.87288
G1 X143.184 Y28.223 E1.89666
G1 X143.841 Y28.505 E1.92044
G1 X144.463 Y28.859 E1.94424
G1 X145.041 Y29.28 E1.96803
G1 X145.569 Y29.763 E1.99183
G1 X146.039 Y30.301 E2.01559
G1 X146.447 Y30.889 E2.03939
G1 X146.786 Y31.519 E2.06319
G1 X147.053 Y32.182 E2.08696
G1 X147.244 Y32.872 E2.11077
G1 X147.357 Y33.578 E2.13455
G1 X147.388 Y34.055 E2.15045
G1 X147.397 Y34.375 E2.1611
G1 X147.4 Y34.555 E2.16709
G1 X147.4 Y189.35 E7.31559
G1 X147.399 Y189.439 E7.31855
G1 X147.382 Y190.668 E7.35943
G1 X147.377 Y190.855 E7.36565
G1 X147.357 Y191.318 E7.38107
G1 X147.334 Y191.646 E7.392
G1 X147.296 Y192.047 E7.4054
G1 X147.274 Y192.249 E7.41216
G1 X147.225 Y192.635 E7.4251
G1 X147.199 Y192.819 E7.43128
G1 X147.163 Y193.049 E7.43902
G1 X147.111 Y193.336 E7.44872
G1 X146.999 Y193.886 E7.46739
G1 X146.955 Y194.089 E7.4743
G1 X146.902 Y194.312 E7.48192
G1 X146.834 Y194.571 E7.49083
G1 X146.681 Y195.113 E7.50956
G1 X146.628 Y195.291 E7.51574
G1 X146.558 Y195.514 E7.52351
G1 X146.468 Y195.78 E7.53285
G1 X146.284 Y196.287 E7.55079
G1 X146.21 Y196.481 E7.5577
G1 X146.132 Y196.676 E7.56468
G1 X146.018 Y196.944 E7.57437
G1 X145.777 Y197.475 E7.59377
G1 X145.706 Y197.625 E7.59929
G1 X145.606 Y197.831 E7.6069
G1 X145.463 Y198.109 E7.6173
G1 X145.191 Y198.606 E7.63614
G1 X145.101 Y198.765 E7.64222
G1 X144.984 Y198.965 E7.64993
G1 X144.838 Y199.202 E7.65918
G1 X144.56 Y199.633 E7.67624
G1 X144.464 Y199.778 E7.68203
G1 X144.334 Y199.968 E7.68968
G1 X144.155 Y200.217 E7.69988
G1 X143.809 Y200.674 E7.71895
G1 X143.683 Y200.834 E7.72572
G1 X143.527 Y201.027 E7.73398
G1 X143.335 Y201.254 E7.74386
G1 X142.97 Y201.665 E7.76215
G1 X142.869 Y201.777 E7.76716
G1 X142.72 Y201.937 E7.77444
G1 X142.497 Y202.164 E7.78502
G1 X142.105 Y202.545 E7.8032
G1 X141.985 Y202.659 E7.80871
G1 X141.803 Y202.827 E7.81694
G1 X141.563 Y203.038 E7.82757
G1 X141.134 Y203.396 E7.84616
G1 X140.998 Y203.506 E7.85197
G1 X140.813 Y203.652 E7.85981
G1 X140.579 Y203.828 E7.86955
G1 X140.165 Y204.125 E7.8865
G1 X140.031 Y204.219 E7.89194
G1 X139.822 Y204.361 E7.90035
G1 X139.55 Y204.536 E7.9111
G1 X139.073 Y204.826 E7.92967
G1 X138.909 Y204.922 E7.93599
G1 X138.703 Y205.039 E7.94387
G1 X138.46 Y205.17 E7.95305
G1 X137.974 Y205.419 E7.97122
G1 X137.799 Y205.505 E7.9777
G1 X137.584 Y205.607 E7.98562
G1 X137.327 Y205.723 E7.99499
G1 X136.843 Y205.927 E8.01246
G1 X136.667 Y205.997 E8.01876
G1 X136.419 Y206.093 E8.02761
G1 X136.146 Y206.192 E8.03727
G1 X135.604 Y206.374 E8.05628
G1 X135.203 Y206.494 E8.0702
G1 X134.439 Y206.696 E8.09649
G1 X134.228 Y206.748 E8.10372
G1 X134.031 Y206.793 E8.11044
G1 X133.698 Y206.86 E8.12173
G1 X133.161 Y206.953 E8.13986
G1 X132.989 Y206.98 E8.14565
G1 X132.755 Y207.014 E8.15352
G1 X132.468 Y207.05 E8.16314
G1 X131.935 Y207.103 E8.18095
G1 X131.451 Y207.132 E8.19708
G1 X129.734 Y207.172 E8.2542
G1 X129.585 Y207.174 E8.25916
G1 X105.393 Y207.175 E9.06379
G1 X105.28 Y207.174 E9.06755
G1 X103.864 Y207.149 E9.11465
G1 X103.662 Y207.142 E9.12137
G1 X103.378 Y207.128 E9.13083
G1 X103.12 Y207.11 E9.13943
G1 X102.864 Y207.087 E9.14798
G1 X102.635 Y207.063 E9.15564
G1 X102.144 Y207.001 E9.1721
G1 X101.956 Y206.974 E9.17842
G1 X101.726 Y206.938 E9.18616
G1 X101.435 Y206.885 E9.196
G1 X100.882 Y206.772 E9.21477
G1 X100.691 Y206.73 E9.22127
G1 X100.471 Y206.678 E9.22879
G1 X100.2 Y206.608 E9.2381
G1 X99.656 Y206.454 E9.25691
G1 X99.492 Y206.405 E9.2626
G1 X99.271 Y206.336 E9.2703
G1 X98.995 Y206.243 E9.27999
G1 X98.488 Y206.059 E9.29793
G1 X98.299 Y205.987 E9.30465
G1 X98.096 Y205.906 E9.31192
G1 X97.818 Y205.788 E9.32197
G1 X97.286 Y205.546 E9.34141
G1 X97.142 Y205.478 E9.3467
G1 X96.938 Y205.379 E9.35425
G1 X96.659 Y205.235 E9.36469
G1 X96.162 Y204.963 E9.38353
G1 X95.993 Y204.867 E9.39
G1 X95.799 Y204.753 E9.39748
G1 X95.572 Y204.613 E9.40635
G1 X95.141 Y204.335 E9.42341
G1 X94.982 Y204.229 E9.42976
G1 X94.78 Y204.09 E9.43792
G1 X94.531 Y203.91 E9.44814
G1 X94.074 Y203.562 E9.46724
G1 X93.936 Y203.454 E9.47307
G1 X93.756 Y203.309 E9.48076
G1 X93.518 Y203.107 E9.49114
G1 X93.102 Y202.737 E9.50966
G1 X92.982 Y202.628 E9.51505
G1 X92.826 Y202.482 E9.52216
G1 X92.615 Y202.275 E9.53199
G1 X92.234 Y201.884 E9.55015
G1 X92.103 Y201.746 E9.55648
G1 X91.935 Y201.563 E9.56474
G1 X91.74 Y201.34 E9.57459
G1 X91.383 Y200.913 E9.5931
G1 X91.272 Y200.776 E9.59897
G1 X91.125 Y200.59 E9.60685
G1 X90.945 Y200.351 E9.6168
G1 X90.641 Y199.927 E9.63416
G1 X90.544 Y199.789 E9.63977
G1 X90.401 Y199.578 E9.64825
G1 X90.225 Y199.302 E9.65913
G1 X89.944 Y198.838 E9.67717
G1 X89.858 Y198.693 E9.68278
G1 X89.74 Y198.486 E9.69071
G1 X89.602 Y198.23 E9.70038
G1 X89.353 Y197.743 E9.71857
G1 X89.268 Y197.571 E9.72495
G1 X89.167 Y197.358 E9.73279
G1 X89.05 Y197.096 E9.74234
G1 X88.836 Y196.587 E9.7607
G1 X88.761 Y196.401 E9.76737
G1 X88.675 Y196.177 E9.77535
G1 X88.582 Y195.917 E9.78454
G1 X88.404 Y195.386 E9.80316
G1 X88.258 Y194.885 E9.82052
G1 X88.014 Y193.896 E9.8544
G1 X87.968 Y193.695 E9.86126
G1 X87.918 Y193.46 E9.86925
G1 X87.837 Y192.996 E9.88492
G1 X87.729 Y192.207 E9.9114
G1 X87.701 Y191.973 E9.91924
G1 X87.681 Y191.772 E9.92596
G1 X87.659 Y191.481 E9.93567
G1 X87.636 Y191.053 E9.94992
G1 X87.628 Y190.807 E9.95811
G1 X87.616 Y190.017 E9.98439
G1 X87.615 Y189.923 E9.98751
G1 X87.6 Y161.672 E10.92715
G1 X87.6 Y34.899 E15.14363
G1 X87.601 Y34.803 E15.14683
G1 X87.611 Y34.138 E15.16895
G1 X87.661 Y33.424 E15.19275
G1 X87.791 Y32.721 E15.21653
G1 X87.999 Y32.037 E15.24031
G0 F3600 X88.398 Y32.112
G1 F1800 X88.68 Y31.479 E15.26336
G1 X89.033 Y30.884 E15.28637
G1 X89.452 Y30.332 E15.30942
G1 X89.932 Y29.833 E15.33245
G1 X90.466 Y29.392 E15.35548
G1 X91.048 Y29.016 E15.37853
G1 X91.669 Y28.71 E15.40155
G1 X92.321 Y28.477 E15.42458
G1 X92.995 Y28.32 E15.4476
G1 X93.841 Y28.236 E15.47588
G1 X94.161 Y28.227 E15.48652
G1 X94.33 Y28.225 E15.49214
G1 X140.293 Y28.225 E17.02088
G1 X140.379 Y28.226 E17.02374
G1 X141.077 Y28.236 E17.04696
G1 X141.768 Y28.285 E17.07
G1 X142.448 Y28.415 E17.09303
G1 X143.109 Y28.621 E17.11605
G1 X143.742 Y28.903 E17.1391
G1 X144.338 Y29.255 E17.16212
G1 X144.889 Y29.674 E17.18515
G1 X145.389 Y30.154 E17.2082
G1 X145.83 Y30.688 E17.23123
G1 X146.207 Y31.269 E17.25427
G1 X146.514 Y31.89 E17.27731
G1 X146.747 Y32.542 E17.30034
G1 X146.904 Y33.216 E17.32336
G1 X146.989 Y34.066 E17.35177
G1 X146.998 Y34.386 E17.36242
G1 X147 Y34.555 E17.36804
G1 X147 Y189.35 E22.51654
G1 X146.999 Y189.433 E22.5193
G1 X146.982 Y190.662 E22.56018
G1 X146.977 Y190.838 E22.56604
G1 X146.957 Y191.301 E22.58145
G1 X146.936 Y191.608 E22.59169
G1 X146.898 Y192.009 E22.60508
G1 X146.877 Y192.199 E22.61144
G1 X146.828 Y192.585 E22.62438
G1 X146.804 Y192.757 E22.63016
G1 X146.768 Y192.987 E22.6379
G1 X146.719 Y193.256 E22.647
G1 X146.607 Y193.806 E22.66567
G1 X146.565 Y193.996 E22.67214
G1 X146.512 Y194.219 E22.67976
G1 X146.449 Y194.462 E22.68811
G1 X146.296 Y195.004 E22.70684
G1 X146.247 Y195.171 E22.71263
G1 X146.177 Y195.394 E22.7204
G1 X146.092 Y195.644 E22.72919
G1 X145.908 Y196.151 E22.74713
G1 X145.839 Y196.332 E22.75357
G1 X145.761 Y196.527 E22.76055
G1 X145.654 Y196.779 E22.76966
G1 X145.413 Y197.31 E22.78905
G1 X145.347 Y197.45 E22.7942
G1 X145.247 Y197.656 E22.80182
G1 X145.112 Y197.917 E22.81159
G1 X144.84 Y198.414 E22.83044
G1 X144.756 Y198.563 E22.83613
G1 X144.639 Y198.763 E22.84383
G1 X144.502 Y198.985 E22.85251
G1 X144.224 Y199.416 E22.86957
G1 X144.134 Y199.552 E22.87499
G1 X144.004 Y199.742 E22.88265
G1 X143.836 Y199.976 E22.89223
G1 X143.49 Y200.433 E22.91129
G1 X143.372 Y200.583 E22.91764
G1 X143.216 Y200.776 E22.9259
G1 X143.036 Y200.988 E22.93515
G1 X142.671 Y201.399 E22.95343
G1 X142.576 Y201.504 E22.95814
G1 X142.427 Y201.664 E22.96541
G1 X142.218 Y201.878 E22.97536
G1 X141.826 Y202.259 E22.99354
G1 X141.714 Y202.365 E22.99867
G1 X141.532 Y202.533 E23.00691
G1 X141.306 Y202.731 E23.0169
G1 X140.877 Y203.089 E23.03548
G1 X140.75 Y203.192 E23.04092
G1 X140.565 Y203.338 E23.04876
G1 X140.345 Y203.503 E23.05791
G1 X139.931 Y203.8 E23.07485
G1 X139.806 Y203.888 E23.07994
G1 X139.597 Y204.03 E23.08834
G1 X139.342 Y204.194 E23.09843
G1 X138.865 Y204.484 E23.11699
G1 X138.711 Y204.574 E23.12293
G1 X138.505 Y204.691 E23.13081
G1 X138.278 Y204.814 E23.13939
G1 X137.792 Y205.063 E23.15756
G1 X137.628 Y205.144 E23.16364
G1 X137.413 Y205.246 E23.17155
G1 X137.171 Y205.354 E23.18037
G1 X136.687 Y205.558 E23.19784
G1 X136.523 Y205.624 E23.20372
G1 X136.275 Y205.72 E23.21256
G1 X136.019 Y205.813 E23.22162
G1 X135.477 Y205.995 E23.24064
G1 X135.101 Y206.108 E23.2537
G1 X134.337 Y206.31 E23.27998
G1 X134.139 Y206.358 E23.28676
G1 X133.942 Y206.403 E23.29348
G1 X133.63 Y206.466 E23.30406
G1 X133.093 Y206.559 E23.32219
G1 X132.932 Y206.585 E23.32762
G1 X132.698 Y206.619 E23.33548
G1 X132.429 Y206.652 E23.34449
G1 X131.896 Y206.705 E23.36231
G1 X131.442 Y206.732 E23.37744
G1 X129.725 Y206.772 E23.43456
G1 X129.585 Y206.774 E23.43922
G1 X105.393 Y206.775 E24.24385
G1 X105.287 Y206.774 E24.24737
G1 X103.871 Y206.749 E24.29447
G1 X103.682 Y206.743 E24.30076
G1 X103.398 Y206.729 E24.31022
G1 X103.156 Y206.712 E24.31829
G1 X102.9 Y206.689 E24.32684
G1 X102.685 Y206.666 E24.33403
G1 X102.194 Y206.604 E24.35049
G1 X102.018 Y206.579 E24.3564
G1 X101.788 Y206.543 E24.36415
G1 X101.515 Y206.494 E24.37337
G1 X100.962 Y206.381 E24.39214
G1 X100.783 Y206.341 E24.39824
G1 X100.563 Y206.289 E24.40576
G1 X100.309 Y206.223 E24.41449
G1 X99.765 Y206.069 E24.4333
G1 X99.611 Y206.023 E24.43864
G1 X99.39 Y205.954 E24.44634
G1 X99.131 Y205.867 E24.45543
G1 X98.624 Y205.683 E24.47337
G1 X98.447 Y205.616 E24.47966
G1 X98.244 Y205.535 E24.48693
G1 X97.984 Y205.423 E24.49635
G1 X97.452 Y205.181 E24.51579
G1 X97.316 Y205.118 E24.52077
G1 X97.112 Y205.019 E24.52832
G1 X96.851 Y204.884 E24.53809
G1 X96.354 Y204.612 E24.55693
G1 X96.195 Y204.522 E24.56301
G1 X96.001 Y204.408 E24.57049
G1 X95.789 Y204.277 E24.57878
G1 X95.358 Y203.999 E24.59584
G1 X95.209 Y203.9 E24.60179
G1 X95.007 Y203.761 E24.60995
G1 X94.773 Y203.592 E24.61955
G1 X94.316 Y203.244 E24.63865
G1 X94.187 Y203.143 E24.6441
G1 X94.007 Y202.998 E24.65179
G1 X93.783 Y202.808 E24.66156
G1 X93.367 Y202.438 E24.68008
G1 X93.255 Y202.336 E24.68511
G1 X93.099 Y202.19 E24.69222
G1 X92.902 Y201.996 E24.70142
G1 X92.521 Y201.605 E24.71957
G1 X92.398 Y201.476 E24.7255
G1 X92.23 Y201.293 E24.73376
G1 X92.047 Y201.084 E24.743
G1 X91.69 Y200.657 E24.76152
G1 X91.586 Y200.528 E24.76703
G1 X91.439 Y200.342 E24.77491
G1 X91.27 Y200.118 E24.78425
G1 X90.966 Y199.694 E24.8016
G1 X90.875 Y199.564 E24.80688
G1 X90.732 Y199.353 E24.81535
G1 X90.567 Y199.095 E24.82554
G1 X90.286 Y198.631 E24.84358
G1 X90.205 Y198.494 E24.84888
G1 X90.087 Y198.287 E24.8568
G1 X89.958 Y198.047 E24.86586
G1 X89.709 Y197.56 E24.88405
G1 X89.63 Y197.4 E24.88999
G1 X89.529 Y197.187 E24.89783
G1 X89.419 Y196.941 E24.90679
G1 X89.205 Y196.432 E24.92516
G1 X89.135 Y196.258 E24.9314
G1 X89.049 Y196.034 E24.93938
G1 X88.961 Y195.79 E24.948
G1 X88.783 Y195.259 E24.96663
G1 X88.647 Y194.789 E24.9829
G1 X88.403 Y193.8 E25.01678
G1 X88.359 Y193.612 E25.02321
G1 X88.309 Y193.377 E25.0312
G1 X88.233 Y192.942 E25.04588
G1 X88.125 Y192.153 E25.07237
G1 X88.099 Y191.933 E25.07974
G1 X88.079 Y191.732 E25.08646
G1 X88.059 Y191.46 E25.09553
G1 X88.036 Y191.032 E25.10979
G1 X88.028 Y190.801 E25.11747
G1 X88.016 Y190.011 E25.14375
G1 X88.015 Y189.923 E25.14668
G1 X88 Y161.672 E26.08631
G1 X88 Y34.899 E30.3028
G1 X88.001 Y34.809 E30.30579
G1 X88.011 Y34.144 E30.32791
G1 X88.061 Y33.453 E30.35095
G1 X88.191 Y32.773 E30.37398
G1 X88.398 Y32.112 E30.39702
G0 F3600 X88.796 Y32.19
G1 F1800 X89.077 Y31.583 E30.41927
G1 X89.429 Y31.013 E30.44155
G1 X89.846 Y30.49 E30.4638
G1 X90.322 Y30.02 E30.48604
G1 X90.851 Y29.61 E30.5083
G1 X91.425 Y29.267 E30.53055
G1 X92.035 Y28.994 E30.55277
G1 X92.674 Y28.796 E30.57502
G1 X93.333 Y28.675 E30.59731
G1 X93.853 Y28.636 E30.61465
G1 X94.173 Y28.627 E30.6253
G1 X94.33 Y28.625 E30.63052
G1 X140.293 Y28.625 E32.15926
G1 X140.373 Y28.626 E32.16192
G1 X141.071 Y28.636 E32.18514
G1 X141.738 Y28.685 E32.20738
G1 X142.395 Y28.814 E32.22965
G1 X143.031 Y29.02 E32.25188
G1 X143.639 Y29.301 E32.27416
G1 X144.208 Y29.651 E32.29638
G1 X144.732 Y30.068 E32.31865
G1 X145.202 Y30.544 E32.3409
G1 X145.612 Y31.072 E32.36314
G1 X145.957 Y31.646 E32.38541
G1 X146.23 Y32.257 E32.40767
G1 X146.428 Y32.896 E32.42992
G1 X146.549 Y33.554 E32.45217
G1 X146.589 Y34.078 E32.46965
G1 X146.598 Y34.398 E32.4803
G1 X146.6 Y34.555 E32.48552
G1 X146.6 Y189.35 E37.63402
G1 X146.599 Y189.427 E37.63659
G1 X146.582 Y190.656 E37.67747
G1 X146.578 Y190.821 E37.68296
G1 X146.558 Y191.284 E37.69837
G1 X146.538 Y191.57 E37.7079
G1 X146.5 Y191.971 E37.7213
G1 X146.48 Y192.148 E37.72723
G1 X146.431 Y192.534 E37.74017
G1 X146.409 Y192.695 E37.74557
G1 X146.373 Y192.925 E37.75332
G1 X146.327 Y193.176 E37.7618
G1 X146.215 Y193.726 E37.78047
G1 X146.176 Y193.904 E37.78653
G1 X146.123 Y194.127 E37.79416
G1 X146.064 Y194.353 E37.80192
G1 X145.911 Y194.895 E37.82066
G1 X145.865 Y195.051 E37.82607
G1 X145.795 Y195.274 E37.83384
G1 X145.716 Y195.507 E37.84202
G1 X145.532 Y196.014 E37.85996
G1 X145.467 Y196.184 E37.86601
G1 X145.389 Y196.379 E37.873
G1 X145.289 Y196.613 E37.88146
G1 X145.048 Y197.144 E37.90086
G1 X144.987 Y197.276 E37.9057
G1 X144.887 Y197.482 E37.91331
G1 X144.761 Y197.724 E37.92239
G1 X144.489 Y198.221 E37.94123
G1 X144.411 Y198.361 E37.94656
G1 X144.294 Y198.561 E37.95427
G1 X144.166 Y198.768 E37.96236
G1 X143.888 Y199.199 E37.97942
G1 X143.804 Y199.326 E37.98448
G1 X143.674 Y199.516 E37.99214
G1 X143.517 Y199.734 E38.00108
G1 X143.171 Y200.191 E38.02014
G1 X143.061 Y200.331 E38.02606
G1 X142.905 Y200.524 E38.03432
G1 X142.737 Y200.723 E38.04298
G1 X142.372 Y201.134 E38.06126
G1 X142.283 Y201.231 E38.06564
G1 X142.134 Y201.391 E38.07291
G1 X141.939 Y201.591 E38.0822
G1 X141.547 Y201.972 E38.10038
G1 X141.442 Y202.071 E38.10518
G1 X141.26 Y202.239 E38.11342
G1 X141.05 Y202.424 E38.12273
G1 X140.621 Y202.782 E38.14131
G1 X140.502 Y202.878 E38.1464
G1 X140.317 Y203.024 E38.15424
G1 X140.112 Y203.178 E38.16277
G1 X139.698 Y203.475 E38.17971
G1 X139.581 Y203.557 E38.18447
G1 X139.372 Y203.699 E38.19287
G1 X139.134 Y203.852 E38.20228
G1 X138.657 Y204.142 E38.22085
G1 X138.514 Y204.226 E38.22636
G1 X138.308 Y204.343 E38.23424
G1 X138.095 Y204.458 E38.24229
G1 X137.609 Y204.707 E38.26046
G1 X137.456 Y204.782 E38.26612
G1 X137.241 Y204.884 E38.27404
G1 X137.016 Y204.985 E38.28224
G1 X136.532 Y205.189 E38.29971
G1 X136.379 Y205.251 E38.3052
G1 X136.131 Y205.347 E38.31405
G1 X135.892 Y205.434 E38.32251
G1 X135.35 Y205.616 E38.34152
G1 X134.998 Y205.721 E38.35374
G1 X134.234 Y205.923 E38.38002
G1 X134.05 Y205.968 E38.38632
G1 X133.853 Y206.013 E38.39304
