;FLAVOR:Marlin
;TIME:799
;Filament used: 1.11751m
;Layer height: 0.3
;Generated with Cura_SteamEngine 4.0.0
M140 S60
M105
M190 S60
M104 S200
M105
M109 S200
M82 ;absolute extrusion mode
; Ender 3 Custom Start G-code
G28 ; Home all axes
G92 E0 ; Reset Extruder
G1 Z2.0 F3000 ; Move Z Axis up little to prevent scratching of Heat Bed
G1 X0.1 Y20 Z0.3 F5000.0 ; Move to start position
G1 X0.1 Y200.0 Z0.3 F1500.0 E15 ; Draw the first line
G1 X0.4 Y200.0 Z0.3 F5000.0 ; Move to side a little
G1 X0.4 Y20 Z0.3 F1500.0 E30 ; Draw the second line
G92 E0 ; Reset Extruder
G1 Z2.0 F3000 ; Move Z Axis up little to prevent scratching of Heat Bed
; End of custom start GCode
G92 E0
G1 F2400 E-5
;LAYER_COUNT:39
;LAYER:0
M107
M204 S5000
M205 X30 Y30
G0 F3600 X101.534 Y101.816 Z0.2
M204 S500
M205 X20 Y20
;TYPE:SKIRT
G1 F2400 E0
G1 F1800 X102.925 Y100.516 E0.06332
G1 X103.519 Y100.024 E0.08898
G1 X105.108 Y98.863 E0.15443
G1 X105.766 Y98.442 E0.18041
G1 X107.449 Y97.503 E0.24451
G1 X108.025 Y97.218 E0.26589
G1 X109.215 Y96.703 E0.30902
G1 X109.771 Y96.493 E0.32878
G1 X111.327 Y95.985 E0.38322
G1 X111.867 Y95.834 E0.40187
G1 X113.053 Y95.559 E0.44237
G1 X113.617 Y95.455 E0.46144
G1 X115.198 Y95.235 E0.51453
G1 X115.905 Y95.176 E0.53813
G1 X117.874 Y95.122 E0.60364
G1 X118.654 Y95.149 E0.6296
G1 X120.561 Y95.33 E0.69331
G1 X121.19 Y95.421 E0.71445
G1 X122.462 Y95.671 E0.75757
G1 X123.037 Y95.812 E0.77726
G1 X124.591 Y96.27 E0.83114
G1 X125.253 Y96.505 E0.85451
G1 X127.033 Y97.25 E0.91869
G1 X127.623 Y97.534 E0.94047
G1 X128.741 Y98.143 E0.98281
G1 X129.276 Y98.469 E1.00365
G1 X130.857 Y99.543 E1.06722
G1 X131.422 Y99.974 E1.09085
G1 X132.669 Y101.041 E1.14544
G1 X133.184 Y101.534 E1.16915
G1 X134.484 Y102.925 E1.23248
G1 X134.977 Y103.522 E1.25823
G1 X136.139 Y105.114 E1.32378
G1 X136.559 Y105.768 E1.34963
G1 X137.496 Y107.447 E1.41358
G1 X137.78 Y108.022 E1.43491
G1 X138.296 Y109.213 E1.47808
G1 X138.507 Y109.77 E1.4979
G1 X139.015 Y111.325 E1.5523
G1 X139.166 Y111.866 E1.57099
G1 X139.441 Y113.052 E1.61148
G1 X139.545 Y113.616 E1.63055
G1 X139.765 Y115.198 E1.68368
G1 X139.824 Y115.905 E1.70727
G1 X139.878 Y117.874 E1.77279
G1 X139.852 Y118.65 E1.79861
G1 X139.673 Y120.547 E1.86199
G1 X139.581 Y121.18 E1.88326
G1 X139.329 Y122.462 E1.92672
G1 X139.189 Y123.035 E1.94634
G1 X138.734 Y124.581 E1.99994
G1 X138.499 Y125.243 E2.0233
G1 X137.759 Y127.013 E2.08711
G1 X137.473 Y127.607 E2.10904
G1 X136.832 Y128.783 E2.15358
G1 X136.502 Y129.324 E2.17466
G1 X135.452 Y130.865 E2.23668
G1 X135.026 Y131.422 E2.26001
G1 X133.959 Y132.669 E2.31459
G1 X133.466 Y133.184 E2.3383
G1 X132.075 Y134.484 E2.40163
G1 X131.481 Y134.976 E2.42728
G1 X129.892 Y136.137 E2.49274
G1 X129.235 Y136.558 E2.51869
G1 X127.556 Y137.495 E2.58264
G1 X126.98 Y137.779 E2.604
G1 X125.786 Y138.296 E2.64728
G1 X125.229 Y138.507 E2.66709
G1 X123.673 Y139.015 E2.72153
G1 X123.132 Y139.166 E2.74021
G1 X121.95 Y139.44 E2.78057
G1 X121.389 Y139.544 E2.79954
G1 X119.804 Y139.765 E2.85277
G1 X119.095 Y139.824 E2.87643
G1 X117.126 Y139.878 E2.94195
G1 X116.346 Y139.851 E2.9679
G1 X114.439 Y139.67 E3.03162
G1 X113.81 Y139.579 E3.05276
G1 X112.538 Y139.329 E3.09587
G1 X111.963 Y139.188 E3.11556
G1 X110.409 Y138.73 E3.16945
G1 X109.747 Y138.495 E3.19281
G1 X107.967 Y137.75 E3.25699
G1 X107.377 Y137.466 E3.27877
G1 X106.259 Y136.857 E3.32111
G1 X105.724 Y136.531 E3.34195
G1 X104.143 Y135.457 E3.40552
G1 X103.577 Y135.025 E3.4292
G1 X102.328 Y133.956 E3.48388
G1 X101.814 Y133.464 E3.50755
G1 X100.516 Y132.075 E3.57078
G1 X100.023 Y131.478 E3.59653
G1 X98.861 Y129.886 E3.66208
G1 X98.442 Y129.233 E3.68789
G1 X97.504 Y127.553 E3.75189
G1 X97.218 Y126.975 E3.77334
G1 X96.703 Y125.785 E3.81646
G1 X96.493 Y125.229 E3.83623
G1 X95.985 Y123.673 E3.89067
G1 X95.834 Y123.133 E3.90932
G1 X95.559 Y121.947 E3.94981
G1 X95.455 Y121.382 E3.96892
G1 X95.235 Y119.799 E4.02208
G1 X95.176 Y119.094 E4.04561
G1 X95.122 Y117.127 E4.11106
G1 X95.149 Y116.346 E4.13705
G1 X95.33 Y114.439 E4.20076
G1 X95.421 Y113.81 E4.2219
G1 X95.671 Y112.538 E4.26501
G1 X95.812 Y111.963 E4.28471
G1 X96.27 Y110.409 E4.33859
G1 X96.505 Y109.747 E4.36195
G1 X97.25 Y107.967 E4.42613
G1 X97.538 Y107.368 E4.44824
G1 X98.171 Y106.21 E4.49213
G1 X98.498 Y105.676 E4.51296
G1 X99.548 Y104.135 E4.57498
G1 X99.974 Y103.578 E4.5983
G1 X101.041 Y102.331 E4.65289
G1 X101.534 Y101.816 E4.6766
M204 S5000
M205 X30 Y30
G0 F3600 X101.807 Y102.108
M204 S500
M205 X20 Y20
G1 F1800 X103.198 Y100.808 E4.73993
G1 X103.755 Y100.347 E4.76397
G1 X105.344 Y99.186 E4.82943
G1 X105.961 Y98.791 E4.8538
G1 X107.644 Y97.852 E4.9179
G1 X108.184 Y97.586 E4.93792
G1 X109.374 Y97.071 E4.98104
G1 X109.895 Y96.873 E4.99958
G1 X111.451 Y96.365 E5.05402
G1 X111.958 Y96.224 E5.07153
G1 X113.144 Y95.949 E5.11202
G1 X113.672 Y95.851 E5.12988
G1 X115.253 Y95.631 E5.18297
G1 X115.916 Y95.576 E5.2051
G1 X117.885 Y95.522 E5.27061
G1 X118.616 Y95.547 E5.29494
G1 X120.523 Y95.728 E5.35865
G1 X121.113 Y95.814 E5.37848
G1 X122.385 Y96.064 E5.4216
G1 X122.924 Y96.196 E5.44006
G1 X124.478 Y96.654 E5.49394
G1 X125.099 Y96.874 E5.51585
G1 X126.879 Y97.619 E5.58003
G1 X127.432 Y97.885 E5.60044
G1 X128.55 Y98.494 E5.64279
G1 X129.052 Y98.8 E5.66234
G1 X130.633 Y99.874 E5.72591
G1 X131.162 Y100.278 E5.74805
G1 X132.409 Y101.345 E5.80263
G1 X132.892 Y101.807 E5.82486
G1 X134.192 Y103.198 E5.88819
G1 X134.654 Y103.758 E5.91233
G1 X135.816 Y105.35 E5.97789
G1 X136.209 Y105.963 E6.00211
G1 X137.146 Y107.642 E6.06606
G1 X137.413 Y108.181 E6.08607
G1 X137.929 Y109.372 E6.12924
G1 X138.126 Y109.894 E6.14779
G1 X138.634 Y111.449 E6.2022
G1 X138.776 Y111.957 E6.21975
G1 X139.051 Y113.143 E6.26024
G1 X139.149 Y113.672 E6.27813
G1 X139.369 Y115.254 E6.33126
G1 X139.424 Y115.916 E6.35335
G1 X139.478 Y117.885 E6.41887
G1 X139.453 Y118.613 E6.44309
G1 X139.274 Y120.51 E6.50647
G1 X139.188 Y121.103 E6.5264
G1 X138.936 Y122.385 E6.56985
G1 X138.805 Y122.922 E6.58824
G1 X138.35 Y124.468 E6.64184
G1 X138.13 Y125.088 E6.66372
G1 X137.39 Y126.858 E6.72753
G1 X137.122 Y127.416 E6.74812
G1 X136.481 Y128.592 E6.79266
G1 X136.171 Y129.099 E6.81243
G1 X135.121 Y130.64 E6.87445
G1 X134.722 Y131.162 E6.8963
G1 X133.655 Y132.409 E6.95089
G1 X133.193 Y132.892 E6.97312
G1 X131.802 Y134.192 E7.03644
G1 X131.245 Y134.653 E7.06049
G1 X129.656 Y135.814 E7.12595
G1 X129.04 Y136.208 E7.15027
G1 X127.361 Y137.145 E7.21422
G1 X126.821 Y137.412 E7.23425
G1 X125.627 Y137.929 E7.27753
G1 X125.105 Y138.127 E7.2961
G1 X123.549 Y138.635 E7.35054
G1 X123.042 Y138.776 E7.36804
G1 X121.86 Y139.05 E7.4084
G1 X121.334 Y139.148 E7.42619
G1 X119.749 Y139.369 E7.47942
G1 X119.084 Y139.424 E7.50161
G1 X117.115 Y139.478 E7.56713
G1 X116.384 Y139.453 E7.59146
G1 X114.477 Y139.272 E7.65517
G1 X113.887 Y139.186 E7.675
G1 X112.615 Y138.936 E7.71812
G1 X112.076 Y138.804 E7.73657
G1 X110.522 Y138.346 E7.79046
G1 X109.901 Y138.126 E7.81237
G1 X108.121 Y137.381 E7.87655
G1 X107.568 Y137.115 E7.89696
G1 X106.45 Y136.506 E7.9393
G1 X105.948 Y136.2 E7.95886
G1 X104.367 Y135.126 E8.02243
G1 X103.838 Y134.721 E8.04458
G1 X102.589 Y133.652 E8.09926
G1 X102.106 Y133.191 E8.12147
G1 X100.808 Y131.802 E8.1847
G1 X100.346 Y131.242 E8.20885
G1 X99.184 Y129.65 E8.2744
G1 X98.791 Y129.038 E8.29859
G1 X97.853 Y127.358 E8.36259
G1 X97.586 Y126.816 E8.38269
G1 X97.071 Y125.626 E8.42581
G1 X96.873 Y125.105 E8.44435
G1 X96.365 Y123.549 E8.49879
G1 X96.224 Y123.042 E8.51629
G1 X95.949 Y121.856 E8.55679
G1 X95.851 Y121.327 E8.57468
G1 X95.631 Y119.744 E8.62784
G1 X95.576 Y119.083 E8.6499
G1 X95.522 Y117.116 E8.71535
G1 X95.547 Y116.384 E8.73971
G1 X95.728 Y114.477 E8.80342
G1 X95.814 Y113.887 E8.82325
G1 X96.064 Y112.615 E8.86637
G1 X96.196 Y112.076 E8.88482
G1 X96.654 Y110.522 E8.93871
G1 X96.874 Y109.901 E8.96062
G1 X97.619 Y108.121 E9.0248
G1 X97.889 Y107.56 E9.04551
G1 X98.522 Y106.402 E9.0894
G1 X98.829 Y105.901 E9.10894
G1 X99.879 Y104.36 E9.17097
G1 X100.278 Y103.838 E9.19282
G1 X101.345 Y102.591 E9.2474
G1 X101.807 Y102.108 E9.26963
M204 S5000
M205 X30 Y30
G0 F3600 X102.08 Y102.401
M204 S500
M205 X20 Y20
G1 F1800 X103.471 Y101.101 E9.33296
G1 X103.991 Y100.67 E9.35542
G1 X105.58 Y99.509 E9.42088
G1 X106.156 Y99.141 E9.44361
G1 X107.839 Y98.202 E9.50771
G1 X108.343 Y97.953 E9.52641
G1 X109.533 Y97.438 E9.56954
G1 X110.019 Y97.254 E9.58682
G1 X111.575 Y96.746 E9.64126
G1 X112.048 Y96.614 E9.65759
G1 X113.234 Y96.339 E9.69809
G1 X113.727 Y96.247 E9.71477
G1 X115.308 Y96.027 E9.76786
G1 X115.926 Y95.976 E9.78848
G1 X117.895 Y95.922 E9.854
G1 X118.578 Y95.945 E9.87673
G1 X120.485 Y96.126 E9.94044
G1 X121.036 Y96.206 E9.95896
G1 X122.308 Y96.456 E10.00207
G1 X122.811 Y96.579 E10.0193
G1 X124.365 Y97.037 E10.07318
G1 X124.944 Y97.243 E10.09362
G1 X126.724 Y97.988 E10.1578
G1 X127.241 Y98.236 E10.17687
G1 X128.359 Y98.845 E10.21921
G1 X128.827 Y99.131 E10.23746
G1 X130.408 Y100.205 E10.30103
G1 X130.902 Y100.582 E10.3217
G1 X132.149 Y101.649 E10.37628
G1 X132.599 Y102.08 E10.39701
G1 X133.899 Y103.471 E10.46033
G1 X134.331 Y103.993 E10.48287
G1 X135.493 Y105.585 E10.54842
G1 X135.86 Y106.158 E10.57105
G1 X136.797 Y107.837 E10.635
G1 X137.045 Y108.34 E10.65366
G1 X137.561 Y109.531 E10.69683
G1 X137.746 Y110.018 E10.71416
G1 X138.254 Y111.573 E10.76856
G1 X138.386 Y112.047 E10.78493
G1 X138.661 Y113.233 E10.82542
G1 X138.753 Y113.727 E10.84214
G1 X138.973 Y115.309 E10.89526
G1 X139.024 Y115.926 E10.91585
G1 X139.078 Y117.895 E10.98136
G1 X139.055 Y118.575 E11.00399
G1 X138.876 Y120.472 E11.06737
G1 X138.796 Y121.026 E11.08599
G1 X138.544 Y122.308 E11.12944
G1 X138.421 Y122.809 E11.1466
G1 X137.966 Y124.355 E11.2002
G1 X137.761 Y124.934 E11.22063
G1 X137.021 Y126.704 E11.28444
G1 X136.771 Y127.224 E11.30363
G1 X136.13 Y128.4 E11.34818
G1 X135.841 Y128.873 E11.36661
G1 X134.791 Y130.414 E11.42863
G1 X134.418 Y130.902 E11.44906
G1 X133.351 Y132.149 E11.50365
G1 X132.92 Y132.599 E11.52437
G1 X131.529 Y133.899 E11.5877
G1 X131.009 Y134.33 E11.61016
G1 X129.42 Y135.491 E11.67562
G1 X128.845 Y135.859 E11.69832
G1 X127.166 Y136.796 E11.76227
G1 X126.662 Y137.045 E11.78097
G1 X125.468 Y137.562 E11.82425
G1 X124.981 Y137.746 E11.84156
G1 X123.425 Y138.254 E11.896
G1 X122.952 Y138.386 E11.91233
G1 X121.77 Y138.66 E11.95269
G1 X121.278 Y138.751 E11.96933
G1 X119.693 Y138.972 E12.02256
G1 X119.074 Y139.024 E12.04322
G1 X117.105 Y139.078 E12.10873
G1 X116.422 Y139.055 E12.13146
G1 X114.515 Y138.874 E12.19518
G1 X113.964 Y138.794 E12.21369
G1 X112.692 Y138.544 E12.25681
G1 X112.189 Y138.421 E12.27403
G1 X110.635 Y137.963 E12.32792
G1 X110.056 Y137.757 E12.34836
G1 X108.276 Y137.012 E12.41254
G1 X107.759 Y136.764 E12.43161
G1 X106.641 Y136.155 E12.47395
G1 X106.173 Y135.869 E12.49219
G1 X104.592 Y134.795 E12.55576
G1 X104.098 Y134.417 E12.57645
G1 X102.849 Y133.348 E12.63113
G1 X102.398 Y132.918 E12.65186
G1 X101.1 Y131.529 E12.71509
G1 X100.669 Y131.007 E12.7376
G1 X99.507 Y129.415 E12.80316
G1 X99.14 Y128.843 E12.82576
G1 X98.202 Y127.163 E12.88976
G1 X97.953 Y126.657 E12.90852
G1 X97.438 Y125.467 E12.95164
G1 X97.254 Y124.981 E12.96893
G1 X96.746 Y123.425 E13.02337
G1 X96.614 Y122.952 E13.0397
G1 X96.339 Y121.766 E13.08019
G1 X96.247 Y121.272 E13.09691
G1 X96.027 Y119.689 E13.15006
G1 X95.976 Y119.072 E13.17066
G1 X95.922 Y117.105 E13.2361
G1 X95.945 Y116.422 E13.25883
G1 X96.126 Y114.515 E13.32255
G1 X96.206 Y113.964 E13.34106
G1 X96.456 Y112.692 E13.38418
G1 X96.579 Y112.189 E13.4014
G1 X97.037 Y110.635 E13.45529
G1 X97.243 Y110.056 E13.47573
G1 X97.988 Y108.276 E13.53991
G1 X98.24 Y107.752 E13.55925
G1 X98.873 Y106.594 E13.60314
G1 X99.159 Y106.127 E13.62135
G1 X100.209 Y104.586 E13.68337
G1 X100.582 Y104.098 E13.7038
G1 X101.649 Y102.851 E13.75839
G1 X102.08 Y102.401 E13.77911
M204 S5000
M205 X30 Y30
G0 F3600 X102.353 Y102.693
M204 S500
M205 X20 Y20
G1 F1800 X103.744 Y101.393 E13.84244
G1 X104.227 Y100.993 E13.8633
G1 X105.816 Y99.832 E13.92875
G1 X106.35 Y99.49 E13.94984
G1 X108.033 Y98.551 E14.01394
G1 X108.502 Y98.32 E14.03133
G1 X109.692 Y97.805 E14.07446
G1 X110.143 Y97.634 E14.0905
G1 X111.699 Y97.126 E14.14494
G1 X112.138 Y97.003 E14.1601
G1 X113.324 Y96.728 E14.2006
G1 X113.782 Y96.644 E14.21608
G1 X115.363 Y96.424 E14.26918
G1 X115.937 Y96.376 E14.28833
G1 X117.906 Y96.322 E14.35385
G1 X118.54 Y96.343 E14.37495
G1 X120.447 Y96.524 E14.43866
G1 X120.959 Y96.599 E14.45587
G1 X122.231 Y96.849 E14.49899
G1 X122.698 Y96.963 E14.51497
G1 X124.252 Y97.421 E14.56886
G1 X124.79 Y97.612 E14.58785
G1 X126.57 Y98.357 E14.65203
G1 X127.049 Y98.588 E14.66971
G1 X128.167 Y99.197 E14.71206
G1 X128.602 Y99.462 E14.729
G1 X130.183 Y100.536 E14.79257
G1 X130.642 Y100.886 E14.81177
G1 X131.889 Y101.953 E14.86635
G1 X132.307 Y102.353 E14.8856
G1 X133.607 Y103.744 E14.94892
G1 X134.008 Y104.229 E14.96985
G1 X135.17 Y105.821 E15.03541
G1 X135.511 Y106.353 E15.05642
G1 X136.448 Y108.032 E15.12037
G1 X136.678 Y108.499 E15.13769
G1 X137.194 Y109.69 E15.18086
G1 X137.366 Y110.142 E15.19694
G1 X137.874 Y111.697 E15.25135
G1 X137.997 Y112.137 E15.26655
G1 X138.272 Y113.323 E15.30704
G1 X138.356 Y113.782 E15.32256
G1 X138.576 Y115.364 E15.37569
G1 X138.624 Y115.937 E15.39481
G1 X138.678 Y117.906 E15.46032
G1 X138.657 Y118.537 E15.48132
G1 X138.478 Y120.434 E15.5447
G1 X138.403 Y120.949 E15.56201
G1 X138.151 Y122.231 E15.60546
G1 X138.037 Y122.696 E15.62139
G1 X137.582 Y124.242 E15.67499
G1 X137.392 Y124.78 E15.69397
G1 X136.652 Y126.55 E15.75777
G1 X136.42 Y127.033 E15.7756
G1 X135.779 Y128.209 E15.82014
G1 X135.51 Y128.648 E15.83727
G1 X134.46 Y130.189 E15.89929
G1 X134.114 Y130.642 E15.91825
G1 X133.047 Y131.889 E15.97283
G1 X132.647 Y132.307 E15.99208
G1 X131.256 Y133.607 E16.0554
G1 X130.773 Y134.007 E16.07626
G1 X129.184 Y135.168 E16.14171
G1 X128.65 Y135.51 E16.1628
G1 X126.971 Y136.447 E16.22675
G1 X126.503 Y136.678 E16.24411
G1 X125.309 Y137.195 E16.28739
G1 X124.857 Y137.366 E16.30346
G1 X123.301 Y137.874 E16.3579
G1 X122.861 Y137.997 E16.3731
G1 X121.679 Y138.271 E16.41346
G1 X121.223 Y138.355 E16.42888
G1 X119.638 Y138.576 E16.4821
G1 X119.063 Y138.624 E16.5013
G1 X117.094 Y138.678 E16.56681
G1 X116.46 Y138.657 E16.58791
G1 X114.553 Y138.476 E16.65162
G1 X114.041 Y138.401 E16.66883
G1 X112.769 Y138.151 E16.71195
G1 X112.302 Y138.037 E16.72794
G1 X110.748 Y137.579 E16.78182
G1 X110.21 Y137.388 E16.80081
G1 X108.43 Y136.643 E16.86499
G1 X107.951 Y136.412 E16.88267
G1 X106.833 Y135.803 E16.92502
G1 X106.398 Y135.538 E16.94196
G1 X104.817 Y134.464 E17.00553
G1 X104.358 Y134.114 E17.02473
G1 X103.109 Y133.045 E17.07941
G1 X102.691 Y132.644 E17.09867
G1 X101.393 Y131.255 E17.1619
G1 X100.992 Y130.771 E17.18281
G1 X99.83 Y129.179 E17.24836
G1 X99.49 Y128.648 E17.26934
G1 X98.552 Y126.968 E17.33333
G1 X98.32 Y126.498 E17.35076
G1 X97.805 Y125.308 E17.39389
G1 X97.634 Y124.857 E17.40993
G1 X97.126 Y123.301 E17.46438
G1 X97.003 Y122.862 E17.47954
G1 X96.728 Y121.676 E17.52003
G1 X96.644 Y121.217 E17.53555
G1 X96.424 Y119.634 E17.58871
G1 X96.376 Y119.061 E17.60783
G1 X96.322 Y117.094 E17.67328
G1 X96.343 Y116.46 E17.69438
G1 X96.524 Y114.553 E17.75809
G1 X96.599 Y114.041 E17.7753
G1 X96.849 Y112.769 E17.81842
G1 X96.963 Y112.302 E17.83441
G1 X97.421 Y110.748 E17.88829
G1 X97.612 Y110.21 E17.90728
G1 X98.357 Y108.43 E17.97146
G1 X98.591 Y107.944 E17.9894
G1 X99.224 Y106.786 E18.03329
G1 X99.49 Y106.352 E18.05022
G1 X100.54 Y104.811 E18.11224
G1 X100.886 Y104.358 E18.1312
G1 X101.953 Y103.111 E18.18579
G1 X102.353 Y102.693 E18.20503
M204 S5000
M205 X30 Y30
G1 F2400 E13.20503
;MESH:Gear v3.stl
G0 F3600 X110.625 Y102.322
G0 X111.186 Y103.477
G0 X118.437 Y102.228
G0 X118.443 Y102.129
M204 S500
M205 X20 Y20
;TYPE:WALL-INNER
G1 F2400 E18.20503
G1 F1800 X119.352 Y102.212 E18.23539
G1 X120.267 Y102.351 E18.26617
G1 X121.192 Y102.55 E18.29764
G1 X122.08 Y102.797 E18.3283
G1 X122.95 Y103.097 E18.35891
G1 X123.822 Y103.459 E18.39031
G1 X124.673 Y103.873 E18.42179
G1 X125.451 Y104.311 E18.45148
G1 X126.255 Y104.831 E18.48333
G1 X126.998 Y105.378 E18.51402
G1 X127.717 Y105.978 E18.54516
G1 X128.389 Y106.611 E18.57587
G1 X129.022 Y107.283 E18.60657
G1 X129.625 Y108.006 E18.63789
