;FLAVOR:Marlin
;TIME:10418
;Filament used: 8.50714m
;Layer height: 0.28
;MINX:43
;MINY:75.5
;MINZ:0.28
;MAXX:177
;MAXY:144.5
;MAXZ:19.88
;Generated with Cura_SteamEngine 4.3.0
M140 S50
M105
M190 S50
M104 S200
M105
M109 S200
M82 ;absolute extrusion mode
M201 X500.00 Y500.00 Z100.00 E5000.00 ;Setup machine max acceleration
M203 X500.00 Y500.00 Z10.00 E50.00 ;Setup machine max feedrate
M204 P500.00 R1000.00 T500.00 ;Setup Print/Retract/Travel acceleration
M205 X8.00 Y8.00 Z0.40 E5.00 ;Setup Jerk
M220 S100 ;Reset Feedrate
M221 S100 ;Reset Flowrate

G28 ;Home

G92 E0 ;Reset Extruder
G1 Z2.0 F3000 ;Move Z Axis up
G1 X10.1 Y20 Z0.28 F5000.0 ;Move to start position
G1 X10.1 Y200.0 Z0.28 F1500.0 E15 ;Draw the first line
G1 X10.4 Y200.0 Z0.28 F5000.0 ;Move to side a little
G1 X10.4 Y20 Z0.28 F1500.0 E30 ;Draw the second line
G92 E0 ;Reset Extruder
G1 Z2.0 F3000 ;Move Z Axis up

G92 E0
G92 E0
G1 F2700 E-5
;LAYER_COUNT:71
;LAYER:0
M107
G0 F6000 X48.412 Y77.039 Z0.28
;TYPE:SKIRT
G1 F2700 E0
G1 F1200 X49.239 Y76.597 E0.04366
G1 X50.101 Y76.227 E0.08734
G1 X50.991 Y75.931 E0.13102
G1 X51.903 Y75.713 E0.17468
G1 X52.83 Y75.572 E0.21834
G1 X53.701 Y75.513 E0.25899
G1 X54.022 Y75.504 E0.27394
G1 X54.33 Y75.5 E0.28829
G1 X165.293 Y75.5 E5.45519
G1 X165.451 Y75.501 E5.46255
G1 X166.149 Y75.511 E5.49505
G1 X167.085 Y75.565 E5.53871
G1 X168.013 Y75.697 E5.58236
G1 X168.927 Y75.909 E5.62605
G1 X169.819 Y76.198 E5.66971
G1 X170.684 Y76.561 E5.71339
G1 X171.514 Y76.997 E5.75704
G1 X172.305 Y77.502 E5.80074
G1 X173.049 Y78.073 E5.84441
G1 X173.742 Y78.705 E5.88809
G1 X174.379 Y79.393 E5.93174
G1 X174.954 Y80.134 E5.97542
G1 X175.465 Y80.92 E6.01907
G1 X175.907 Y81.748 E6.06278
G1 X176.276 Y82.61 E6.10644
G1 X176.571 Y83.5 E6.1501
G1 X176.789 Y84.412 E6.19376
G1 X176.929 Y85.34 E6.23746
G1 X176.987 Y86.201 E6.27764
G1 X176.996 Y86.521 E6.29255
G1 X177 Y86.83 E6.30694
G1 X177 Y132.764 E8.44582
G1 X176.999 Y132.9 E8.45215
G1 X176.99 Y133.627 E8.48601
G1 X176.939 Y134.564 E8.5297
G1 X176.807 Y135.492 E8.57335
G1 X176.598 Y136.406 E8.61701
G1 X176.311 Y137.299 E8.66068
G1 X175.949 Y138.165 E8.70439
G1 X175.515 Y138.996 E8.74804
G1 X175.011 Y139.787 E8.79172
G1 X174.442 Y140.532 E8.83537
G1 X173.811 Y141.227 E8.87908
G1 X173.124 Y141.865 E8.92273
G1 X172.385 Y142.442 E8.96639
G1 X171.599 Y142.954 E9.01007
G1 X170.773 Y143.397 E9.05372
G1 X169.911 Y143.769 E9.09743
G1 X169.022 Y144.065 E9.14106
G1 X168.11 Y144.285 E9.18475
G1 X167.183 Y144.426 E9.22841
G1 X166.299 Y144.487 E9.26967
G1 X165.978 Y144.496 E9.28462
G1 X165.67 Y144.5 E9.29897
G1 X54.707 Y144.5 E14.46587
G1 X54.565 Y144.499 E14.47248
G1 X53.867 Y144.49 E14.50498
G1 X52.931 Y144.438 E14.54864
G1 X52.002 Y144.306 E14.59233
G1 X51.088 Y144.096 E14.636
G1 X50.195 Y143.809 E14.67967
G1 X49.33 Y143.446 E14.72335
G1 X48.499 Y143.012 E14.76701
G1 X47.708 Y142.508 E14.81068
G1 X46.963 Y141.938 E14.85436
G1 X46.269 Y141.307 E14.89804
G1 X45.632 Y140.62 E14.94166
G1 X45.055 Y139.88 E14.98536
G1 X44.543 Y139.094 E15.02904
G1 X44.1 Y138.267 E15.07272
G1 X43.729 Y137.406 E15.11638
G1 X43.433 Y136.516 E15.16005
G1 X43.214 Y135.604 E15.20372
G1 X43.073 Y134.677 E15.24739
G1 X43.013 Y133.788 E15.28888
G1 X43.004 Y133.455 E15.30439
G1 X43 Y133.158 E15.31822
G1 X43 Y87.174 E17.45943
G1 X43.001 Y87.025 E17.46636
G1 X43.01 Y86.36 E17.49733
G1 X43.063 Y85.424 E17.54099
G1 X43.195 Y84.495 E17.58468
G1 X43.406 Y83.581 E17.62836
G1 X43.694 Y82.689 E17.672
G1 X44.057 Y81.824 E17.71569
G1 X44.492 Y80.993 E17.75936
G1 X44.996 Y80.203 E17.803
G1 X45.566 Y79.458 E17.84667
G1 X46.198 Y78.764 E17.89038
G1 X46.886 Y78.127 E17.93404
G1 X47.626 Y77.551 E17.97771
G1 X48.412 Y77.039 E18.02139
G0 F6000 X48.791 Y77.282
G1 F1200 X49.611 Y76.864 E18.06424
G1 X50.465 Y76.519 E18.10713
G1 X51.345 Y76.249 E18.14999
G1 X52.245 Y76.057 E18.19284
G1 X53.159 Y75.943 E18.23573
G1 X53.712 Y75.913 E18.26152
G1 X54.033 Y75.904 E18.27647
G1 X54.33 Y75.9 E18.29031
G1 X165.293 Y75.9 E23.45721
G1 X165.445 Y75.901 E23.46429
G1 X166.143 Y75.911 E23.49679
G1 X167.062 Y75.964 E23.53965
G1 X167.973 Y76.097 E23.58252
G1 X168.869 Y76.308 E23.62539
G1 X169.743 Y76.596 E23.66824
G1 X170.59 Y76.959 E23.71115
G1 X171.401 Y77.394 E23.754
G1 X172.171 Y77.898 E23.79685
G1 X172.895 Y78.467 E23.83973
G1 X173.567 Y79.097 E23.88262
G1 X174.182 Y79.782 E23.92549
G1 X174.735 Y80.518 E23.96835
G1 X175.222 Y81.299 E24.01121
G1 X175.639 Y82.12 E24.05409
G1 X175.984 Y82.974 E24.09698
G1 X176.253 Y83.854 E24.13982
G1 X176.445 Y84.755 E24.18272
G1 X176.558 Y85.668 E24.22556
G1 X176.587 Y86.212 E24.25093
G1 X176.596 Y86.532 E24.26583
G1 X176.6 Y86.83 E24.27971
G1 X176.6 Y132.764 E26.41859
G1 X176.599 Y132.895 E26.42469
G1 X176.59 Y133.622 E26.45854
G1 X176.539 Y134.541 E26.5014
G1 X176.408 Y135.453 E26.5443
G1 X176.198 Y136.349 E26.58716
G1 X175.912 Y137.224 E26.63002
G1 X175.551 Y138.071 E26.67289
G1 X175.117 Y138.883 E26.71577
G1 X174.615 Y139.655 E26.75864
G1 X174.047 Y140.38 E26.80153
G1 X173.419 Y141.053 E26.84439
G1 X172.735 Y141.669 E26.88725
G1 X172 Y142.223 E26.93011
G1 X171.22 Y142.712 E26.97298
G1 X170.4 Y143.131 E27.01586
G1 X169.547 Y143.477 E27.05872
G1 X168.667 Y143.748 E27.1016
G1 X167.767 Y143.941 E27.14446
G1 X166.853 Y144.056 E27.18735
G1 X166.288 Y144.087 E27.2137
G1 X165.967 Y144.096 E27.22865
G1 X165.67 Y144.1 E27.24248
G1 X54.707 Y144.1 E32.40939
G1 X54.57 Y144.099 E32.41577
G1 X53.872 Y144.09 E32.44827
G1 X52.953 Y144.038 E32.49113
G1 X52.042 Y143.907 E32.53399
G1 X51.146 Y143.697 E32.57684
G1 X50.271 Y143.41 E32.61972
G1 X49.424 Y143.048 E32.66261
G1 X48.612 Y142.614 E32.70548
G1 X47.841 Y142.112 E32.74832
G1 X47.116 Y141.544 E32.79121
G1 X46.443 Y140.915 E32.8341
G1 X45.828 Y140.231 E32.87693
G1 X45.274 Y139.496 E32.91979
G1 X44.786 Y138.715 E32.96267
G1 X44.367 Y137.895 E33.00555
G1 X44.021 Y137.042 E33.04841
G1 X43.751 Y136.162 E33.09128
G1 X43.558 Y135.261 E33.13418
G1 X43.444 Y134.348 E33.17703
G1 X43.413 Y133.777 E33.20365
G1 X43.404 Y133.444 E33.21916
G1 X43.4 Y133.158 E33.23248
G1 X43.4 Y87.174 E35.37369
G1 X43.401 Y87.031 E35.38035
G1 X43.41 Y86.366 E35.41132
G1 X43.462 Y85.446 E35.45422
G1 X43.594 Y84.535 E35.49709
G1 X43.805 Y83.639 E35.53995
G1 X44.092 Y82.764 E35.58283
G1 X44.455 Y81.918 E35.6257
G1 X44.889 Y81.106 E35.66857
G1 X45.392 Y80.335 E35.71143
G1 X45.961 Y79.611 E35.75431
G1 X46.589 Y78.939 E35.79714
G1 X47.274 Y78.323 E35.84004
G1 X48.01 Y77.77 E35.8829
G1 X48.791 Y77.282 E35.92579
G0 F6000 X49.169 Y77.531
G1 F1200 X49.982 Y77.138 E35.96783
G1 X50.827 Y76.818 E36.00991
G1 X51.696 Y76.575 E36.05192
G1 X52.584 Y76.409 E36.09399
G1 X53.723 Y76.313 E36.14721
G1 X54.044 Y76.304 E36.16217
G1 X54.33 Y76.3 E36.17549
G1 X165.293 Y76.3 E41.34239
G1 X165.439 Y76.301 E41.34919
G1 X166.137 Y76.311 E41.38169
G1 X167.039 Y76.364 E41.42376
G1 X167.932 Y76.496 E41.4658
G1 X168.81 Y76.707 E41.50785
G1 X169.666 Y76.995 E41.5499
G1 X170.493 Y77.357 E41.59194
G1 X171.285 Y77.792 E41.63401
G1 X172.036 Y78.294 E41.67607
G1 X172.739 Y78.861 E41.71813
G1 X173.389 Y79.488 E41.76018
G1 X173.981 Y80.17 E41.80223
G1 X174.511 Y80.901 E41.84428
G1 X174.973 Y81.677 E41.88633
G1 X175.366 Y82.49 E41.92838
G1 X175.684 Y83.335 E41.97042
G1 X175.927 Y84.205 E42.01248
G1 X176.092 Y85.093 E42.05454
G1 X176.187 Y86.223 E42.10734
G1 X176.196 Y86.543 E42.12225
G1 X176.2 Y86.83 E42.13561
G1 X176.2 Y132.764 E44.27449
G1 X176.199 Y132.89 E44.28036
G1 X176.19 Y133.617 E44.31421
G1 X176.139 Y134.519 E44.35628
G1 X176.008 Y135.413 E44.39835
G1 X175.799 Y136.291 E44.44038
G1 X175.513 Y137.148 E44.48245
G1 X175.152 Y137.976 E44.52451
G1 X174.72 Y138.768 E44.56652
G1 X174.219 Y139.52 E44.60859
G1 X173.653 Y140.224 E44.65066
G1 X173.028 Y140.875 E44.69268
G1 X172.347 Y141.469 E44.73476
G1 X171.616 Y142 E44.77683
G1 X170.842 Y142.464 E44.81885
G1 X170.029 Y142.858 E44.86092
G1 X169.185 Y143.178 E44.90295
G1 X168.315 Y143.423 E44.94503
G1 X167.428 Y143.589 E44.98705
G1 X166.277 Y143.687 E45.04084
G1 X165.956 Y143.696 E45.05579
G1 X165.67 Y143.7 E45.06911
G1 X54.707 Y143.7 E50.23601
G1 X54.575 Y143.699 E50.24216
G1 X53.877 Y143.69 E50.27467
G1 X52.976 Y143.639 E50.31669
G1 X52.082 Y143.507 E50.35877
G1 X51.204 Y143.298 E50.40079
G1 X50.347 Y143.011 E50.44288
G1 X49.52 Y142.65 E50.48489
G1 X48.727 Y142.217 E50.52697
G1 X47.976 Y141.716 E50.569
G1 X47.272 Y141.15 E50.61106
G1 X46.621 Y140.524 E50.65312
G1 X46.028 Y139.843 E50.69517
G1 X45.498 Y139.112 E50.73721
G1 X45.034 Y138.337 E50.77927
G1 X44.64 Y137.524 E50.82134
G1 X44.32 Y136.68 E50.86337
G1 X44.076 Y135.81 E50.90544
G1 X43.91 Y134.922 E50.94751
G1 X43.813 Y133.767 E51.00148
G1 X43.804 Y133.434 E51.01699
G1 X43.8 Y133.158 E51.02984
G1 X43.8 Y87.174 E53.17105
G1 X43.801 Y87.036 E53.17748
G1 X43.81 Y86.371 E53.20845
G1 X43.862 Y85.469 E53.25052
G1 X43.994 Y84.576 E53.29255
G1 X44.204 Y83.698 E53.33459
G1 X44.491 Y82.841 E53.37667
G1 X44.853 Y82.014 E53.41871
G1 X45.286 Y81.222 E53.46074
G1 X45.788 Y80.471 E53.5028
G1 X46.355 Y79.767 E53.54489
G1 X46.981 Y79.117 E53.58691
G1 X47.662 Y78.524 E53.62896
G1 X48.394 Y77.994 E53.67104
G1 X49.169 Y77.531 E53.71308
G1 F2700 E48.71308
;MESH:75100e3a-e4bb-4b9e-917e-01bae6f2fbf9.stl
G0 F6000 X58.448 Y85.871
G0 X81.094 Y106.225
G0 X90.673 Y114.835
G0 X90.673 Y116.27
G0 X92.6 Y116.1
;TYPE:WALL-INNER
G1 F2700 E53.71308
G1 F1200 X92.6 Y103.9 E54.28116
G1 X79.9 Y103.9 E54.87253
G1 X79.9 Y116.1 E55.44061
G1 X92.6 Y116.1 E56.03197
G0 F6000 X92.2 Y115.7
;TYPE:WALL-OUTER
G1 F1200 X92.2 Y104.3 E56.56281
G1 X80.3 Y104.3 E57.11692
G1 X80.3 Y115.7 E57.64775
G1 X92.2 Y115.7 E58.20186
G1 F2700 E53.20186
G0 F6000 X92.5 Y115.7
G0 X92.79 Y113.1
G0 X91.335 Y113.1
G0 X91.413 Y113.096
G0 X99.085 Y112.816
G0 X99.153 Y114.847
G0 X109.347 Y114.847
G0 X109.413 Y112.439
G0 X125.584 Y111.849
G0 X125.653 Y111.847
G0 X124.21 Y113.1
G0 X124.4 Y113.1
;TYPE:WALL-INNER
G1 F2700 E58.20186
G1 F1200 X131.6 Y113.1 E58.53713
G1 X131.6 Y106.9 E58.82582
G1 X124.4 Y106.9 E59.16109
G1 X124.4 Y113.1 E59.44978
G0 F6000 X124.8 Y112.7
;TYPE:WALL-OUTER
G1 F1200 X131.2 Y112.7 E59.7478
G1 X131.2 Y107.3 E59.99924
G1 X124.8 Y107.3 E60.29725
G1 X124.8 Y112.7 E60.5487
G1 F2700 E55.5487
G0 F6000 X124.5 Y112.7
G0 X124.23 Y111.173
G0 X125.665 Y111.173
G0 X125.584 Y111.183
G0 X109.413 Y113.285
G0 X109.335 Y113.296
G0 X110.79 Y113.296
G0 X110.6 Y116.1
;TYPE:WALL-INNER
G1 F2700 E60.5487
G1 F1200 X110.6 Y103.9 E61.11678
G1 X97.9 Y103.9 E61.70815
G1 X97.9 Y116.1 E62.27623
G1 X110.6 Y116.1 E62.8676
G0 F6000 X110.2 Y115.7
;TYPE:WALL-OUTER
G1 F1200 X110.2 Y104.3 E63.39843
G1 X98.3 Y104.3 E63.95254
G1 X98.3 Y115.7 E64.48337
G1 X110.2 Y115.7 E65.03749
G1 F2700 E60.03749
G0 F6000 X110.5 Y115.7
G0 X110.436 Y115.905
G0 X108.673 Y116.27
G0 X108.673 Y114.835
G0 X108.629 Y114.91
G0 X97.745 Y134.089
G0 X97.704 Y134.165
G0 X97.704 Y132.69
G0 X97.648 Y132.689
G0 X54.6 Y132.9
;TYPE:WALL-INNER
G1 F2700 E65.03749
G1 F1200 X54.6 Y87.1 E67.17013
G1 X165.4 Y87.1 E72.32944
G1 X165.4 Y132.9 E74.46208
G1 X54.6 Y132.9 E79.62139
G0 F6000 X54.2 Y133.3
;TYPE:WALL-OUTER
G1 F1200 X54.2 Y86.7 E81.79128
G1 X165.8 Y86.7 E86.98785
G1 X165.8 Y133.3 E89.15774
G1 X54.2 Y133.3 E94.3543
G0 F6000 X54.47 Y133.03
G0 X54.71 Y132.51
G0 X54.99 Y132.51
;TYPE:SKIN
G1 F1200 X54.99 Y87.49 E96.45062
G1 X165.01 Y87.49 E101.57361
G1 X165.01 Y132.51 E103.66993
G1 X54.99 Y132.51 E108.79292
G1 F2700 E103.79292
G0 F6000 X54.71 Y132.51
G0 X54.804 Y132.51
G0 X79.79 Y132.69
G0 X79.79 Y134.165
G0 X79.794 Y134.083
G0 X81.147 Y114.915
G0 X81.153 Y114.847
G0 X79.79 Y116.29
G0 X79.51 Y116.49
G1 F2700 E108.79292
G1 F1200 X92.99 Y116.49 E109.42061
G1 X92.99 Y103.51 E110.02501
G1 X79.51 Y103.51 E110.6527
G1 X79.51 Y116.49 E111.2571
G1 F2700 E106.2571
G0 F6000 X79.79 Y116.24
G0 X92.79 Y116.24
G0 X91.347 Y114.847
G0 X91.415 Y114.847
G0 X99.085 Y114.847
G0 X99.153 Y114.847
G0 X97.71 Y116.24
G0 X97.79 Y116.24
G0 X97.51 Y116.49
G1 F2700 E111.2571
G1 F1200 X110.99 Y116.49 E111.88479
G1 X110.99 Y103.51 E112.48919
G1 X97.51 Y103.51 E113.11688
G1 X97.51 Y116.49 E113.72128
G1 F2700 E108.72128
G0 F6000 X97.79 Y116.24
G0 X110.428 Y115.928
G0 X110.79 Y113.24
G0 X109.335 Y113.24
G0 X109.413 Y113.232
G0 X125.585 Y111.852
G0 X125.653 Y111.847
G0 X124.21 Y113.24
G0 X124.29 Y113.24
G0 X124.01 Y113.49
G1 F2700 E113.72128
G1 F1200 X131.99 Y113.49 E114.09286
G1 X131.99 Y106.51 E114.41788
G1 X124.01 Y106.51 E114.78946
G1 X124.01 Y113.49 E115.11448
G1 F2700 E110.11448
G0 F6000 X124.29 Y113.24
G0 X124.23 Y109.036
G0 X125.665 Y109.036
G0 X125.904 Y108.129
G0 X131.774 Y85.913
G0 X131.796 Y85.835
G0 X131.796 Y87.31
G0 X135.111 Y87.305
G0 X165.218 Y87.282
G0 X165.29 Y87.916
G0 X164.849 Y87.916
G1 F2700 E115.11448
G1 F1200 X164.583 Y87.65 E115.132
G0 F6000 X164.017 Y87.65
G1 F1200 X164.849 Y88.481 E115.18675
G0 F6000 X164.849 Y89.047
G1 F1200 X163.451 Y87.65 E115.27878
G0 F6000 X162.886 Y87.65
G1 F1200 X164.849 Y89.613 E115.40805
G0 F6000 X164.849 Y90.178
G1 F1200 X162.32 Y87.65 E115.57455
G0 F6000 X161.754 Y87.65
G1 F1200 X164.849 Y90.744 E115.77833
G0 F6000 X164.849 Y91.31
G1 F1200 X161.189 Y87.65 E116.01935
G0 F6000 X160.623 Y87.65
G1 F1200 X164.849 Y91.875 E116.2976
G0 F6000 X164.849 Y92.441
G1 F1200 X160.057 Y87.65 E116.61313
G0 F6000 X159.492 Y87.65
G1 F1200 X164.849 Y93.007 E116.9659
G0 F6000 X164.849 Y93.572
G1 F1200 X158.926 Y87.65 E117.35591
G0 F6000 X158.36 Y87.65
G1 F1200 X164.849 Y94.138 E117.78319
G0 F6000 X164.849 Y94.704
G1 F1200 X157.795 Y87.65 E118.2477
G0 F6000 X157.229 Y87.65
G1 F1200 X164.849 Y95.269 E118.74946
G0 F6000 X164.849 Y95.835
G1 F1200 X156.663 Y87.65 E119.28849
G0 F6000 X156.098 Y87.65
G1 F1200 X164.849 Y96.401 E119.86476
G0 F6000 X164.849 Y96.966
G1 F1200 X155.532 Y87.65 E120.47827
G0 F6000 X154.966 Y87.65
G1 F1200 X164.849 Y97.532 E121.12904
G0 F6000 X164.849 Y98.098
G1 F1200 X154.401 Y87.65 E121.81706
G0 F6000 X153.835 Y87.65
G1 F1200 X164.849 Y98.664 E122.54235
G0 F6000 X164.849 Y99.229
G1 F1200 X153.269 Y87.65 E123.30488
G0 F6000 X152.703 Y87.65
G1 F1200 X164.849 Y99.795 E124.10469
G0 F6000 X164.849 Y100.361
G1 F1200 X152.138 Y87.65 E124.94173
G0 F6000 X151.572 Y87.65
G1 F1200 X164.849 Y100.926 E125.81601
G0 F6000 X164.849 Y101.492
G1 F1200 X151.006 Y87.65 E126.72756
G0 F6000 X150.441 Y87.65
G1 F1200 X164.849 Y102.058 E127.67635
G0 F6000 X164.849 Y102.623
G1 F1200 X149.875 Y87.65 E128.66238
G0 F6000 X149.309 Y87.65
G1 F1200 X164.849 Y103.189 E129.68568
G0 F6000 X164.849 Y103.755
G1 F1200 X148.744 Y87.65 E130.74623
G0 F6000 X148.178 Y87.65
G1 F1200 X164.849 Y104.32 E131.84401
G0 F6000 X164.849 Y104.886
G1 F1200 X147.612 Y87.65 E132.97906
G0 F6000 X147.047 Y87.65
G1 F1200 X164.849 Y105.452 E134.15135
G0 F6000 X164.849 Y106.017
G1 F1200 X146.481 Y87.65 E135.36088
G0 F6000 X145.915 Y87.65
G1 F1200 X164.849 Y106.583 E136.60769
G0 F6000 X164.849 Y107.149
G1 F1200 X145.35 Y87.65 E137.89173
G0 F6000 X144.784 Y87.65
G1 F1200 X164.849 Y107.714 E139.21301
G0 F6000 X164.849 Y108.28
G1 F1200 X144.218 Y87.65 E140.57156
G0 F6000 X143.652 Y87.65
G1 F1200 X164.849 Y108.846 E141.96739
G0 F6000 X164.849 Y109.412
G1 F1200 X143.087 Y87.65 E143.40045
G0 F6000 X142.521 Y87.65
G1 F1200 X164.849 Y109.977 E144.87076
G0 F6000 X164.849 Y110.543
G1 F1200 X141.955 Y87.65 E146.37833
G0 F6000 X141.39 Y87.65
G1 F1200 X164.849 Y111.109 E147.92315
G0 F6000 X164.849 Y111.674
G1 F1200 X140.824 Y87.65 E149.5052
G0 F6000 X140.258 Y87.65
G1 F1200 X164.849 Y112.24 E151.12453
G0 F6000 X164.849 Y112.806
G1 F1200 X139.693 Y87.65 E152.7811
G0 F6000 X139.127 Y87.65
G1 F1200 X164.849 Y113.371 E154.4749
G0 F6000 X164.849 Y113.937
G1 F1200 X138.561 Y87.65 E156.20598
G0 F6000 X137.996 Y87.65
G1 F1200 X164.849 Y114.503 E157.97429
G0 F6000 X164.849 Y115.068
G1 F1200 X137.43 Y87.65 E159.77985
G0 F6000 X136.864 Y87.65
G1 F1200 X164.849 Y115.634 E161.62268
G0 F6000 X164.849 Y116.2
G1 F1200 X136.299 Y87.65 E163.50274
G0 F6000 X135.733 Y87.65
G1 F1200 X164.849 Y116.765 E165.42005
G0 F6000 X164.849 Y117.331
G1 F1200 X135.167 Y87.65 E167.37462
G0 F6000 X134.602 Y87.65
G1 F1200 X164.849 Y117.897 E169.36644
G0 F6000 X164.849 Y118.463
G1 F1200 X134.036 Y87.65 E171.39553
G0 F6000 X133.47 Y87.65
G1 F1200 X164.849 Y119.028 E173.46186
