;FLAVOR:Marlin
;TIME:4577
;Filament used: 6.70629m
;Layer height: 0.3
;Generated with Cura_SteamEngine 3.6.0
M140 S60
M105
M190 S60
M104 S200
M105
M109 S200
M82 ;absolute extrusion mode
; Ender 3 Custom Start G-code
G28 ; Home all axes
G92 E0 ; Reset Extruder
G1 Z2.0 F3000 ; Move Z Axis up little to prevent scratching of Heat Bed
G1 X0.1 Y20 Z0.3 F5000.0 ; Move to start position
G1 X0.1 Y200.0 Z0.3 F1500.0 E15 ; Draw the first line
G1 X0.4 Y200.0 Z0.3 F5000.0 ; Move to side a little
G1 X0.4 Y20 Z0.3 F1500.0 E30 ; Draw the second line
G92 E0 ; Reset Extruder
G1 Z2.0 F3000 ; Move Z Axis up little to prevent scratching of Heat Bed
; End of custom start GCode
G92 E0
G1 F2400 E-5
;LAYER_COUNT:58
;LAYER:0
M107
M204 S5000
M205 X30 Y30
G0 F3600 X62.318 Y98.115 Z0.2
M204 S500
M205 X20 Y20
;TYPE:SKIRT
G1 F2400 E0
G1 F1800 X62.979 Y97.747 E0.02516
G1 X64.669 Y96.935 E0.08752
G1 X65.276 Y96.681 E0.10941
G1 X71.727 Y94.361 E0.33742
G1 X76.61 Y92.288 E0.51386
G1 X81.347 Y89.952 E0.68953
G1 X85.954 Y87.348 E0.86554
G1 X90.543 Y84.4 E1.04696
G1 X91.166 Y84.048 E1.07076
G1 X91.824 Y83.767 E1.09455
G1 X92.509 Y83.562 E1.11833
G1 X93.212 Y83.434 E1.1421
G1 X94.002 Y83.385 E1.16843
G1 X140.991 Y83.385 E2.73129
G1 X141.705 Y83.425 E2.75507
G1 X142.41 Y83.544 E2.77885
G1 X143.098 Y83.742 E2.80266
G1 X143.759 Y84.015 E2.82645
G1 X144.386 Y84.359 E2.85024
G1 X144.97 Y84.772 E2.87403
G1 X145.504 Y85.247 E2.8978
G1 X145.983 Y85.779 E2.92161
G1 X146.398 Y86.361 E2.94538
G1 X146.747 Y86.986 E2.96919
G1 X147.023 Y87.646 E2.99298
G1 X147.224 Y88.332 E3.01676
G1 X147.347 Y89.037 E3.04056
G1 X147.391 Y89.786 E3.06552
G1 X147.382 Y135.081 E4.57204
G1 X147.367 Y135.524 E4.58678
G1 X147.166 Y138.416 E4.6832
G1 X146.996 Y143.77 E4.86136
G1 X147.127 Y149.109 E5.03899
G1 X147.385 Y152.923 E5.16614
G1 X147.4 Y153.357 E5.18058
G1 X147.39 Y185.968 E6.26523
G1 X147.35 Y186.682 E6.28901
G1 X147.23 Y187.387 E6.3128
G1 X147.033 Y188.075 E6.3366
G1 X146.76 Y188.736 E6.36039
G1 X146.414 Y189.362 E6.38418
G1 X146.002 Y189.946 E6.40795
G1 X145.526 Y190.481 E6.43176
G1 X144.994 Y190.959 E6.45555
G1 X144.412 Y191.374 E6.47933
G1 X143.787 Y191.722 E6.50312
G1 X143.127 Y191.999 E6.52693
G1 X142.441 Y192.199 E6.55069
G1 X141.736 Y192.322 E6.57449
G1 X140.99 Y192.366 E6.59935
G1 X94.009 Y192.365 E8.16194
G1 X93.295 Y192.325 E8.18573
G1 X92.589 Y192.206 E8.20954
G1 X91.902 Y192.008 E8.23332
G1 X91.241 Y191.735 E8.25711
G1 X90.614 Y191.39 E8.28091
G1 X90.03 Y190.978 E8.30468
G1 X89.496 Y190.502 E8.32847
G1 X89.017 Y189.97 E8.35228
G1 X88.602 Y189.388 E8.37606
G1 X88.253 Y188.764 E8.39984
G1 X87.977 Y188.104 E8.42363
G1 X87.721 Y187.156 E8.45629
G1 X87.304 Y184.956 E8.53077
G1 X86.093 Y179.709 E8.70987
G1 X85.407 Y177.223 E8.79565
G1 X83.776 Y172.164 E8.97244
G1 X81.863 Y167.208 E9.14913
G1 X79.676 Y162.377 E9.32551
G1 X77.234 Y157.703 E9.5009
G1 X74.512 Y153.143 E9.67754
G1 X71.545 Y148.757 E9.85366
G1 X68.348 Y144.561 E10.02911
G1 X64.896 Y140.527 E10.2057
G1 X61.208 Y136.682 E10.3829
G1 X57.35 Y132.993 E10.56044
G1 X56.829 Y132.431 E10.58593
G1 X55.62 Y130.96 E10.64926
G1 X55.165 Y130.332 E10.67505
G1 X54.12 Y128.69 E10.73979
G1 X53.751 Y128.027 E10.76503
G1 X52.936 Y126.332 E10.82758
G1 X52.687 Y125.741 E10.84891
G1 X52.246 Y124.525 E10.89193
G1 X52.06 Y123.917 E10.91308
G1 X51.59 Y122.065 E10.97663
G1 X51.452 Y121.361 E11.00049
G1 X51.229 Y119.735 E11.05508
G1 X51.172 Y119.024 E11.0788
G1 X51.124 Y117.097 E11.14291
G1 X51.151 Y116.329 E11.16847
G1 X51.333 Y114.425 E11.23209
G1 X51.429 Y113.775 E11.25394
G1 X51.697 Y112.439 E11.29926
G1 X51.837 Y111.877 E11.31853
G1 X52.285 Y110.368 E11.37088
G1 X52.521 Y109.707 E11.39423
G1 X53.257 Y107.958 E11.45734
G1 X53.625 Y107.221 E11.48474
G1 X54.754 Y105.281 E11.55939
G1 X55.233 Y104.571 E11.58788
G1 X56.461 Y102.992 E11.65441
G1 X56.932 Y102.452 E11.67824
G1 X58.052 Y101.304 E11.73159
G1 X58.571 Y100.827 E11.75503
G1 X60.053 Y99.61 E11.81881
G1 X60.682 Y99.155 E11.84463
G1 X62.318 Y98.115 E11.90911
M204 S5000
M205 X30 Y30
G0 F3600 X62.532 Y98.453
M204 S500
M205 X20 Y20
G1 F1800 X63.153 Y98.108 E11.93274
G1 X64.843 Y97.296 E11.9951
G1 X65.411 Y97.058 E12.01558
G1 X71.867 Y94.737 E12.24377
G1 X76.765 Y92.656 E12.42077
G1 X81.542 Y90.301 E12.59791
G1 X86.166 Y87.687 E12.77458
G1 X90.759 Y84.737 E12.95614
G1 X91.363 Y84.397 E12.97919
G1 X92.001 Y84.128 E13.00222
G1 X92.666 Y83.936 E13.02524
G1 X93.349 Y83.821 E13.04828
G1 X94.002 Y83.785 E13.07003
G1 X140.991 Y83.785 E14.63289
G1 X141.682 Y83.825 E14.65591
G1 X142.365 Y83.944 E14.67897
G1 X143.028 Y84.142 E14.70198
G1 X143.665 Y84.414 E14.72502
G1 X144.266 Y84.758 E14.74805
G1 X144.824 Y85.169 E14.7711
G1 X145.33 Y85.641 E14.79412
G1 X145.779 Y86.169 E14.81717
G1 X146.164 Y86.744 E14.84019
G1 X146.479 Y87.361 E14.86323
G1 X146.722 Y88.009 E14.88625
G1 X146.889 Y88.682 E14.90931
G1 X146.977 Y89.368 E14.93231
G1 X146.991 Y89.786 E14.94622
G1 X146.982 Y135.081 E16.45274
G1 X146.968 Y135.496 E16.46655
G1 X146.766 Y138.402 E16.56344
G1 X146.595 Y143.767 E16.74197
G1 X146.727 Y149.122 E16.92013
G1 X146.986 Y152.95 E17.04774
G1 X147 Y153.357 E17.06129
G1 X146.99 Y185.968 E18.14593
G1 X146.95 Y186.659 E18.16896
G1 X146.83 Y187.341 E18.19199
G1 X146.633 Y188.005 E18.21502
G1 X146.36 Y188.642 E18.23807
G1 X146.016 Y189.243 E18.26111
G1 X145.605 Y189.8 E18.28413
G1 X145.133 Y190.306 E18.30714
G1 X144.605 Y190.755 E18.3302
G1 X144.029 Y191.139 E18.35322
G1 X143.413 Y191.455 E18.37625
G1 X142.764 Y191.698 E18.3993
G1 X142.092 Y191.864 E18.42232
G1 X141.405 Y191.952 E18.44536
G1 X140.99 Y191.966 E18.45917
G1 X94.009 Y191.965 E20.02176
G1 X93.317 Y191.925 E20.04482
G1 X92.635 Y191.806 E20.06784
G1 X91.971 Y191.608 E20.09089
G1 X91.335 Y191.336 E20.1139
G1 X90.734 Y190.992 E20.13693
G1 X90.176 Y190.581 E20.15998
G1 X89.67 Y190.109 E20.18299
G1 X89.221 Y189.581 E20.20605
G1 X88.836 Y189.005 E20.22909
G1 X88.521 Y188.389 E20.2521
G1 X88.278 Y187.741 E20.27512
G1 X88.114 Y187.082 E20.29771
G1 X87.694 Y184.865 E20.37275
G1 X86.484 Y179.626 E20.55159
G1 X85.793 Y177.12 E20.63805
G1 X84.143 Y172.003 E20.81687
G1 X82.234 Y167.056 E20.99324
G1 X80.045 Y162.22 E21.16979
G1 X77.574 Y157.492 E21.34723
G1 X74.857 Y152.94 E21.52355
G1 X71.87 Y148.524 E21.70087
G1 X68.654 Y144.304 E21.87734
G1 X65.189 Y140.255 E22.05459
G1 X61.491 Y136.399 E22.23229
G1 X57.626 Y132.703 E22.41015
G1 X57.138 Y132.177 E22.43402
G1 X55.929 Y130.706 E22.49735
G1 X55.502 Y130.117 E22.52155
G1 X54.457 Y128.475 E22.58628
G1 X54.112 Y127.854 E22.60991
G1 X53.297 Y126.159 E22.67246
G1 X53.063 Y125.605 E22.69247
G1 X52.622 Y124.389 E22.73549
G1 X52.447 Y123.819 E22.75532
G1 X51.977 Y121.967 E22.81887
G1 X51.849 Y121.306 E22.84126
G1 X51.626 Y119.68 E22.89585
G1 X51.572 Y119.014 E22.91807
G1 X51.524 Y117.087 E22.98219
G1 X51.549 Y116.367 E23.00615
G1 X51.731 Y114.463 E23.06976
G1 X51.821 Y113.854 E23.09024
G1 X52.089 Y112.518 E23.13556
G1 X52.22 Y111.99 E23.15365
G1 X52.668 Y110.481 E23.20601
G1 X52.89 Y109.862 E23.22788
G1 X53.626 Y108.113 E23.29099
G1 X53.97 Y107.422 E23.31667
G1 X55.099 Y105.482 E23.39132
G1 X55.549 Y104.817 E23.41803
G1 X56.777 Y103.238 E23.48456
G1 X57.218 Y102.731 E23.50691
G1 X58.338 Y101.583 E23.56025
G1 X58.825 Y101.136 E23.58224
G1 X60.307 Y99.919 E23.64602
G1 X60.896 Y99.493 E23.6702
G1 X62.532 Y98.453 E23.73467
M204 S5000
M205 X30 Y30
G0 F3600 X62.747 Y98.79
M204 S500
M205 X20 Y20
G1 F1800 X63.326 Y98.468 E23.75671
G1 X65.016 Y97.656 E23.81907
G1 X65.546 Y97.434 E23.83818
G1 X72.032 Y95.102 E24.06743
G1 X76.926 Y93.023 E24.24428
G1 X81.724 Y90.658 E24.4222
G1 X86.374 Y88.029 E24.59986
G1 X90.976 Y85.073 E24.78178
G1 X91.559 Y84.746 E24.80402
G1 X92.177 Y84.491 E24.82625
G1 X92.822 Y84.311 E24.84852
G1 X93.483 Y84.209 E24.87077
G1 X94.002 Y84.185 E24.88805
G1 X140.991 Y84.185 E26.45091
G1 X141.659 Y84.225 E26.47317
G1 X142.317 Y84.344 E26.49541
G1 X142.957 Y84.541 E26.51768
G1 X143.568 Y84.813 E26.53992
G1 X144.142 Y85.156 E26.56216
G1 X144.672 Y85.565 E26.58443
G1 X145.149 Y86.034 E26.60668
G1 X145.567 Y86.556 E26.62892
G1 X145.919 Y87.125 E26.65118
G1 X146.201 Y87.732 E26.67344
G1 X146.409 Y88.368 E26.69569
G1 X146.539 Y89.024 E26.71794
G1 X146.591 Y89.786 E26.74334
G1 X146.582 Y135.081 E28.24986
G1 X146.569 Y135.468 E28.26274
G1 X146.366 Y138.388 E28.36009
G1 X146.195 Y143.764 E28.53899
G1 X146.327 Y149.136 E28.71771
G1 X146.587 Y152.977 E28.84576
G1 X146.6 Y153.357 E28.85841
G1 X146.59 Y185.968 E29.94305
G1 X146.55 Y186.636 E29.96531
G1 X146.43 Y187.294 E29.98756
G1 X146.233 Y187.933 E30.0098
G1 X145.961 Y188.544 E30.03204
G1 X145.618 Y189.119 E30.05431
G1 X145.209 Y189.648 E30.07655
G1 X144.74 Y190.125 E30.0988
G1 X144.217 Y190.543 E30.12107
G1 X143.648 Y190.895 E30.14332
G1 X143.042 Y191.177 E30.16555
G1 X142.406 Y191.384 E30.1878
G1 X141.749 Y191.514 E30.21007
G1 X140.99 Y191.566 E30.23538
G1 X94.009 Y191.565 E31.79797
G1 X93.341 Y191.525 E31.82023
G1 X92.683 Y191.406 E31.84247
G1 X92.043 Y191.209 E31.86474
G1 X91.432 Y190.937 E31.88699
G1 X90.858 Y190.594 E31.90923
G1 X90.328 Y190.185 E31.93149
G1 X89.851 Y189.716 E31.95374
G1 X89.433 Y189.193 E31.97601
G1 X89.081 Y188.625 E31.99823
G1 X88.799 Y188.018 E32.0205
G1 X88.591 Y187.382 E32.04275
G1 X88.507 Y187.007 E32.05553
G1 X88.085 Y184.779 E32.13095
G1 X86.872 Y179.527 E32.31024
G1 X86.176 Y177.003 E32.39732
G1 X84.524 Y171.878 E32.57641
G1 X82.604 Y166.905 E32.75371
G1 X80.396 Y162.026 E32.93183
G1 X77.934 Y157.314 E33.10866
G1 X75.194 Y152.724 E33.28646
G1 X72.19 Y148.283 E33.46478
G1 X68.968 Y144.055 E33.64159
G1 X65.491 Y139.992 E33.81945
G1 X61.762 Y136.104 E33.99863
G1 X57.903 Y132.414 E34.17621
G1 X57.447 Y131.923 E34.1985
G1 X56.238 Y130.452 E34.26183
G1 X55.84 Y129.903 E34.28438
G1 X54.795 Y128.261 E34.34912
G1 X54.472 Y127.681 E34.3712
G1 X53.657 Y125.986 E34.43375
G1 X53.44 Y125.468 E34.45243
G1 X52.999 Y124.252 E34.49546
G1 X52.835 Y123.721 E34.51394
G1 X52.365 Y121.869 E34.57749
G1 X52.245 Y121.252 E34.5984
G1 X52.022 Y119.626 E34.65298
G1 X51.972 Y119.004 E34.67374
G1 X51.924 Y117.077 E34.73785
G1 X51.947 Y116.405 E34.76021
G1 X52.129 Y114.501 E34.82383
G1 X52.213 Y113.933 E34.84293
G1 X52.481 Y112.597 E34.88825
G1 X52.604 Y112.104 E34.90515
G1 X53.052 Y110.595 E34.9575
G1 X53.258 Y110.017 E34.97791
G1 X53.994 Y108.268 E35.04102
G1 X54.316 Y107.623 E35.065
G1 X55.445 Y105.683 E35.13966
G1 X55.864 Y105.062 E35.16457
G1 X57.092 Y103.483 E35.2311
G1 X57.505 Y103.01 E35.25199
G1 X58.625 Y101.862 E35.30533
G1 X59.079 Y101.445 E35.32584
G1 X60.561 Y100.228 E35.38962
G1 X61.111 Y99.83 E35.4122
G1 X62.747 Y98.79 E35.47668
M204 S5000
M205 X30 Y30
G0 F3600 X62.961 Y99.128
M204 S500
M205 X20 Y20
G1 F1800 X63.499 Y98.829 E35.49715
G1 X65.189 Y98.017 E35.55951
G1 X65.682 Y97.811 E35.57728
G1 X72.16 Y95.482 E35.80624
G1 X77.102 Y93.383 E35.98482
G1 X81.905 Y91.015 E36.16293
G1 X86.587 Y88.368 E36.34182
G1 X91.192 Y85.41 E36.52386
G1 X91.755 Y85.096 E36.5453
G1 X92.352 Y84.854 E36.56673
G1 X92.975 Y84.687 E36.58818
G1 X93.614 Y84.6 E36.60963
G1 X94.002 Y84.585 E36.62254
G1 X140.991 Y84.585 E38.1854
G1 X141.634 Y84.625 E38.20683
G1 X142.268 Y84.744 E38.22829
G1 X142.882 Y84.941 E38.24973
G1 X143.467 Y85.212 E38.27118
G1 X144.014 Y85.554 E38.29263
G1 X144.514 Y85.96 E38.31406
G1 X144.96 Y86.425 E38.33549
G1 X145.345 Y86.942 E38.35692
G1 X145.664 Y87.503 E38.37839
G1 X145.91 Y88.099 E38.39983
G1 X146.081 Y88.72 E38.42126
G1 X146.173 Y89.358 E38.4427
G1 X146.191 Y89.786 E38.45695
G1 X146.182 Y135.081 E39.96346
G1 X146.169 Y135.44 E39.97541
G1 X145.967 Y138.347 E40.07233
G1 X145.795 Y143.761 E40.25249
G1 X145.927 Y149.15 E40.43179
G1 X146.188 Y153.004 E40.56026
G1 X146.2 Y153.357 E40.57201
G1 X146.19 Y185.968 E41.65666
G1 X146.15 Y186.611 E41.67809
G1 X146.03 Y187.245 E41.69955
G1 X145.833 Y187.858 E41.72096
G1 X145.562 Y188.443 E41.74241
G1 X145.22 Y188.99 E41.76386
G1 X144.814 Y189.49 E41.78528
G1 X144.348 Y189.936 E41.80674
G1 X143.831 Y190.321 E41.82818
G1 X143.271 Y190.639 E41.8496
G1 X142.675 Y190.886 E41.87105
G1 X142.053 Y191.056 E41.8925
G1 X141.415 Y191.149 E41.91395
G1 X140.99 Y191.166 E41.92809
G1 X94.009 Y191.165 E43.49069
G1 X93.365 Y191.125 E43.51215
G1 X92.732 Y191.006 E43.53357
G1 X92.118 Y190.809 E43.55502
G1 X91.533 Y190.538 E43.57646
G1 X90.986 Y190.196 E43.59792
G1 X90.486 Y189.79 E43.61934
G1 X90.04 Y189.324 E43.64079
G1 X89.655 Y188.807 E43.66223
G1 X89.336 Y188.247 E43.68367
G1 X89.09 Y187.651 E43.70511
G1 X88.9 Y186.933 E43.72982
G1 X88.479 Y184.712 E43.805
G1 X87.258 Y179.421 E43.98561
G1 X86.554 Y176.871 E44.07359
G1 X84.904 Y171.753 E44.25245
G1 X82.968 Y166.738 E44.43124
G1 X80.764 Y161.869 E44.60901
G1 X78.274 Y157.103 E44.78785
G1 X75.526 Y152.5 E44.96616
G1 X72.53 Y148.07 E45.14403
G1 X69.274 Y143.798 E45.32268
G1 X65.784 Y139.719 E45.50123
G1 X62.055 Y135.832 E45.68039
G1 X58.179 Y132.125 E45.85877
G1 X57.756 Y131.669 E45.87946
G1 X56.547 Y130.198 E45.94279
G1 X56.177 Y129.688 E45.96375
G1 X55.132 Y128.046 E46.02848
G1 X54.833 Y127.507 E46.04898
G1 X54.018 Y125.812 E46.11154
G1 X53.816 Y125.332 E46.12886
G1 X53.375 Y124.116 E46.17188
G1 X53.223 Y123.622 E46.18907
G1 X52.753 Y121.77 E46.25262
G1 X52.641 Y121.198 E46.27201
G1 X52.418 Y119.572 E46.3266
G1 X52.372 Y118.994 E46.34588
G1 X52.324 Y117.067 E46.40999
G1 X52.346 Y116.443 E46.43076
G1 X52.528 Y114.539 E46.49438
G1 X52.606 Y114.011 E46.51213
G1 X52.874 Y112.675 E46.55745
G1 X52.987 Y112.218 E46.57311
G1 X53.435 Y110.709 E46.62546
G1 X53.627 Y110.172 E46.64443
G1 X54.363 Y108.423 E46.70754
G1 X54.662 Y107.824 E46.72981
G1 X55.791 Y105.884 E46.80446
G1 X56.18 Y105.308 E46.82758
G1 X57.408 Y103.729 E46.89411
G1 X57.791 Y103.29 E46.91349
G1 X58.911 Y102.142 E46.96683
G1 X59.333 Y101.754 E46.9859
G1 X60.815 Y100.537 E47.04968
G1 X61.325 Y100.168 E47.07062
G1 X62.961 Y99.128 E47.1351
M204 S5000
M205 X30 Y30
G1 F2400 E42.1351
;MESH:Gear_v2a.stl
G0 F3600 X71.503 Y100.958
G0 X71.694 Y102.227
G0 X74.465 Y102.231
G0 X74.471 Y102.132
M204 S500
M205 X20 Y20
;TYPE:WALL-INNER
G1 F2400 E47.1351
G1 F1800 X75.383 Y102.217 E47.16556
G1 X76.306 Y102.359 E47.19662
G1 X77.214 Y102.556 E47.22752
G1 X78.113 Y102.809 E47.25859
G1 X78.99 Y103.113 E47.28946
G1 X79.849 Y103.472 E47.32042
G1 X80.688 Y103.882 E47.35148
G1 X81.49 Y104.337 E47.38215
G1 X82.268 Y104.841 E47.41298
G1 X83.027 Y105.402 E47.44437
G1 X83.739 Y105.999 E47.47528
G1 X84.41 Y106.632 E47.50596
G1 X85.035 Y107.299 E47.53636
G1 X85.652 Y108.042 E47.56848
G1 X86.187 Y108.771 E47.59856
G1 X86.69 Y109.551 E47.62943
G1 X87.152 Y110.376 E47.66088
G1 X87.547 Y111.192 E47.69103
G1 X87.916 Y112.085 E47.72317
G1 X88.206 Y112.93 E47.75288
G1 X88.46 Y113.851 E47.78466
G1 X88.651 Y114.749 E47.81519
G1 X88.792 Y115.692 E47.84691
G1 X88.872 Y116.583 E47.87666
G1 X88.899 Y117.524 E47.90797
G1 X88.868 Y118.471 E47.93949
G1 X88.783 Y119.383 E47.96995
G1 X88.642 Y120.301 E48.00084
G1 X88.444 Y121.214 E48.03191
G1 X88.193 Y122.106 E48.06273
G1 X87.888 Y122.988 E48.09377
G1 X87.531 Y123.843 E48.12459
G1 X87.119 Y124.685 E48.15577
G1 X86.671 Y125.477 E48.18603
G1 X86.154 Y126.275 E48.21766
G1 X85.598 Y127.027 E48.24876
G1 X85.001 Y127.739 E48.27967
G1 X84.368 Y128.41 E48.31035
G1 X83.701 Y129.035 E48.34075
G1 X82.959 Y129.652 E48.37285
G1 X82.222 Y130.192 E48.40323
G1 X81.45 Y130.689 E48.43377
G1 X80.629 Y131.149 E48.46507
G1 X79.803 Y131.549 E48.4956
G1 X78.92 Y131.914 E48.52738
G1 X78.067 Y132.207 E48.55737
G1 X77.151 Y132.459 E48.58897
G1 X76.254 Y132.65 E48.61948
G1 X75.308 Y132.792 E48.65129
G1 X74.412 Y132.872 E48.68121
G1 X73.47 Y132.899 E48.71256
G1 X72.529 Y132.868 E48.74387
G1 X71.617 Y132.783 E48.77434
G1 X70.694 Y132.641 E48.8054
G1 X69.786 Y132.444 E48.8363
G1 X68.887 Y132.191 E48.86736
G1 X68.01 Y131.887 E48.89823
G1 X67.151 Y131.528 E48.9292
G1 X66.312 Y131.118 E48.96026
G1 X65.51 Y130.663 E48.99093
G1 X64.732 Y130.159 E49.02176
G1 X63.973 Y129.598 E49.05315
G1 X63.261 Y129.001 E49.08405
G1 X62.59 Y128.368 E49.11473
G1 X61.962 Y127.697 E49.1453
G1 X61.348 Y126.958 E49.17726
G1 X60.809 Y126.223 E49.20757
G1 X60.3 Y125.432 E49.23886
G1 X59.853 Y124.634 E49.26928
G1 X59.447 Y123.795 E49.30028
