;FLAVOR:Marlin
;TIME:4311
;Filament used: 3.82754m
;Layer height: 0.3
;MINX:90.6
;MINY:95.6
;MINZ:0.2
;MAXX:181.9
;MAXY:167.4
;MAXZ:26.9
;Generated with Cura_SteamEngine 4.1.0
M140 S60
M105
M190 S60
M104 S200
M105
M109 S200
M82 ;absolute extrusion mode
; Ender 3 Custom Start G-code
G28 ; Home all axes
G92 E0 ; Reset Extruder
G1 Z2.0 F3000 ; Move Z Axis up little to prevent scratching of Heat Bed
G1 X0.1 Y20 Z0.3 F5000.0 ; Move to start position
G1 X0.1 Y200.0 Z0.3 F1500.0 E15 ; Draw the first line
G1 X0.4 Y200.0 Z0.3 F5000.0 ; Move to side a little
G1 X0.4 Y20 Z0.3 F1500.0 E30 ; Draw the second line
G92 E0 ; Reset Extruder
G1 Z2.0 F3000 ; Move Z Axis up little to prevent scratching of Heat Bed
; End of custom start GCode
G92 E0
G92 E0
G1 F2400 E-5
;LAYER_COUNT:90
;LAYER:0
M107
M204 S500
M205 X10 Y10
G0 F3600 X96.546 Y99.805 Z0.2
;TYPE:SKIRT
G1 F2400 E0
G1 F1800 X97.086 Y99.335 E0.02381
G1 X97.674 Y98.929 E0.04758
G1 X98.304 Y98.59 E0.07137
G1 X98.968 Y98.325 E0.09515
G1 X99.658 Y98.135 E0.11895
G1 X100.364 Y98.023 E0.14273
G1 X100.83 Y97.993 E0.15826
G1 X101.148 Y97.984 E0.16884
G1 X101.329 Y97.981 E0.17486
G1 X119.599 Y97.982 E0.78252
G1 X122.261 Y97.944 E0.87107
G1 X124.907 Y97.832 E0.95916
G1 X127.535 Y97.647 E1.04678
G1 X130.208 Y97.381 E1.13612
G1 X132.796 Y97.05 E1.2229
G1 X135.424 Y96.638 E1.31138
G1 X139.124 Y95.928 E1.43669
G1 X139.726 Y95.8 E1.45716
G1 X140.338 Y95.701 E1.47778
G1 X140.551 Y95.677 E1.48491
G1 X140.802 Y95.654 E1.49329
G1 X141.158 Y95.628 E1.50516
G1 X141.53 Y95.612 E1.51755
G1 X142.276 Y95.601 E1.54236
G1 X142.37 Y95.6 E1.54549
G1 X152.793 Y95.6 E1.89216
G1 X152.885 Y95.601 E1.89522
G1 X153.583 Y95.611 E1.91844
G1 X154.296 Y95.661 E1.94221
G1 X155 Y95.79 E1.96601
G1 X155.684 Y95.998 E1.98979
G1 X156.341 Y96.28 E2.01357
G1 X156.963 Y96.634 E2.03737
G1 X157.541 Y97.055 E2.06116
G1 X158.069 Y97.538 E2.08496
G1 X158.539 Y98.076 E2.10872
G1 X158.947 Y98.664 E2.13252
G1 X159.286 Y99.294 E2.15632
G1 X159.633 Y100.21 E2.1889
G1 X159.946 Y101.278 E2.22591
G1 X160.74 Y103.862 E2.31582
G1 X161.588 Y106.369 E2.40385
G1 X162.509 Y108.857 E2.49209
G1 X163.487 Y111.284 E2.57912
G1 X164.556 Y113.736 E2.66808
G1 X165.68 Y116.129 E2.75602
G1 X166.871 Y118.485 E2.84382
G1 X168.128 Y120.811 E2.93176
G1 X169.463 Y123.115 E3.02032
G1 X170.874 Y125.408 E3.10987
G1 X171.567 Y126.497 E3.15281
G1 X171.656 Y126.64 E3.15841
G1 X171.779 Y126.845 E3.16636
G1 X172.248 Y127.797 E3.20166
G1 X172.505 Y128.451 E3.22503
G1 X172.547 Y128.563 E3.22901
G1 X173.03 Y129.864 E3.27516
G1 X174.037 Y132.35 E3.36437
G1 X175.095 Y134.764 E3.45204
G1 X176.212 Y137.132 E3.53912
G1 X177.429 Y139.527 E3.62847
G1 X178.683 Y141.837 E3.71589
G1 X180.012 Y144.124 E3.80387
G1 X180.566 Y145.022 E3.83896
G1 X180.611 Y145.096 E3.84184
G1 X180.982 Y145.716 E3.86588
G1 X181.314 Y146.349 E3.88965
G1 X181.574 Y147.016 E3.91346
G1 X181.758 Y147.707 E3.93724
G1 X181.863 Y148.414 E3.96102
G1 X181.887 Y148.807 E3.97411
G1 X181.897 Y149.135 E3.98503
G1 X181.9 Y149.33 E3.99151
G1 X181.9 Y154.264 E4.15562
G1 X181.899 Y154.352 E4.15855
G1 X181.889 Y155.078 E4.18269
G1 X181.84 Y155.792 E4.2065
G1 X181.71 Y156.495 E4.23028
G1 X181.504 Y157.18 E4.25407
G1 X181.222 Y157.837 E4.27785
G1 X180.868 Y158.459 E4.30165
G1 X180.448 Y159.038 E4.32544
G1 X179.965 Y159.565 E4.34922
G1 X179.426 Y160.036 E4.37303
G1 X178.839 Y160.444 E4.3968
G1 X178.209 Y160.784 E4.42061
G1 X177.546 Y161.051 E4.44439
G1 X176.857 Y161.242 E4.46817
G1 X176.22 Y161.348 E4.48964
G1 X174.938 Y161.495 E4.53256
G1 X172.289 Y161.837 E4.6214
G1 X169.662 Y162.251 E4.70985
G1 X167.049 Y162.739 E4.79826
G1 X164.509 Y163.289 E4.8847
G1 X161.907 Y163.929 E4.97382
G1 X159.322 Y164.643 E5.06302
G1 X156.822 Y165.41 E5.15
G1 X154.318 Y166.257 E5.23792
G1 X152.886 Y166.787 E5.2887
G1 X152.805 Y166.817 E5.29158
G1 X152.244 Y167.016 E5.31137
G1 X151.557 Y167.217 E5.33518
G1 X150.853 Y167.34 E5.35895
G1 X150.4 Y167.377 E5.37407
G1 X150.055 Y167.393 E5.38555
G1 X149.759 Y167.4 E5.3954
G1 X140.207 Y167.4 E5.7131
G1 X140.116 Y167.399 E5.71613
G1 X139.414 Y167.389 E5.73948
G1 X138.7 Y167.339 E5.76329
G1 X137.997 Y167.21 E5.78706
G1 X137.312 Y167.003 E5.81086
G1 X136.492 Y166.636 E5.84074
G1 X136.293 Y166.53 E5.84824
G1 X133.876 Y165.269 E5.93891
G1 X131.461 Y164.095 E6.02822
G1 X129.067 Y163.015 E6.11558
G1 X126.631 Y161.997 E6.20339
G1 X124.122 Y161.03 E6.29282
G1 X121.688 Y160.172 E6.37866
G1 X119.141 Y159.353 E6.46764
G1 X116.593 Y158.613 E6.55589
G1 X114.032 Y157.947 E6.64391
G1 X111.472 Y157.358 E6.73128
G1 X108.822 Y156.825 E6.82118
G1 X106.256 Y156.388 E6.90775
G1 X103.624 Y156.013 E6.99618
G1 X101.002 Y155.715 E7.08395
G1 X98.378 Y155.493 E7.17154
G1 X97.642 Y155.451 E7.19605
G1 X97.551 Y155.445 E7.19909
G1 X96.554 Y155.374 E7.23233
G1 X95.845 Y155.283 E7.25611
G1 X95.15 Y155.114 E7.2799
G1 X94.478 Y154.868 E7.3037
G1 X93.838 Y154.549 E7.32748
G1 X93.238 Y154.161 E7.35125
G1 X92.684 Y153.708 E7.37505
G1 X92.185 Y153.195 E7.39885
G1 X91.746 Y152.631 E7.42262
G1 X91.372 Y152.021 E7.44642
G1 X91.069 Y151.373 E7.47021
G1 X90.84 Y150.695 E7.49402
G1 X90.689 Y149.996 E7.5178
G1 X90.611 Y149.163 E7.54563
G1 X90.602 Y148.831 E7.55667
G1 X90.6 Y148.658 E7.56243
G1 X90.6 Y144.707 E7.69384
G1 X90.601 Y144.615 E7.6969
G1 X90.611 Y143.918 E7.72008
G1 X90.661 Y143.205 E7.74386
G1 X90.836 Y142.325 E7.7737
G1 X91.15 Y141.174 E7.81338
G1 X91.899 Y138.326 E7.91133
G1 X92.489 Y135.774 E7.99845
G1 X93.009 Y133.184 E8.08631
G1 X93.461 Y130.551 E8.17516
G1 X93.831 Y127.97 E8.26189
G1 X94.133 Y125.326 E8.3504
G1 X94.363 Y122.648 E8.4398
G1 X94.512 Y120.045 E8.52651
G1 X94.589 Y117.393 E8.61476
G1 X94.6 Y115.956 E8.66255
G1 X94.6 Y105.079 E9.02432
G1 X94.601 Y104.977 E9.02772
G1 X94.612 Y104.288 E9.05063
G1 X94.663 Y103.574 E9.07444
G1 X94.794 Y102.871 E9.09823
G1 X95.002 Y102.187 E9.12201
G1 X95.285 Y101.53 E9.1458
G1 X95.64 Y100.909 E9.16959
G1 X96.062 Y100.332 E9.19337
G1 X96.546 Y99.805 E9.21716
G0 F3600 X96.937 Y99.985
G1 F1800 X97.472 Y99.545 E9.2402
G1 X98.053 Y99.17 E9.2632
G1 X98.675 Y98.864 E9.28626
G1 X99.327 Y98.631 E9.30929
G1 X100.002 Y98.475 E9.33233
G1 X100.841 Y98.392 E9.36037
G1 X101.159 Y98.383 E9.37095
G1 X101.329 Y98.381 E9.37661
G1 X119.605 Y98.382 E9.98447
G1 X122.248 Y98.345 E10.07238
G1 X124.954 Y98.23 E10.16247
G1 X127.563 Y98.046 E10.24946
G1 X130.266 Y97.777 E10.33981
G1 X132.837 Y97.448 E10.42601
G1 X135.477 Y97.034 E10.51489
G1 X139.273 Y96.306 E10.64345
G1 X139.809 Y96.192 E10.66168
G1 X140.383 Y96.099 E10.68102
G1 X140.596 Y96.075 E10.68815
G1 X140.831 Y96.053 E10.696
G1 X141.187 Y96.027 E10.70787
G1 X141.536 Y96.012 E10.71949
G1 X142.282 Y96.001 E10.7443
G1 X142.37 Y96 E10.74723
G1 X152.793 Y96 E11.0939
G1 X152.879 Y96.001 E11.09676
G1 X153.577 Y96.011 E11.11998
G1 X154.268 Y96.06 E11.14302
G1 X154.948 Y96.19 E11.16605
G1 X155.609 Y96.396 E11.18907
G1 X156.242 Y96.678 E11.21212
G1 X156.838 Y97.03 E11.23514
G1 X157.389 Y97.449 E11.25817
G1 X157.889 Y97.929 E11.28122
G1 X158.33 Y98.463 E11.30425
G1 X158.707 Y99.044 E11.32729
G1 X159.014 Y99.665 E11.35033
G1 X159.249 Y100.323 E11.37357
G1 X159.567 Y101.407 E11.41114
G1 X160.354 Y103.97 E11.50032
G1 X161.21 Y106.499 E11.58912
G1 X162.134 Y108.997 E11.67771
G1 X163.126 Y111.457 E11.76593
G1 X164.185 Y113.887 E11.85409
G1 X165.325 Y116.315 E11.9433
G1 X166.512 Y118.662 E12.03078
G1 X167.796 Y121.036 E12.12055
G1 X169.099 Y123.287 E12.20706
G1 X170.534 Y125.619 E12.29813
G1 X171.23 Y126.712 E12.34123
G1 X171.313 Y126.846 E12.34647
G1 X171.436 Y127.051 E12.35442
G1 X171.875 Y127.944 E12.38752
G1 X172.132 Y128.598 E12.41089
G1 X172.172 Y128.702 E12.41459
G1 X172.665 Y130.029 E12.46168
G1 X173.659 Y132.482 E12.54971
G1 X174.72 Y134.902 E12.6376
G1 X175.872 Y137.346 E12.72746
G1 X177.063 Y139.692 E12.81497
G1 X178.329 Y142.023 E12.90319
G1 X179.676 Y144.34 E12.99233
G1 X180.226 Y145.232 E13.02719
G1 X180.268 Y145.301 E13.02988
G1 X180.639 Y145.921 E13.05391
G1 X180.959 Y146.535 E13.07694
G1 X181.207 Y147.182 E13.09998
G1 X181.379 Y147.853 E13.12302
G1 X181.487 Y148.819 E13.15535
G1 X181.497 Y149.147 E13.16626
G1 X181.5 Y149.33 E13.17235
G1 X181.5 Y154.264 E13.33646
G1 X181.499 Y154.347 E13.33922
G1 X181.489 Y155.073 E13.36337
G1 X181.44 Y155.763 E13.38637
G1 X181.311 Y156.444 E13.40943
G1 X181.105 Y157.105 E13.43246
G1 X180.824 Y157.738 E13.45549
G1 X180.472 Y158.334 E13.47851
G1 X180.053 Y158.886 E13.50156
G1 X179.574 Y159.386 E13.52459
G1 X179.04 Y159.827 E13.54763
G1 X178.459 Y160.204 E13.57066
G1 X177.838 Y160.511 E13.5937
G1 X177.187 Y160.745 E13.61671
G1 X176.174 Y160.951 E13.65109
G1 X174.917 Y161.095 E13.69318
G1 X172.213 Y161.444 E13.78386
G1 X169.598 Y161.856 E13.8719
G1 X166.963 Y162.349 E13.96107
G1 X164.427 Y162.897 E14.04736
G1 X161.777 Y163.549 E14.13813
G1 X159.246 Y164.248 E14.22546
G1 X156.714 Y165.025 E14.31355
G1 X154.157 Y165.891 E14.40334
G1 X152.747 Y166.412 E14.45334
G1 X152.671 Y166.44 E14.45603
G1 X152.11 Y166.639 E14.47583
G1 X151.445 Y166.832 E14.49886
G1 X150.762 Y166.948 E14.5219
G1 X150.382 Y166.978 E14.53458
G1 X150.037 Y166.994 E14.54607
G1 X149.759 Y167 E14.55532
G1 X140.207 Y167 E14.87302
G1 X140.122 Y166.999 E14.87585
G1 X139.42 Y166.989 E14.8992
G1 X138.729 Y166.94 E14.92224
G1 X138.048 Y166.811 E14.94529
G1 X137.387 Y166.604 E14.96833
G1 X136.68 Y166.284 E14.99414
G1 X136.427 Y166.149 E15.00368
G1 X134.042 Y164.905 E15.09314
G1 X131.65 Y163.742 E15.18161
G1 X129.22 Y162.645 E15.27028
G1 X126.78 Y161.626 E15.35823
G1 X124.273 Y160.659 E15.4476
G1 X121.784 Y159.782 E15.53538
G1 X119.271 Y158.974 E15.62317
G1 X116.7 Y158.227 E15.71222
G1 X114.117 Y157.556 E15.80098
G1 X111.535 Y156.962 E15.8891
G1 X108.935 Y156.439 E15.97731
G1 X106.303 Y155.991 E16.06611
G1 X103.693 Y155.619 E16.1538
G1 X101.045 Y155.318 E16.24244
G1 X98.363 Y155.091 E16.33196
G1 X97.665 Y155.051 E16.35521
G1 X97.58 Y155.046 E16.35805
G1 X96.583 Y154.975 E16.39129
G1 X95.896 Y154.886 E16.41433
G1 X95.224 Y154.718 E16.43737
G1 X94.576 Y154.475 E16.46039
G1 X93.96 Y154.158 E16.48343
G1 X93.385 Y153.772 E16.50646
G1 X92.858 Y153.322 E16.52951
G1 X92.386 Y152.815 E16.55255
G1 X91.977 Y152.257 E16.57556
G1 X91.634 Y151.655 E16.59861
G1 X91.362 Y151.018 E16.62165
G1 X91.166 Y150.354 E16.64467
G1 X91.048 Y149.672 E16.66769
G1 X91.011 Y149.153 E16.685
G1 X91.002 Y148.821 E16.69605
G1 X91 Y148.658 E16.70147
G1 X91 Y144.707 E16.83288
G1 X91.001 Y144.621 E16.83574
G1 X91.011 Y143.924 E16.85892
G1 X91.06 Y143.233 E16.88196
G1 X91.222 Y142.43 E16.90921
G1 X91.537 Y141.275 E16.94903
G1 X92.279 Y138.453 E17.04608
G1 X92.89 Y135.812 E17.13624
G1 X93.403 Y133.258 E17.22288
G1 X93.854 Y130.633 E17.31147
G1 X94.23 Y128.005 E17.39977
G1 X94.531 Y125.369 E17.48801
G1 X94.76 Y122.704 E17.57697
G1 X94.913 Y120.044 E17.66559
G1 X94.989 Y117.408 E17.7533
G1 X95 Y115.959 E17.8015
G1 X95 Y105.079 E18.16337
G1 X95.001 Y104.983 E18.16656
G1 X95.012 Y104.294 E18.18948
G1 X95.063 Y103.604 E18.21249
G1 X95.193 Y102.923 E18.23555
G1 X95.401 Y102.263 E18.25857
G1 X95.683 Y101.63 E18.28162
G1 X96.037 Y101.035 E18.30464
G1 X96.456 Y100.484 E18.32767
G1 X96.937 Y99.985 E18.35072
G0 F3600 X97.327 Y100.173
G1 F1800 X97.856 Y99.763 E18.37298
G1 X98.43 Y99.42 E18.39522
G1 X99.041 Y99.148 E18.41746
G1 X99.68 Y98.95 E18.43971
G1 X100.339 Y98.831 E18.46199
G1 X100.853 Y98.792 E18.47913
G1 X101.171 Y98.783 E18.48971
G1 X101.329 Y98.781 E18.49497
G1 X119.611 Y98.782 E19.10303
G1 X122.271 Y98.744 E19.19151
G1 X124.964 Y98.63 E19.28116
G1 X127.598 Y98.444 E19.36899
G1 X130.281 Y98.177 E19.45866
G1 X132.953 Y97.835 E19.54826
G1 X135.525 Y97.432 E19.63485
G1 X139.333 Y96.702 E19.76381
G1 X139.892 Y96.583 E19.78282
G1 X140.428 Y96.496 E19.80088
G1 X140.641 Y96.472 E19.80801
G1 X140.86 Y96.452 E19.81532
G1 X141.216 Y96.426 E19.8272
G1 X141.541 Y96.412 E19.83802
G1 X142.287 Y96.401 E19.86283
G1 X142.37 Y96.4 E19.86559
G1 X152.793 Y96.4 E20.21226
G1 X152.873 Y96.401 E20.21492
G1 X153.571 Y96.411 E20.23814
G1 X154.238 Y96.46 E20.26038
G1 X154.895 Y96.589 E20.28265
G1 X155.531 Y96.795 E20.30489
G1 X156.139 Y97.076 E20.32717
G1 X156.708 Y97.426 E20.34939
G1 X157.232 Y97.843 E20.37166
G1 X157.702 Y98.319 E20.39391
G1 X158.112 Y98.847 E20.41614
G1 X158.457 Y99.421 E20.43842
G1 X158.73 Y100.032 E20.46067
G1 X158.865 Y100.435 E20.47481
G1 X159.169 Y101.474 E20.51082
G1 X159.976 Y104.101 E20.60222
G1 X160.831 Y106.629 E20.69098
G1 X161.764 Y109.149 E20.78036
G1 X162.759 Y111.618 E20.86889
G1 X163.814 Y114.038 E20.9567
G1 X164.964 Y116.486 E21.04666
G1 X166.161 Y118.854 E21.13491
G1 X167.441 Y121.221 E21.22441
G1 X168.755 Y123.491 E21.31165
G1 X170.172 Y125.793 E21.40155
G1 X170.893 Y126.926 E21.44622
G1 X170.97 Y127.052 E21.45113
G1 X171.093 Y127.257 E21.45908
G1 X171.503 Y128.09 E21.48996
G1 X171.76 Y128.744 E21.51333
G1 X171.797 Y128.842 E21.51682
G1 X172.291 Y130.17 E21.56394
G1 X173.286 Y132.627 E21.65211
G1 X174.363 Y135.085 E21.74137
G1 X175.511 Y137.519 E21.83088
G1 X176.711 Y139.883 E21.91905
G1 X177.975 Y142.209 E22.0071
G1 X179.339 Y144.557 E22.09742
G1 X179.885 Y145.442 E22.132
G1 X179.924 Y145.507 E22.13452
G1 X180.295 Y146.127 E22.15856
G1 X180.604 Y146.72 E22.1808
G1 X180.84 Y147.346 E22.20305
G1 X180.999 Y147.996 E22.2253
G1 X181.087 Y148.831 E22.25323
G1 X181.097 Y149.159 E22.26414
G1 X181.1 Y149.33 E22.26983
G1 X181.1 Y154.264 E22.43394
G1 X181.099 Y154.341 E22.4365
G1 X181.089 Y155.067 E22.46065
G1 X181.04 Y155.734 E22.48289
G1 X180.912 Y156.391 E22.50516
G1 X180.706 Y157.028 E22.52742
G1 X180.426 Y157.635 E22.54966
G1 X180.075 Y158.205 E22.57192
G1 X179.659 Y158.729 E22.59417
G1 X179.184 Y159.199 E22.6164
G1 X178.655 Y159.61 E22.63868
G1 X178.082 Y159.954 E22.66091
G1 X177.471 Y160.228 E22.68318
G1 X176.832 Y160.427 E22.70544
G1 X176.128 Y160.553 E22.72923
G1 X174.891 Y160.695 E22.77064
G1 X172.165 Y161.047 E22.86206
G1 X169.533 Y161.461 E22.95068
G1 X166.876 Y161.958 E23.04058
G1 X164.327 Y162.51 E23.12733
G1 X161.714 Y163.152 E23.21682
G1 X159.127 Y163.867 E23.30609
G1 X156.574 Y164.65 E23.39491
G1 X154.026 Y165.512 E23.48437
G1 X152.608 Y166.037 E23.53466
G1 X152.537 Y166.063 E23.53718
G1 X151.976 Y166.262 E23.55698
G1 X151.333 Y166.447 E23.57923
G1 X150.363 Y166.578 E23.61179
G1 X150.018 Y166.594 E23.62327
G1 X149.759 Y166.6 E23.63189
G1 X140.207 Y166.6 E23.94959
G1 X140.127 Y166.599 E23.95225
G1 X139.425 Y166.589 E23.9756
G1 X138.758 Y166.54 E23.99785
G1 X138.102 Y166.411 E24.02008
G1 X137.465 Y166.205 E24.04235
G1 X136.869 Y165.931 E24.06417
G1 X136.616 Y165.796 E24.07371
G1 X134.223 Y164.548 E24.16347
G1 X131.824 Y163.382 E24.25219
G1 X129.389 Y162.283 E24.34104
G1 X126.93 Y161.255 E24.42969
G1 X124.414 Y160.285 E24.51937
G1 X121.902 Y159.4 E24.60796
G1 X119.399 Y158.595 E24.69541
G1 X116.798 Y157.84 E24.78549
G1 X114.202 Y157.165 E24.8747
G1 X111.639 Y156.575 E24.96218
G1 X108.97 Y156.039 E25.05272
G1 X106.396 Y155.6 E25.13957
G1 X103.723 Y155.219 E25.22937
G1 X101.088 Y154.92 E25.31757
G1 X98.419 Y154.694 E25.40666
G1 X97.688 Y154.652 E25.43102
G1 X97.608 Y154.647 E25.43368
G1 X96.611 Y154.576 E25.46693
G1 X95.948 Y154.489 E25.48917
G1 X95.3 Y154.323 E25.51142
G1 X94.676 Y154.081 E25.53368
G1 X94.086 Y153.766 E25.55592
G1 X93.537 Y153.384 E25.57817
G1 X93.038 Y152.938 E25.60043
G1 X92.595 Y152.436 E25.62269
G1 X92.216 Y151.885 E25.64494
G1 X91.905 Y151.293 E25.66718
G1 X91.666 Y150.668 E25.68944
G1 X91.504 Y150.019 E25.71168
G1 X91.411 Y149.142 E25.74102
G1 X91.402 Y148.81 E25.75206
G1 X91.4 Y148.658 E25.75712
G1 X91.4 Y144.707 E25.88853
G1 X91.401 Y144.627 E25.89119
G1 X91.411 Y143.93 E25.91437
G1 X91.46 Y143.262 E25.93665
G1 X91.608 Y142.535 E25.96133
G1 X91.924 Y141.377 E26.00125
G1 X92.67 Y138.539 E26.09885
G1 X93.278 Y135.909 E26.18863
G1 X93.796 Y133.334 E26.27599
G1 X94.25 Y130.686 E26.36535
G1 X94.625 Y128.071 E26.45322
G1 X94.933 Y125.378 E26.54337
G1 X95.157 Y122.763 E26.63066
G1 X95.311 Y120.078 E26.72011
G1 X95.39 Y117.377 E26.80999
G1 X95.4 Y115.962 E26.85705
G1 X95.4 Y105.079 E27.21902
G1 X95.401 Y104.99 E27.22198
G1 X95.412 Y104.301 E27.2449
G1 X95.462 Y103.633 E27.26718
G1 X95.592 Y102.977 E27.28942
G1 X95.799 Y102.341 E27.31167
