;FLAVOR:Marlin
;TIME:2020
;Filament used: 1.69778m
;Layer height: 0.3
;MINX:90.435
;MINY:108.064
;MINZ:0.2
;MAXX:140.565
;MAXY:162.707
;MAXZ:26.3
;Generated with Cura_SteamEngine 4.1.0
M140 S60
M105
M190 S60
M104 S200
M105
M109 S200
M82 ;absolute extrusion mode
; Ender 3 Custom Start G-code
G28 ; Home all axes
G92 E0 ; Reset Extruder
G1 Z2.0 F3000 ; Move Z Axis up little to prevent scratching of Heat Bed
G1 X0.1 Y20 Z0.3 F5000.0 ; Move to start position
G1 X0.1 Y200.0 Z0.3 F1500.0 E15 ; Draw the first line
G1 X0.4 Y200.0 Z0.3 F5000.0 ; Move to side a little
G1 X0.4 Y20 Z0.3 F1500.0 E30 ; Draw the second line
G92 E0 ; Reset Extruder
G1 Z2.0 F3000 ; Move Z Axis up little to prevent scratching of Heat Bed
; End of custom start GCode
G92 E0
G92 E0
G1 F2400 E-5
;LAYER_COUNT:88
;LAYER:0
M107
M204 S500
M205 X10 Y10
G0 F3600 X96.522 Y113.567 Z0.2
;TYPE:SKIRT
G1 F2400 E0
G1 F1800 X97.075 Y113.114 E0.02378
G1 X97.676 Y112.726 E0.04757
G1 X98.317 Y112.408 E0.07137
G1 X98.989 Y112.163 E0.09516
G1 X99.549 Y112.02 E0.11438
G1 X100.44 Y111.836 E0.14464
G1 X103.025 Y111.277 E0.23261
G1 X105.641 Y110.633 E0.32221
G1 X108.161 Y109.938 E0.40916
G1 X110.693 Y109.16 E0.49726
G1 X112.521 Y108.542 E0.56144
G1 X112.607 Y108.514 E0.56445
G1 X113.01 Y108.384 E0.57853
G1 X113.702 Y108.203 E0.60232
G1 X114.762 Y108.079 E0.63782
G1 X115.092 Y108.068 E0.6488
G1 X115.305 Y108.064 E0.65588
G1 X119.318 Y108.064 E0.78936
G1 X119.41 Y108.065 E0.79242
G1 X120.108 Y108.075 E0.81564
G1 X120.821 Y108.125 E0.83941
G1 X121.525 Y108.254 E0.86321
G1 X122.049 Y108.405 E0.88135
G1 X123.052 Y108.741 E0.91653
G1 X125.57 Y109.55 E1.0045
G1 X128.123 Y110.292 E1.09292
G1 X130.701 Y110.962 E1.18152
G1 X133.267 Y111.552 E1.26909
G1 X134.945 Y111.89 E1.32602
G1 X135.028 Y111.907 E1.32884
G1 X135.502 Y112.009 E1.34497
G1 X136.192 Y112.199 E1.36877
G1 X136.856 Y112.464 E1.39255
G1 X137.487 Y112.801 E1.41634
G1 X138.076 Y113.207 E1.44013
G1 X138.616 Y113.676 E1.46392
G1 X139.1 Y114.202 E1.4877
G1 X139.523 Y114.779 E1.51149
G1 X139.878 Y115.4 E1.53528
G1 X140.163 Y116.057 E1.5591
G1 X140.372 Y116.741 E1.58289
G1 X140.503 Y117.444 E1.60668
G1 X140.553 Y118.087 E1.62813
G1 X140.562 Y118.408 E1.63881
G1 X140.565 Y118.587 E1.64476
G1 X140.565 Y122.077 E1.76084
G1 X140.564 Y122.169 E1.7639
G1 X140.554 Y122.867 E1.78712
G1 X140.504 Y123.58 E1.81089
G1 X140.329 Y124.462 E1.8408
G1 X139.999 Y125.67 E1.88245
G1 X139.266 Y128.458 E1.97833
G1 X138.676 Y131.01 E2.06545
G1 X138.156 Y133.6 E2.15331
G1 X137.704 Y136.233 E2.24217
G1 X137.334 Y138.814 E2.32889
G1 X137.032 Y141.458 E2.4174
G1 X136.802 Y144.136 E2.5068
G1 X136.653 Y146.739 E2.59352
G1 X136.576 Y149.391 E2.68176
G1 X136.565 Y150.828 E2.72955
G1 X136.565 Y155.571 E2.88731
G1 X136.564 Y155.668 E2.89053
G1 X136.553 Y156.395 E2.91472
G1 X136.502 Y157.108 E2.93849
G1 X136.372 Y157.812 E2.9623
G1 X136.165 Y158.496 E2.98607
G1 X135.882 Y159.153 E3.00986
G1 X135.528 Y159.774 E3.03364
G1 X135.106 Y160.352 E3.05744
G1 X134.623 Y160.88 E3.08124
G1 X134.084 Y161.35 E3.10503
G1 X133.495 Y161.756 E3.12882
G1 X132.865 Y162.095 E3.15262
G1 X132.202 Y162.362 E3.17639
G1 X131.512 Y162.552 E3.20019
G1 X130.806 Y162.665 E3.22397
G1 X130.335 Y162.695 E3.23967
G1 X130.017 Y162.704 E3.25025
G1 X129.836 Y162.707 E3.25627
G1 X97.549 Y162.707 E4.33014
G1 X97.467 Y162.706 E4.33287
G1 X96.763 Y162.697 E4.35629
G1 X96.05 Y162.648 E4.38006
G1 X95.346 Y162.52 E4.40386
G1 X94.661 Y162.314 E4.42765
G1 X94.003 Y162.033 E4.45144
G1 X93.381 Y161.68 E4.47523
G1 X92.802 Y161.26 E4.49902
G1 X92.274 Y160.777 E4.52282
G1 X91.803 Y160.239 E4.54661
G1 X91.394 Y159.652 E4.5704
G1 X91.054 Y159.023 E4.59418
G1 X90.786 Y158.36 E4.61797
G1 X90.594 Y157.671 E4.64176
G1 X90.48 Y156.965 E4.66554
G1 X90.448 Y156.477 E4.68181
G1 X90.438 Y156.12 E4.69369
G1 X90.435 Y155.941 E4.69964
G1 X90.435 Y131.4 E5.51588
G1 X90.436 Y131.308 E5.51894
G1 X90.446 Y130.611 E5.54212
G1 X90.496 Y129.898 E5.5659
G1 X90.625 Y129.194 E5.5897
G1 X90.826 Y128.529 E5.61281
G1 X90.99 Y128.075 E5.62886
G1 X91.037 Y127.947 E5.6334
G1 X91.671 Y126.303 E5.692
G1 X92.547 Y123.821 E5.77954
G1 X93.371 Y121.26 E5.86902
G1 X94.094 Y118.774 E5.95514
G1 X94.504 Y117.199 E6.00927
G1 X94.531 Y117.101 E6.01265
G1 X94.676 Y116.578 E6.0307
G1 X94.905 Y115.901 E6.05447
G1 X95.208 Y115.253 E6.07826
G1 X95.582 Y114.643 E6.10206
G1 X96.022 Y114.079 E6.12585
G1 X96.522 Y113.567 E6.14965
G0 F3600 X96.874 Y113.789
G1 F1800 X97.418 Y113.361 E6.17268
G1 X98.009 Y112.999 E6.19573
G1 X98.637 Y112.708 E6.21875
G1 X99.63 Y112.412 E6.25321
G1 X100.509 Y112.23 E6.28307
G1 X103.141 Y111.661 E6.37263
G1 X105.695 Y111.032 E6.46011
G1 X108.289 Y110.317 E6.54961
G1 X110.823 Y109.539 E6.63777
G1 X112.649 Y108.921 E6.70189
G1 X112.73 Y108.895 E6.70472
G1 X113.133 Y108.765 E6.7188
G1 X113.803 Y108.591 E6.74183
G1 X114.775 Y108.478 E6.77437
G1 X115.105 Y108.467 E6.78536
G1 X115.305 Y108.464 E6.79201
G1 X119.318 Y108.464 E6.92548
G1 X119.404 Y108.465 E6.92834
G1 X120.102 Y108.475 E6.95156
G1 X120.793 Y108.524 E6.9746
G1 X121.473 Y108.654 E6.99763
G1 X121.922 Y108.785 E7.01318
G1 X122.854 Y109.097 E7.04587
G1 X125.474 Y109.939 E7.1374
G1 X128.025 Y110.68 E7.22576
G1 X130.608 Y111.351 E7.31452
G1 X133.177 Y111.942 E7.4022
G1 X134.866 Y112.282 E7.4595
G1 X134.944 Y112.298 E7.46215
G1 X135.418 Y112.4 E7.47827
G1 X136.086 Y112.585 E7.50133
G1 X136.728 Y112.845 E7.52437
G1 X137.335 Y113.177 E7.54738
G1 X137.9 Y113.578 E7.57042
G1 X138.416 Y114.04 E7.59346
G1 X138.874 Y114.559 E7.61648
G1 X139.27 Y115.128 E7.63954
G1 X139.597 Y115.738 E7.66256
G1 X139.852 Y116.382 E7.68559
G1 X140.032 Y117.051 E7.70864
G1 X140.133 Y117.736 E7.73167
G1 X140.154 Y118.098 E7.74373
G1 X140.163 Y118.419 E7.75441
G1 X140.165 Y118.587 E7.76
G1 X140.165 Y122.077 E7.87607
G1 X140.164 Y122.163 E7.87893
G1 X140.154 Y122.861 E7.90215
G1 X140.105 Y123.552 E7.92519
G1 X139.943 Y124.356 E7.95247
G1 X139.613 Y125.564 E7.99412
G1 X138.886 Y128.331 E8.08928
G1 X138.275 Y130.972 E8.17944
G1 X137.762 Y133.526 E8.26608
G1 X137.311 Y136.151 E8.35467
G1 X136.935 Y138.779 E8.44296
G1 X136.634 Y141.415 E8.53121
G1 X136.405 Y144.08 E8.62017
G1 X136.252 Y146.74 E8.70879
G1 X136.176 Y149.376 E8.7965
G1 X136.165 Y150.825 E8.8447
G1 X136.165 Y155.571 E9.00255
G1 X136.164 Y155.662 E9.00557
G1 X136.153 Y156.389 E9.02976
G1 X136.103 Y157.079 E9.05277
G1 X135.973 Y157.76 E9.07583
G1 X135.766 Y158.421 E9.09886
G1 X135.484 Y159.053 E9.12188
G1 X135.131 Y159.649 E9.14492
G1 X134.712 Y160.2 E9.16794
G1 X134.232 Y160.699 E9.19097
G1 X133.697 Y161.14 E9.21403
G1 X133.116 Y161.516 E9.23705
G1 X132.495 Y161.822 E9.26008
G1 X131.843 Y162.055 E9.28311
G1 X131.168 Y162.212 E9.30616
G1 X130.324 Y162.296 E9.33437
G1 X130.006 Y162.305 E9.34495
G1 X129.836 Y162.307 E9.3506
G1 X97.472 Y162.307 E10.42703
G1 X96.768 Y162.298 E10.45045
G1 X96.077 Y162.249 E10.47349
G1 X95.397 Y162.121 E10.4965
G1 X94.736 Y161.915 E10.51953
G1 X94.102 Y161.635 E10.54258
G1 X93.506 Y161.283 E10.56561
G1 X92.954 Y160.865 E10.58864
G1 X92.453 Y160.386 E10.61169
G1 X92.011 Y159.853 E10.63472
G1 X91.634 Y159.272 E10.65776
G1 X91.326 Y158.652 E10.68078
G1 X91.092 Y158 E10.70382
G1 X90.934 Y157.326 E10.72685
G1 X90.847 Y156.466 E10.7556
G1 X90.837 Y156.109 E10.76747
G1 X90.835 Y155.941 E10.77306
G1 X90.835 Y131.4 E11.5893
G1 X90.836 Y131.314 E11.59216
G1 X90.846 Y130.617 E11.61534
G1 X90.895 Y129.926 E11.63839
G1 X91.025 Y129.246 E11.66141
G1 X91.202 Y128.665 E11.68161
G1 X91.366 Y128.211 E11.69767
G1 X91.411 Y128.091 E11.70193
G1 X92.046 Y126.443 E11.76067
G1 X92.923 Y123.961 E11.84823
G1 X93.75 Y121.389 E11.93808
G1 X94.479 Y118.882 E12.02492
G1 X94.891 Y117.3 E12.07929
G1 X94.916 Y117.208 E12.08246
G1 X95.061 Y116.685 E12.10052
G1 X95.284 Y116.029 E12.12356
G1 X95.582 Y115.404 E12.14659
G1 X95.949 Y114.817 E12.16962
G1 X96.382 Y114.276 E12.19266
G1 X96.874 Y113.789 E12.21569
G0 F3600 X97.224 Y114.014
G1 F1800 X97.76 Y113.613 E12.23795
G1 X98.339 Y113.279 E12.26018
G1 X98.954 Y113.016 E12.28243
G1 X99.71 Y112.804 E12.30855
G1 X100.601 Y112.62 E12.33881
G1 X103.216 Y112.054 E12.42779
G1 X105.826 Y111.412 E12.51719
G1 X108.399 Y110.702 E12.60597
G1 X110.942 Y109.921 E12.69445
G1 X112.778 Y109.3 E12.75891
G1 X112.853 Y109.275 E12.76154
G1 X113.256 Y109.145 E12.77562
G1 X113.904 Y108.978 E12.79788
G1 X114.788 Y108.878 E12.82747
G1 X115.118 Y108.867 E12.83845
G1 X115.305 Y108.864 E12.84467
G1 X119.318 Y108.864 E12.97815
G1 X119.398 Y108.865 E12.98081
G1 X120.096 Y108.875 E13.00403
G1 X120.763 Y108.924 E13.02627
G1 X121.42 Y109.053 E13.04854
G1 X121.795 Y109.164 E13.06155
G1 X122.732 Y109.478 E13.09441
G1 X125.355 Y110.321 E13.18605
G1 X127.917 Y111.065 E13.27478
G1 X130.489 Y111.734 E13.36317
G1 X133.115 Y112.337 E13.45279
G1 X134.787 Y112.674 E13.50952
G1 X134.86 Y112.689 E13.512
G1 X135.334 Y112.791 E13.52812
G1 X135.979 Y112.971 E13.5504
G1 X136.597 Y113.226 E13.57263
G1 X137.181 Y113.553 E13.59489
G1 X137.721 Y113.947 E13.61713
G1 X138.211 Y114.403 E13.63939
G1 X138.642 Y114.915 E13.66165
G1 X139.01 Y115.473 E13.68388
G1 X139.308 Y116.072 E13.70613
G1 X139.533 Y116.702 E13.72838
G1 X139.681 Y117.355 E13.75065
G1 X139.754 Y118.109 E13.77585
G1 X139.763 Y118.43 E13.78653
G1 X139.765 Y118.587 E13.79175
G1 X139.765 Y122.077 E13.90783
G1 X139.764 Y122.157 E13.91049
G1 X139.754 Y122.855 E13.93371
G1 X139.705 Y123.522 E13.95595
G1 X139.557 Y124.251 E13.98069
G1 X139.227 Y125.459 E14.02234
G1 X138.495 Y128.245 E14.11815
G1 X137.887 Y130.875 E14.20793
G1 X137.369 Y133.45 E14.29529
G1 X136.915 Y136.098 E14.38465
G1 X136.54 Y138.713 E14.47252
G1 X136.232 Y141.406 E14.56267
G1 X136.008 Y144.021 E14.64996
G1 X135.854 Y146.706 E14.73941
G1 X135.775 Y149.407 E14.82929
G1 X135.765 Y150.822 E14.87635
G1 X135.765 Y155.571 E15.0343
G1 X135.764 Y155.656 E15.03713
G1 X135.753 Y156.383 E15.06131
G1 X135.703 Y157.05 E15.08356
G1 X135.574 Y157.706 E15.1058
G1 X135.367 Y158.343 E15.12808
G1 X135.086 Y158.95 E15.15032
G1 X134.735 Y159.519 E15.17256
G1 X134.318 Y160.042 E15.19481
G1 X133.842 Y160.512 E15.21705
G1 X133.313 Y160.922 E15.23932
G1 X132.739 Y161.266 E15.26157
G1 X132.128 Y161.539 E15.28383
G1 X131.489 Y161.737 E15.30608
G1 X130.831 Y161.857 E15.32833
G1 X130.312 Y161.896 E15.34564
G1 X129.994 Y161.905 E15.35622
G1 X129.836 Y161.907 E15.36147
G1 X97.477 Y161.907 E16.43774
G1 X96.773 Y161.898 E16.46116
G1 X96.106 Y161.849 E16.4834
G1 X95.449 Y161.721 E16.50566
G1 X94.813 Y161.516 E16.52789
G1 X94.205 Y161.237 E16.55014
G1 X93.635 Y160.886 E16.5724
G1 X93.11 Y160.471 E16.59466
G1 X92.639 Y159.996 E16.61691
G1 X92.228 Y159.468 E16.63916
G1 X91.883 Y158.895 E16.66141
G1 X91.609 Y158.284 E16.68368
G1 X91.41 Y157.646 E16.70591
G1 X91.288 Y156.988 E16.72817
G1 X91.247 Y156.455 E16.74595
G1 X91.237 Y156.098 E16.75783
G1 X91.235 Y155.941 E16.76305
G1 X91.235 Y131.4 E17.57929
G1 X91.236 Y131.32 E17.58195
G1 X91.246 Y130.623 E17.60513
G1 X91.295 Y129.955 E17.62741
G1 X91.424 Y129.299 E17.64965
G1 X91.578 Y128.8 E17.66701
G1 X91.742 Y128.346 E17.68307
G1 X91.784 Y128.235 E17.68702
G1 X92.421 Y126.583 E17.74591
G1 X93.305 Y124.079 E17.83423
G1 X94.129 Y121.518 E17.92371
G1 X94.877 Y118.947 E18.01276
G1 X95.279 Y117.401 E18.06589
G1 X95.302 Y117.315 E18.06885
G1 X95.447 Y116.792 E18.08691
G1 X95.663 Y116.159 E18.10915
G1 X95.954 Y115.556 E18.13142
G1 X96.315 Y114.993 E18.15367
G1 X96.74 Y114.476 E18.17593
G1 X97.224 Y114.014 E18.19818
G0 F3600 X97.573 Y114.245
G1 F1800 X98.098 Y113.871 E18.21962
G1 X98.666 Y113.566 E18.24106
G1 X99.267 Y113.333 E18.2625
G1 X99.791 Y113.195 E18.28052
G1 X100.682 Y113.011 E18.31078
G1 X100.682 Y113.012 E18.31082
G1 X103.324 Y112.44 E18.40073
G1 X105.889 Y111.809 E18.48858
G1 X108.527 Y111.081 E18.5796
G1 X111.072 Y110.299 E18.66815
G1 X112.906 Y109.679 E18.73255
G1 X112.976 Y109.656 E18.735
G1 X113.379 Y109.526 E18.74908
G1 X114.003 Y109.367 E18.7705
G1 X114.802 Y109.278 E18.79724
G1 X115.132 Y109.267 E18.80822
G1 X115.305 Y109.264 E18.81397
G1 X119.318 Y109.264 E18.94745
G1 X119.392 Y109.265 E18.94991
G1 X120.09 Y109.275 E18.97313
G1 X120.733 Y109.324 E18.99457
G1 X121.668 Y109.543 E19.02651
G1 X122.665 Y109.877 E19.06149
G1 X125.217 Y110.697 E19.15064
G1 X127.811 Y111.45 E19.24048
G1 X130.412 Y112.127 E19.32987
G1 X133.017 Y112.726 E19.41877
G1 X134.708 Y113.066 E19.47614
G1 X134.776 Y113.08 E19.47845
G1 X135.25 Y113.182 E19.49458
G1 X135.871 Y113.357 E19.51604
G1 X136.465 Y113.607 E19.53747
G1 X137.024 Y113.928 E19.55891
G1 X137.538 Y114.316 E19.58033
G1 X138.001 Y114.765 E19.60178
G1 X138.405 Y115.268 E19.62324
G1 X138.743 Y115.817 E19.64468
G1 X139.011 Y116.403 E19.66611
G1 X139.204 Y117.018 E19.68755
G1 X139.32 Y117.652 E19.70899
G1 X139.354 Y118.12 E19.7246
G1 X139.363 Y118.441 E19.73528
G1 X139.365 Y118.587 E19.74013
G1 X139.365 Y122.077 E19.85621
G1 X139.364 Y122.151 E19.85867
G1 X139.354 Y122.849 E19.88189
G1 X139.305 Y123.492 E19.90334
G1 X139.171 Y124.145 E19.92551
G1 X138.841 Y125.353 E19.96716
G1 X138.106 Y128.15 E20.06335
G1 X137.498 Y130.778 E20.15307
G1 X136.977 Y133.375 E20.24116
G1 X136.518 Y136.045 E20.33127
G1 X136.141 Y138.678 E20.41974
G1 X135.838 Y141.328 E20.50845
G1 X135.606 Y144.035 E20.59882
G1 X135.455 Y146.671 E20.68663
G1 X135.376 Y149.393 E20.77721
G1 X135.365 Y150.82 E20.82467
G1 X135.365 Y155.571 E20.98269
G1 X135.364 Y155.65 E20.98532
G1 X135.353 Y156.377 E21.0095
G1 X135.304 Y157.019 E21.03091
G1 X135.175 Y157.651 E21.05237
G1 X134.969 Y158.262 E21.07381
G1 X134.689 Y158.843 E21.09526
G1 X134.339 Y159.384 E21.1167
G1 X133.925 Y159.878 E21.13813
G1 X133.453 Y160.317 E21.15957
G1 X132.93 Y160.695 E21.18104
G1 X132.365 Y161.005 E21.20247
G1 X131.766 Y161.242 E21.2239
G1 X131.142 Y161.403 E21.24533
G1 X130.301 Y161.496 E21.27347
G1 X129.983 Y161.505 E21.28405
G1 X129.836 Y161.507 E21.28894
G1 X97.483 Y161.507 E22.36501
G1 X96.779 Y161.498 E22.38842
G1 X96.136 Y161.449 E22.40987
G1 X95.504 Y161.322 E22.43131
G1 X94.892 Y161.117 E22.45278
G1 X94.311 Y160.839 E22.4742
G1 X93.769 Y160.49 E22.49564
G1 X93.274 Y160.077 E22.51709
G1 X92.833 Y159.607 E22.53852
G1 X92.455 Y159.085 E22.55996
G1 X92.144 Y158.52 E22.58141
G1 X91.905 Y157.921 E22.60286
G1 X91.742 Y157.297 E22.62431
G1 X91.647 Y156.444 E22.65286
G1 X91.637 Y156.087 E22.66473
G1 X91.635 Y155.941 E22.66959
G1 X91.635 Y131.4 E23.48583
G1 X91.636 Y131.325 E23.48832
G1 X91.646 Y130.628 E23.51151
G1 X91.695 Y129.986 E23.53292
G1 X91.823 Y129.354 E23.55437
G1 X91.954 Y128.936 E23.56894
G1 X92.118 Y128.482 E23.58499
G1 X92.157 Y128.379 E23.58866
G1 X92.795 Y126.724 E23.64765
G1 X93.691 Y124.187 E23.73714
G1 X94.508 Y121.647 E23.82588
G1 X95.26 Y119.063 E23.91539
G1 X95.666 Y117.501 E23.96907
G1 X95.687 Y117.422 E23.97179
G1 X95.832 Y116.899 E23.98984
G1 X96.042 Y116.289 E24.0113
G1 X96.327 Y115.711 E24.03273
G1 X96.68 Y115.172 E24.05416
G1 X97.098 Y114.681 E24.07561
G1 X97.573 Y114.245 E24.09705
G1 F2400 E19.09705
;MESH:PiCam_v2_-_Housing_rear.stl
G0 F3600 X114.31 Y115.078
G0 X115.589 Y115.078
G0 X119.355 Y118.927
G0 X119.425 Y118.857
;TYPE:WALL-INNER
G1 F2400 E24.09705
G1 F1800 X133.565 Y118.857 E24.56735
G1 X133.565 Y122.192 E24.67828
G1 X132.795 Y122.202 E24.70389
G1 X101.435 Y122.202 E25.74693
G1 X101.435 Y118.874 E25.85762
G1 X115.575 Y118.856 E26.32791
G1 X115.575 Y115.064 E26.45404
G1 X119.425 Y115.064 E26.58209
G1 X119.425 Y118.857 E26.70824
G0 F3600 X119.825 Y118.457
;TYPE:WALL-OUTER
G1 F1800 X133.965 Y118.457 E27.17854
G1 X133.965 Y122.587 E27.31591
G1 X132.8 Y122.602 E27.35466
G1 X101.035 Y122.602 E28.41117
G1 X101.035 Y118.475 E28.54843
G1 X115.175 Y118.457 E29.01873
G1 X115.175 Y114.664 E29.14489
G1 X119.825 Y114.664 E29.29954
G1 X119.825 Y118.457 E29.4257
G0 F3600 X120.025 Y118.457
G0 X120.025 Y118.957
G0 X119.035 Y119.247
;TYPE:SKIN
G1 F1800 X133.175 Y119.247 E29.896
G1 X133.175 Y121.807 E29.98114
G1 X132.79 Y121.812 E29.99395
G1 X101.825 Y121.812 E31.02385
G1 X101.825 Y119.264 E31.1086
G1 X115.965 Y119.246 E31.5789
G1 X115.965 Y115.454 E31.70502
G1 X119.035 Y115.454 E31.80713
G1 X119.035 Y119.247 E31.93328
G0 F3600 X132.994 Y119.983
G1 F1800 X132.437 Y119.426 E31.95948
G0 F3600 X131.871 Y119.426
