;FLAVOR:Marlin
;TIME:12422
;Filament used: 15.2497m
;Layer height: 0.3
;MINX:56.139
;MINY:46.379
;MINZ:0.2
;MAXX:178.853
;MAXY:188.62
;MAXZ:16.1
;Generated with Cura_SteamEngine 4.1.0
M140 S60
M105
M190 S60
M104 S200
M105
M109 S200
M82 ;absolute extrusion mode
; Ender 3 Custom Start G-code
G28 ; Home all axes
G92 E0 ; Reset Extruder
G1 Z2.0 F3000 ; Move Z Axis up little to prevent scratching of Heat Bed
G1 X0.1 Y20 Z0.3 F5000.0 ; Move to start position
G1 X0.1 Y200.0 Z0.3 F1500.0 E15 ; Draw the first line
G1 X0.4 Y200.0 Z0.3 F5000.0 ; Move to side a little
G1 X0.4 Y20 Z0.3 F1500.0 E30 ; Draw the second line
G92 E0 ; Reset Extruder
G1 Z2.0 F3000 ; Move Z Axis up little to prevent scratching of Heat Bed
; End of custom start GCode
G92 E0
G92 E0
G1 F2400 E-5
;LAYER_COUNT:54
;LAYER:0
M107
M204 S500
M205 X10 Y10
G0 F3600 X60.445 Y58.146 Z0.2
;TYPE:SKIRT
G1 F2400 E0
G1 F1800 X60.582 Y58.009 E0.00644
G1 X60.85 Y57.748 E0.01889
G1 X61.667 Y57.075 E0.05409
G1 X62.765 Y56.313 E0.09854
G1 X64.821 Y54.852 E0.18243
G1 X65.35 Y54.514 E0.20331
G1 X65.946 Y54.173 E0.22615
G1 X66.294 Y53.988 E0.23926
G1 X66.651 Y53.812 E0.2525
G1 X66.802 Y53.74 E0.25806
G1 X67.465 Y53.435 E0.28234
G1 X69.877 Y52.281 E0.37127
G1 X72.28 Y51.05 E0.46107
G1 X74.569 Y49.789 E0.54799
G1 X76.387 Y48.731 E0.61795
G1 X76.843 Y48.459 E0.63561
G1 X76.885 Y48.434 E0.63724
G1 X77.693 Y47.96 E0.66839
G1 X77.776 Y47.912 E0.67158
G1 X78.406 Y47.555 E0.69567
G1 X79.047 Y47.238 E0.71945
G1 X79.719 Y46.994 E0.74323
G1 X80.415 Y46.827 E0.76704
G1 X81.436 Y46.724 E0.80117
G1 X81.947 Y46.714 E0.81817
G1 X82.072 Y46.713 E0.82232
G1 X91.336 Y46.713 E1.13045
G1 X91.426 Y46.714 E1.13344
G1 X91.919 Y46.721 E1.14984
G1 X94.393 Y46.713 E1.23212
G1 X94.417 Y46.713 E1.23292
G1 X98.728 Y46.716 E1.37631
G1 X98.778 Y46.716 E1.37797
G1 X109.785 Y46.809 E1.74408
G1 X109.869 Y46.81 E1.74687
G1 X110.349 Y46.82 E1.76284
G1 X111.755 Y46.827 E1.8096
G1 X111.826 Y46.828 E1.81197
G1 X113.026 Y46.847 E1.85188
G1 X113.384 Y46.863 E1.8638
G1 X114.454 Y46.94 E1.89948
G1 X114.515 Y46.944 E1.90152
G1 X115.935 Y47.06 E1.9489
G1 X118.584 Y47.201 E2.03713
G1 X121.22 Y47.267 E2.12483
G1 X123.863 Y47.258 E2.21274
G1 X126.511 Y47.174 E2.30086
G1 X129.178 Y47.014 E2.38972
G1 X131.789 Y46.784 E2.4769
G1 X134.255 Y46.499 E2.55947
G1 X134.586 Y46.47 E2.57052
G1 X135.633 Y46.404 E2.60541
G1 X135.864 Y46.393 E2.6131
G1 X136.384 Y46.379 E2.6304
G1 X136.911 Y46.387 E2.64793
G1 X137.199 Y46.403 E2.65753
G1 X137.393 Y46.417 E2.664
G1 X137.811 Y46.453 E2.67795
G1 X137.907 Y46.462 E2.68116
G1 X138.568 Y46.529 E2.70326
G1 X139.267 Y46.639 E2.72679
G1 X139.593 Y46.709 E2.73788
G1 X139.801 Y46.757 E2.74498
G1 X140.057 Y46.821 E2.75376
G1 X140.152 Y46.845 E2.75702
G1 X140.813 Y47.021 E2.77977
G1 X141.493 Y47.244 E2.80357
G1 X141.859 Y47.4 E2.8168
G1 X142.51 Y47.702 E2.84067
G1 X142.684 Y47.786 E2.8471
G1 X143.117 Y48.003 E2.86321
G1 X143.738 Y48.359 E2.88701
G1 X144.466 Y48.91 E2.91738
G1 X144.675 Y49.093 E2.92662
G1 X144.808 Y49.213 E2.93258
G1 X145.134 Y49.515 E2.94736
G1 X145.225 Y49.601 E2.95152
G1 X145.689 Y50.048 E2.97295
G1 X146.176 Y50.572 E2.99674
G1 X146.601 Y51.147 E3.02053
G1 X146.985 Y51.818 E3.04624
G1 X147.231 Y52.315 E3.06468
G1 X147.512 Y52.973 E3.08848
G1 X147.734 Y53.726 E3.11459
G1 X147.883 Y54.377 E3.1368
G1 X147.933 Y54.62 E3.14506
G1 X148.227 Y56.178 E3.19779
G1 X148.788 Y58.757 E3.28557
G1 X149.417 Y61.295 E3.37254
G1 X150.133 Y63.875 E3.4616
G1 X150.922 Y66.431 E3.55057
G1 X151.771 Y68.927 E3.63826
G1 X152.691 Y71.404 E3.72614
G1 X153.673 Y73.833 E3.81328
G1 X154.756 Y76.305 E3.90304
G1 X155.863 Y78.653 E3.98938
G1 X157.073 Y81.04 E4.07839
G1 X158.335 Y83.365 E4.16638
G1 X159.66 Y85.65 E4.25423
G1 X161.051 Y87.899 E4.34219
G1 X162.51 Y90.116 E4.43046
G1 X164.019 Y92.271 E4.51796
G1 X165.608 Y94.412 E4.60664
G1 X167.253 Y96.5 E4.69505
G1 X168.921 Y98.5 E4.78167
G1 X170.209 Y99.941 E4.84595
G1 X170.267 Y100.007 E4.84887
G1 X171.178 Y101.055 E4.89506
G1 X171.346 Y101.256 E4.90377
G1 X171.494 Y101.441 E4.91165
G1 X171.671 Y101.674 E4.92138
G1 X172.085 Y102.243 E4.94479
G1 X172.486 Y102.867 E4.96946
G1 X173.051 Y103.87 E5.00775
G1 X173.098 Y103.955 E5.01098
G1 X173.31 Y104.346 E5.02577
G1 X175.445 Y107.974 E5.16578
G1 X175.9 Y108.914 E5.20052
G1 X176.049 Y109.3 E5.21428
G1 X176.083 Y109.393 E5.21757
G1 X176.73 Y111.149 E5.27981
G1 X177.854 Y113.905 E5.37881
G1 X177.877 Y113.961 E5.38082
G1 X178.11 Y114.548 E5.40183
G1 X178.336 Y115.226 E5.4256
G1 X178.422 Y115.584 E5.43784
G1 X178.593 Y116.392 E5.46531
G1 X178.633 Y116.594 E5.47216
G1 X178.767 Y117.346 E5.49757
G1 X178.853 Y118.056 E5.52136
G1 X178.833 Y119.122 E5.55682
G1 X178.702 Y120.399 E5.59951
G1 X178.526 Y121.369 E5.6323
G1 X178.282 Y122.3 E5.66431
G1 X178.205 Y122.568 E5.67359
G1 X178.051 Y123.066 E5.69093
G1 X177.839 Y123.649 E5.71156
G1 X177.642 Y124.119 E5.72851
G1 X177.584 Y124.254 E5.7334
G1 X177.338 Y124.805 E5.75347
G1 X177.301 Y124.886 E5.75643
G1 X177.037 Y125.456 E5.77732
G1 X176.871 Y125.789 E5.7897
G1 X176.438 Y126.597 E5.82019
G1 X176.386 Y126.693 E5.82382
G1 X175.487 Y128.304 E5.88518
G1 X175.44 Y128.385 E5.88829
G1 X175.097 Y128.979 E5.91111
G1 X174.798 Y129.45 E5.92966
G1 X174.282 Y130.187 E5.95958
G1 X174.225 Y130.267 E5.96285
G1 X173.025 Y131.926 E6.03095
G1 X171.508 Y134.085 E6.11871
G1 X170.036 Y136.311 E6.20748
G1 X168.637 Y138.565 E6.29571
G1 X167.313 Y140.838 E6.3832
G1 X166.047 Y143.159 E6.47113
G1 X164.842 Y145.527 E6.55951
G1 X163.713 Y147.907 E6.64712
G1 X162.645 Y150.337 E6.7354
G1 X161.65 Y152.783 E6.82323
G1 X160.723 Y155.263 E6.91129
G1 X159.862 Y157.78 E6.99977
G1 X159.075 Y160.311 E7.08793
G1 X158.368 Y162.837 E7.17517
G1 X157.714 Y165.452 E7.26482
G1 X157.155 Y168 E7.35159
G1 X156.656 Y170.622 E7.44036
G1 X156.236 Y173.228 E7.52815
G1 X156.007 Y174.894 E7.58409
G1 X155.933 Y175.469 E7.60337
G1 X155.828 Y176.061 E7.62337
G1 X155.717 Y176.552 E7.64011
G1 X155.683 Y176.698 E7.64509
G1 X155.36 Y177.986 E7.68926
G1 X155.338 Y178.07 E7.69215
G1 X155.178 Y178.673 E7.7129
G1 X155.004 Y179.227 E7.73221
G1 X154.613 Y180.298 E7.77013
G1 X154.561 Y180.436 E7.77504
G1 X154.361 Y180.947 E7.79329
G1 X154.333 Y181.017 E7.7958
G1 X154.098 Y181.597 E7.81661
G1 X153.677 Y182.449 E7.84822
G1 X153.087 Y183.448 E7.88681
G1 X152.997 Y183.595 E7.89254
G1 X152.655 Y184.14 E7.91394
G1 X152.242 Y184.723 E7.9377
G1 X151.595 Y185.423 E7.96941
G1 X150.93 Y186.042 E7.99962
G1 X150.77 Y186.185 E8.00676
G1 X150.385 Y186.52 E8.02374
G1 X149.82 Y186.959 E8.04753
G1 X149.21 Y187.332 E8.07132
G1 X148.717 Y187.57 E8.08952
G1 X148.225 Y187.782 E8.10734
G1 X148.037 Y187.859 E8.1141
G1 X147.59 Y188.035 E8.13008
G1 X146.911 Y188.259 E8.15386
G1 X146.308 Y188.391 E8.17439
G1 X145.928 Y188.455 E8.18721
G1 X145.686 Y188.491 E8.19534
G1 X145.091 Y188.568 E8.2153
G1 X144.378 Y188.62 E8.23908
G1 X143.855 Y188.608 E8.25647
G1 X143.363 Y188.576 E8.27287
G1 X143.154 Y188.558 E8.27985
G1 X142.644 Y188.508 E8.29689
G1 X141.612 Y188.321 E8.33178
G1 X141.276 Y188.231 E8.34335
G1 X140.981 Y188.144 E8.35358
G1 X139.044 Y187.524 E8.42122
G1 X137.539 Y187.055 E8.47365
G1 X134.993 Y186.325 E8.56174
G1 X132.414 Y185.664 E8.6503
G1 X129.835 Y185.078 E8.73826
G1 X127.232 Y184.568 E8.82648
G1 X124.612 Y184.128 E8.91484
G1 X121.995 Y183.765 E9.00272
G1 X119.391 Y183.478 E9.08985
G1 X116.721 Y183.261 E9.17895
G1 X115.091 Y183.165 E9.23326
G1 X114.25 Y183.123 E9.26126
G1 X113.318 Y183.008 E9.2925
G1 X112.425 Y182.83 E9.32278
G1 X112.212 Y182.783 E9.33004
G1 X111.748 Y182.674 E9.34589
G1 X111.062 Y182.472 E9.36968
G1 X110.35 Y182.168 E9.39543
G1 X110.154 Y182.07 E9.40271
G1 X109.869 Y181.919 E9.41344
G1 X109.375 Y181.64 E9.43231
G1 X109.267 Y181.578 E9.43645
G1 X108.605 Y181.187 E9.46203
G1 X108.011 Y180.789 E9.48581
G1 X107.576 Y180.431 E9.50454
G1 X107.344 Y180.222 E9.51493
G1 X107.212 Y180.1 E9.52091
G1 X106.87 Y179.774 E9.53662
G1 X106.806 Y179.712 E9.53959
G1 X106.302 Y179.218 E9.56306
G1 X105.82 Y178.689 E9.58686
G1 X105.31 Y177.966 E9.61629
G1 X105.179 Y177.75 E9.62469
G1 X105.079 Y177.58 E9.63125
G1 X104.914 Y177.288 E9.64241
G1 X104.852 Y177.174 E9.64672
G1 X104.511 Y176.541 E9.67064
G1 X104.207 Y175.894 E9.69441
G1 X103.978 Y175.216 E9.71822
G1 X103.828 Y174.536 E9.74138
G1 X103.738 Y173.984 E9.75998
G1 X103.709 Y173.783 E9.76673
G1 X103.625 Y173.14 E9.7883
G1 X103.572 Y172.432 E9.81192
G1 X103.567 Y172.168 E9.8207
G1 X103.566 Y172.063 E9.82419
G1 X103.56 Y169.806 E9.89926
G1 X103.479 Y167.163 E9.98721
G1 X103.323 Y164.527 E10.07503
G1 X103.089 Y161.861 E10.16405
G1 X102.785 Y159.248 E10.25154
G1 X102.406 Y156.628 E10.33959
G1 X101.956 Y154.042 E10.42689
G1 X101.428 Y151.448 E10.51494
G1 X100.822 Y148.842 E10.60393
G1 X100.151 Y146.288 E10.69176
G1 X99.4 Y143.732 E10.78036
G1 X98.593 Y141.246 E10.86729
G1 X97.696 Y138.723 E10.95636
G1 X96.755 Y136.298 E11.04287
G1 X95.717 Y133.831 E11.13189
G1 X94.618 Y131.415 E11.22017
G1 X93.459 Y129.045 E11.30792
G1 X92.223 Y126.693 E11.39629
G1 X90.931 Y124.393 E11.48403
G1 X89.569 Y122.12 E11.57217
G1 X88.144 Y119.888 E11.66024
G1 X86.649 Y117.686 E11.74877
G1 X85.109 Y115.549 E11.83637
G1 X83.512 Y113.464 E11.92373
G1 X81.847 Y111.409 E12.0117
G1 X79.4 Y108.587 E12.13593
G1 X79.257 Y108.415 E12.14337
G1 X78.909 Y107.984 E12.16179
G1 X78.858 Y107.92 E12.16451
G1 X77.782 Y106.552 E12.2224
G1 X77.721 Y106.474 E12.22569
G1 X77.337 Y105.97 E12.24677
G1 X77.026 Y105.522 E12.26491
G1 X76.556 Y104.782 E12.29407
G1 X76.495 Y104.685 E12.29788
G1 X75.903 Y103.715 E12.33567
G1 X75.853 Y103.632 E12.3389
G1 X75.508 Y103.047 E12.36148
G1 X75.364 Y102.79 E12.37128
G1 X75.074 Y102.242 E12.3919
G1 X75.014 Y102.124 E12.39631
G1 X74.601 Y101.303 E12.42687
G1 X74.564 Y101.229 E12.42963
G1 X74.156 Y100.39 E12.46066
G1 X72.941 Y97.982 E12.55036
G1 X71.674 Y95.638 E12.63899
G1 X70.361 Y93.362 E12.72638
G1 X68.963 Y91.094 E12.81499
G1 X67.519 Y88.892 E12.90257
G1 X65.993 Y86.701 E12.99138
G1 X64.449 Y84.613 E13.07775
G1 X62.796 Y82.505 E13.16685
G1 X61.097 Y80.46 E13.25528
G1 X60.401 Y79.675 E13.29017
G1 X60.356 Y79.624 E13.29243
G1 X59.429 Y78.555 E13.3395
G1 X58.991 Y77.989 E13.3633
G1 X58.616 Y77.372 E13.38731
G1 X58.414 Y76.993 E13.4016
G1 X58.33 Y76.829 E13.40773
G1 X58.118 Y76.402 E13.42358
G1 X57.836 Y75.745 E13.44736
G1 X57.693 Y75.302 E13.46285
G1 X56.939 Y72.641 E13.55484
G1 X56.55 Y71.342 E13.59994
G1 X56.377 Y70.611 E13.62492
G1 X56.286 Y70.092 E13.64245
G1 X56.258 Y69.916 E13.64837
G1 X56.203 Y69.541 E13.66098
G1 X56.139 Y68.828 E13.68479
G1 X56.154 Y68.113 E13.70858
G1 X56.196 Y67.731 E13.72136
G1 X56.262 Y67.256 E13.73731
G1 X56.291 Y67.07 E13.74357
G1 X56.361 Y66.656 E13.75753
G1 X56.519 Y65.959 E13.7813
G1 X56.761 Y65.267 E13.80569
G1 X57.118 Y64.408 E13.83663
G1 X57.152 Y64.328 E13.83952
G1 X57.426 Y63.694 E13.86249
G1 X58.34 Y61.407 E13.94441
G1 X58.529 Y60.981 E13.95991
G1 X58.772 Y60.482 E13.97837
G1 X58.858 Y60.312 E13.9847
G1 X59.031 Y59.982 E13.9971
G1 X59.398 Y59.368 E14.02089
G1 X59.831 Y58.799 E14.04467
G1 X60.097 Y58.506 E14.05783
G1 X60.445 Y58.146 E14.07448
G0 F3600 X60.733 Y58.424
G1 F1800 X60.861 Y58.296 E14.0805
G1 X61.129 Y58.035 E14.09295
G1 X61.895 Y57.403 E14.12598
G1 X63.001 Y56.636 E14.17074
G1 X65.052 Y55.178 E14.25444
G1 X65.548 Y54.861 E14.27402
G1 X66.144 Y54.52 E14.29686
G1 X66.471 Y54.346 E14.30918
G1 X66.828 Y54.17 E14.32241
G1 X66.969 Y54.103 E14.32761
G1 X67.655 Y53.787 E14.35273
G1 X70.067 Y52.634 E14.44165
G1 X72.45 Y51.412 E14.53072
G1 X74.783 Y50.128 E14.61929
G1 X76.559 Y49.094 E14.68764
G1 X77.048 Y48.802 E14.70658
G1 X77.087 Y48.779 E14.70809
G1 X77.895 Y48.305 E14.73925
G1 X77.973 Y48.26 E14.74224
G1 X78.603 Y47.903 E14.76633
G1 X79.224 Y47.597 E14.78935
G1 X79.876 Y47.364 E14.81238
G1 X80.551 Y47.209 E14.83542
G1 X81.444 Y47.124 E14.86525
G1 X81.955 Y47.114 E14.88225
G1 X82.072 Y47.113 E14.88614
G1 X91.336 Y47.113 E15.19426
G1 X91.42 Y47.114 E15.19706
G1 X91.915 Y47.121 E15.21352
G1 X94.394 Y47.113 E15.29598
G1 X94.417 Y47.113 E15.29674
G1 X98.728 Y47.116 E15.44013
G1 X98.775 Y47.116 E15.44169
G1 X109.782 Y47.209 E15.8078
G1 X109.861 Y47.21 E15.81042
G1 X110.339 Y47.22 E15.82633
G1 X111.753 Y47.227 E15.87336
G1 X111.82 Y47.228 E15.87559
G1 X113.02 Y47.247 E15.9155
G1 X113.356 Y47.261 E15.92669
G1 X114.426 Y47.338 E15.96237
G1 X114.483 Y47.343 E15.96427
G1 X115.919 Y47.46 E16.01219
G1 X118.551 Y47.601 E16.09986
G1 X121.212 Y47.667 E16.18839
G1 X123.878 Y47.658 E16.27706
G1 X126.546 Y47.573 E16.36584
G1 X129.171 Y47.416 E16.45331
G1 X131.868 Y47.178 E16.54336
G1 X134.301 Y46.897 E16.62482
G1 X134.612 Y46.869 E16.63521
G1 X135.659 Y46.803 E16.6701
G1 X135.875 Y46.793 E16.67729
G1 X136.395 Y46.779 E16.69459
G1 X136.889 Y46.786 E16.71102
G1 X137.177 Y46.802 E16.72062
G1 X137.359 Y46.815 E16.72669
G1 X137.777 Y46.851 E16.74064
G1 X137.867 Y46.86 E16.74365
G1 X138.528 Y46.927 E16.76575
G1 X139.183 Y47.03 E16.7878
G1 X139.509 Y47.1 E16.79889
G1 X139.704 Y47.145 E16.80555
G1 X139.96 Y47.209 E16.81432
G1 X140.049 Y47.232 E16.81738
G1 X140.71 Y47.408 E16.84013
G1 X141.368 Y47.625 E16.86317
G1 X141.691 Y47.763 E16.87486
G1 X142.342 Y48.065 E16.89873
G1 X142.505 Y48.144 E16.90475
G1 X142.938 Y48.361 E16.92086
G1 X143.538 Y48.706 E16.94388
G1 X144.203 Y49.211 E16.97165
G1 X144.412 Y49.394 E16.98089
G1 X144.537 Y49.506 E16.98647
G1 X144.863 Y49.808 E17.00125
G1 X144.948 Y49.889 E17.00516
G1 X145.412 Y50.336 E17.02659
G1 X145.882 Y50.844 E17.04961
G1 X146.29 Y51.404 E17.07265
G1 X146.626 Y51.995 E17.09526
G1 X146.872 Y52.492 E17.11371
G1 X147.143 Y53.13 E17.13676
G1 X147.344 Y53.815 E17.16051
G1 X147.493 Y54.466 E17.18272
G1 X147.54 Y54.694 E17.19046
G1 X147.83 Y56.232 E17.24252
G1 X148.404 Y58.866 E17.33218
G1 X149.038 Y61.426 E17.4199
G1 X149.751 Y63.995 E17.50857
G1 X150.536 Y66.541 E17.59719
G1 X151.389 Y69.047 E17.68523
G1 X152.31 Y71.526 E17.77319
G1 X153.325 Y74.037 E17.86327
G1 X154.366 Y76.414 E17.94958
G1 X155.523 Y78.868 E18.03982
G1 X156.715 Y81.217 E18.12743
G1 X157.988 Y83.566 E18.21629
G1 X159.308 Y85.839 E18.30372
G1 X160.72 Y88.124 E18.39306
G1 X162.181 Y90.344 E18.48145
G1 X163.685 Y92.492 E18.56866
G1 X165.302 Y94.67 E18.65889
G1 X166.933 Y96.741 E18.74656
G1 X168.626 Y98.77 E18.83446
G1 X169.911 Y100.208 E18.8986
G1 X169.965 Y100.27 E18.90133
G1 X170.876 Y101.318 E18.94752
G1 X171.033 Y101.506 E18.95566
G1 X171.181 Y101.691 E18.96354
G1 X171.348 Y101.909 E18.97268
G1 X171.762 Y102.478 E18.99608
G1 X172.138 Y103.063 E19.01921
G1 X172.703 Y104.066 E19.0575
G1 X172.747 Y104.146 E19.06054
G1 X172.965 Y104.547 E19.07572
G1 X175.1 Y108.176 E19.21576
G1 X175.526 Y109.058 E19.24834
G1 X175.675 Y109.444 E19.2621
G1 X175.708 Y109.531 E19.26519
G1 X176.358 Y111.295 E19.32772
G1 X177.484 Y114.056 E19.42689
G1 X177.505 Y114.108 E19.42876
G1 X177.738 Y114.695 E19.44976
G1 X178.031 Y115.667 E19.48353
G1 X178.202 Y116.475 E19.511
G1 X178.239 Y116.664 E19.51741
G1 X178.373 Y117.416 E19.54281
G1 X178.455 Y118.104 E19.56586
G1 X178.435 Y119.081 E19.59836
G1 X178.304 Y120.358 E19.64105
G1 X178.139 Y121.267 E19.67178
G1 X177.895 Y122.198 E19.70379
G1 X177.823 Y122.45 E19.71251
G1 X177.669 Y122.948 E19.72985
G1 X177.471 Y123.494 E19.74916
G1 X177.274 Y123.964 E19.76611
G1 X177.219 Y124.091 E19.77072
G1 X176.973 Y124.642 E19.79079
G1 X176.938 Y124.718 E19.79357
G1 X176.674 Y125.288 E19.81446
G1 X176.518 Y125.6 E19.82607
G1 X176.085 Y126.408 E19.85655
G1 X176.036 Y126.498 E19.85996
G1 X175.137 Y128.109 E19.92132
G1 X175.094 Y128.185 E19.92423
G1 X174.751 Y128.779 E19.94704
G1 X174.47 Y129.22 E19.96443
G1 X173.954 Y129.957 E19.99436
G1 X173.901 Y130.032 E19.99741
G1 X172.723 Y131.661 E20.06427
G1 X171.163 Y133.881 E20.15452
G1 X169.717 Y136.066 E20.24167
G1 X168.31 Y138.333 E20.33041
G1 X166.951 Y140.667 E20.42024
G1 X165.704 Y142.951 E20.50679
G1 X164.482 Y145.353 E20.59642
G1 X163.344 Y147.754 E20.6848
G1 X162.28 Y150.174 E20.77272
G1 X161.269 Y152.659 E20.86195
G1 X160.345 Y155.13 E20.9497
G1 X159.484 Y157.647 E21.03818
G1 X158.694 Y160.19 E21.12674
G1 X157.981 Y162.738 E21.21475
G1 X157.322 Y165.375 E21.30515
G1 X156.765 Y167.911 E21.39151
G1 X156.269 Y170.515 E21.47967
