;FLAVOR:Marlin
;TIME:5895
;Filament used: 6.74349m
;Layer height: 0.3
;MINX:46.019
;MINY:78.057
;MINZ:0.2
;MAXX:188.953
;MAXY:150.137
;MAXZ:12.5
;Generated with Cura_SteamEngine 4.1.0
M140 S60
M105
M190 S60
M104 S200
M105
M109 S200
M82 ;absolute extrusion mode
; Ender 3 Custom Start G-code
G28 ; Home all axes
G92 E0 ; Reset Extruder
G1 Z2.0 F3000 ; Move Z Axis up little to prevent scratching of Heat Bed
G1 X0.1 Y20 Z0.3 F5000.0 ; Move to start position
G1 X0.1 Y200.0 Z0.3 F1500.0 E15 ; Draw the first line
G1 X0.4 Y200.0 Z0.3 F5000.0 ; Move to side a little
G1 X0.4 Y20 Z0.3 F1500.0 E30 ; Draw the second line
G92 E0 ; Reset Extruder
G1 Z2.0 F3000 ; Move Z Axis up little to prevent scratching of Heat Bed
; End of custom start GCode
G92 E0
G92 E0
G1 F2400 E-5
;LAYER_COUNT:42
;LAYER:0
M107
M204 S500
M205 X10 Y10
G0 F3600 X74.702 Y79.999 Z0.2
;TYPE:SKIRT
G1 F2400 E0
G1 F1800 X75.229 Y79.516 E0.02378
G1 X75.807 Y79.094 E0.04758
G1 X76.428 Y78.74 E0.07135
G1 X77.085 Y78.457 E0.09515
G1 X77.77 Y78.249 E0.11896
G1 X78.473 Y78.119 E0.14274
G1 X79.082 Y78.07 E0.16306
G1 X79.366 Y78.061 E0.17251
G1 X79.568 Y78.058 E0.17923
G1 X86.423 Y78.057 E0.40722
G1 X86.516 Y78.058 E0.41032
G1 X87.214 Y78.068 E0.43354
G1 X88.109 Y78.144 E0.46341
G1 X88.929 Y78.272 E0.49101
G1 X89.021 Y78.287 E0.49411
G1 X90.05 Y78.463 E0.52884
G1 X92.664 Y78.835 E0.61665
G1 X95.309 Y79.136 E0.7052
G1 X97.94 Y79.36 E0.79302
G1 X100.613 Y79.511 E0.88207
G1 X103.219 Y79.585 E0.96878
G1 X105.896 Y79.585 E1.05781
G1 X108.503 Y79.511 E1.14456
G1 X111.183 Y79.359 E1.23384
G1 X113.811 Y79.137 E1.32156
G1 X116.437 Y78.838 E1.40946
G1 X119.075 Y78.463 E1.49808
G1 X120.929 Y78.154 E1.5606
G1 X121.781 Y78.07 E1.58907
G1 X122.07 Y78.061 E1.59869
G1 X122.268 Y78.058 E1.60528
G1 X129.841 Y78.057 E1.85716
G1 X129.934 Y78.058 E1.86025
G1 X130.631 Y78.068 E1.88343
G1 X131.527 Y78.144 E1.91334
G1 X132.59 Y78.31 E1.94913
G1 X135.307 Y78.698 E2.04041
G1 X137.922 Y78.996 E2.12795
G1 X140.57 Y79.222 E2.21634
G1 X143.233 Y79.373 E2.30506
G1 X145.843 Y79.448 E2.3919
G1 X148.489 Y79.449 E2.47991
G1 X151.162 Y79.375 E2.56885
G1 X153.801 Y79.227 E2.65676
G1 X156.424 Y79.004 E2.74431
G1 X158.799 Y78.74 E2.82379
G1 X158.848 Y78.735 E2.82543
G1 X160.162 Y78.599 E2.86937
G1 X160.335 Y78.583 E2.87515
G1 X161.373 Y78.504 E2.90977
G1 X161.529 Y78.495 E2.91497
G1 X162.595 Y78.44 E2.95047
G1 X162.736 Y78.434 E2.95516
G1 X163.783 Y78.403 E2.99
G1 X163.884 Y78.401 E2.99336
G1 X164.834 Y78.388 E3.02496
G1 X164.961 Y78.387 E3.02919
G1 X165.777 Y78.392 E3.05633
G1 X165.908 Y78.394 E3.06069
G1 X167.298 Y78.431 E3.10693
G1 X167.442 Y78.437 E3.11173
G1 X168.54 Y78.491 E3.14829
G1 X168.666 Y78.498 E3.15249
G1 X171.19 Y78.672 E3.23664
G1 X171.384 Y78.688 E3.24311
G1 X172.911 Y78.84 E3.29415
G1 X173.008 Y78.851 E3.2974
G1 X174.139 Y78.981 E3.33526
G1 X174.234 Y78.993 E3.33845
G1 X175.048 Y79.099 E3.36575
G1 X175.126 Y79.109 E3.36836
G1 X176.801 Y79.348 E3.42464
G1 X176.916 Y79.366 E3.42851
G1 X178.422 Y79.609 E3.47925
G1 X178.526 Y79.626 E3.48275
G1 X180.294 Y79.941 E3.54248
G1 X180.389 Y79.959 E3.5457
G1 X181.838 Y80.24 E3.59479
G1 X181.901 Y80.252 E3.59692
G1 X182.469 Y80.368 E3.61621
G1 X182.561 Y80.388 E3.61934
G1 X183.276 Y80.545 E3.64368
G1 X183.965 Y80.737 E3.66747
G1 X184.867 Y81.124 E3.70012
G1 X185.154 Y81.274 E3.71089
G1 X185.769 Y81.64 E3.73469
G1 X186.339 Y82.073 E3.7585
G1 X186.931 Y82.647 E3.78593
G1 X187.155 Y82.894 E3.79702
G1 X187.605 Y83.449 E3.82078
G1 X187.99 Y84.052 E3.84458
G1 X188.347 Y84.793 E3.87193
G1 X188.47 Y85.097 E3.88284
G1 X188.701 Y85.774 E3.90663
G1 X188.854 Y86.472 E3.9304
G1 X188.917 Y86.997 E3.94799
G1 X188.933 Y87.201 E3.95479
G1 X188.953 Y87.781 E3.9741
G1 X188.95 Y88.022 E3.98211
G1 X188.932 Y88.427 E3.9956
G1 X188.885 Y89.045 E4.01621
G1 X188.791 Y89.754 E4.04
G1 X188.68 Y90.234 E4.05638
G1 X188.593 Y90.555 E4.06745
G1 X188.368 Y91.234 E4.09124
G1 X188.068 Y91.883 E4.11502
G1 X187.698 Y92.495 E4.1388
G1 X187.326 Y92.986 E4.15929
G1 X187.107 Y93.248 E4.17065
G1 X186.392 Y93.976 E4.20459
G1 X185.869 Y94.43 E4.22762
G1 X185.533 Y94.703 E4.24202
G1 X185.316 Y94.867 E4.25107
G1 X185.141 Y94.994 E4.25826
G1 X184.624 Y95.358 E4.27929
G1 X184.331 Y95.553 E4.291
G1 X183.83 Y95.866 E4.31064
G1 X181.562 Y97.31 E4.40007
G1 X179.365 Y98.798 E4.48832
G1 X177.224 Y100.338 E4.57604
G1 X175.139 Y101.929 E4.66327
G1 X173.055 Y103.615 E4.75243
G1 X171.058 Y105.324 E4.83985
G1 X169.092 Y107.107 E4.92813
G1 X167.17 Y108.953 E5.01676
G1 X165.332 Y110.82 E5.1039
G1 X163.521 Y112.766 E5.19232
G1 X161.777 Y114.75 E5.28018
G1 X160.086 Y116.789 E5.36828
G1 X158.442 Y118.888 E5.45696
G1 X156.874 Y121.011 E5.54474
G1 X156.455 Y121.61 E5.56906
G1 X156.429 Y121.647 E5.57056
G1 X155.368 Y123.14 E5.63148
G1 X155.268 Y123.277 E5.63712
G1 X154.948 Y123.703 E5.65484
G1 X154.756 Y123.947 E5.66517
G1 X154.38 Y124.4 E5.68475
G1 X154.201 Y124.605 E5.6938
G1 X153.699 Y125.16 E5.71869
G1 X153.556 Y125.314 E5.72568
G1 X153.413 Y125.462 E5.73253
G1 X153.195 Y125.677 E5.74271
G1 X152.354 Y126.468 E5.78111
G1 X151.914 Y126.845 E5.80038
G1 X151.108 Y127.476 E5.83443
G1 X150.806 Y127.699 E5.84691
G1 X150.585 Y127.852 E5.85585
G1 X150.457 Y127.938 E5.86098
G1 X150.174 Y128.124 E5.87225
G1 X150.106 Y128.169 E5.87496
G1 X149.427 Y128.603 E5.90176
G1 X149.374 Y128.636 E5.90384
G1 X148.669 Y129.077 E5.9315
G1 X148.582 Y129.13 E5.93488
G1 X147.588 Y129.73 E5.9735
G1 X147.536 Y129.761 E5.97551
G1 X147.018 Y130.067 E5.99552
G1 X146.979 Y130.09 E5.99703
G1 X146.148 Y130.573 E6.029
G1 X145.996 Y130.659 E6.03481
G1 X145.356 Y131.008 E6.05905
G1 X144.531 Y131.469 E6.09049
G1 X144.428 Y131.525 E6.09439
G1 X142.866 Y132.36 E6.15329
G1 X142.735 Y132.428 E6.1582
G1 X141.963 Y132.818 E6.18697
G1 X141.899 Y132.85 E6.18935
G1 X141.213 Y133.187 E6.21477
G1 X141.101 Y133.241 E6.21891
G1 X139.687 Y133.902 E6.27082
G1 X139.524 Y133.975 E6.27676
G1 X138.436 Y134.447 E6.31621
G1 X138.352 Y134.483 E6.31925
G1 X137.925 Y134.661 E6.33463
G1 X137.833 Y134.699 E6.33795
G1 X136.572 Y135.202 E6.3831
G1 X136.354 Y135.284 E6.39085
G1 X134.764 Y135.852 E6.447
G1 X134.566 Y135.919 E6.45396
G1 X133.656 Y136.211 E6.48574
G1 X133.447 Y136.274 E6.493
G1 X131.895 Y136.714 E6.54666
G1 X131.691 Y136.769 E6.55368
G1 X130.442 Y137.079 E6.59649
G1 X130.266 Y137.12 E6.6025
G1 X129.973 Y137.184 E6.61247
G1 X129.867 Y137.206 E6.61607
G1 X129.145 Y137.351 E6.64057
G1 X128.997 Y137.379 E6.64558
G1 X128.215 Y137.517 E6.67199
G1 X128.061 Y137.542 E6.67718
G1 X127.843 Y137.575 E6.68451
G1 X127.676 Y137.598 E6.69012
G1 X126.182 Y137.784 E6.74019
G1 X126.011 Y137.803 E6.74591
G1 X125.744 Y137.829 E6.75484
G1 X125.593 Y137.842 E6.75988
G1 X125.022 Y137.884 E6.77892
G1 X124.831 Y137.895 E6.78528
G1 X123.542 Y137.951 E6.8282
G1 X123.289 Y137.957 E6.83661
G1 X121.766 Y137.963 E6.88727
G1 X121.732 Y137.963 E6.8884
G1 X119.022 Y137.959 E6.97853
G1 X116.348 Y138.03 E7.0675
G1 X113.738 Y138.174 E7.15444
G1 X111.062 Y138.397 E7.24376
G1 X108.481 Y138.686 E7.33014
G1 X105.808 Y139.062 E7.41992
G1 X103.253 Y139.496 E7.50611
G1 X100.621 Y140.019 E7.59537
G1 X98.056 Y140.604 E7.68287
G1 X95.495 Y141.267 E7.77086
G1 X92.916 Y142.011 E7.86013
G1 X90.43 Y142.807 E7.94695
G1 X87.923 Y143.687 E8.03532
G1 X85.452 Y144.634 E8.12334
G1 X83.007 Y145.651 E8.21141
G1 X80.598 Y146.735 E8.29927
G1 X78.82 Y147.587 E8.36485
G1 X78.218 Y147.883 E8.38716
G1 X77.56 Y148.162 E8.41093
G1 X76.874 Y148.366 E8.43474
G1 X76.17 Y148.493 E8.45853
G1 X75.393 Y148.54 E8.48442
G1 X74.41 Y148.54 E8.51712
G1 X74.284 Y148.539 E8.52131
G1 X69.964 Y148.454 E8.66502
G1 X69.879 Y148.452 E8.66785
G1 X69.211 Y148.43 E8.69008
G1 X68.499 Y148.366 E8.71385
G1 X67.798 Y148.224 E8.73764
G1 X67.117 Y148.004 E8.76144
G1 X66.466 Y147.709 E8.78522
G1 X65.851 Y147.344 E8.809
G1 X65.307 Y146.934 E8.83166
G1 X63.1 Y145.081 E8.92751
G1 X62.597 Y144.678 E8.94894
G1 X62.514 Y144.61 E8.95251
G1 X62.099 Y144.266 E8.97044
G1 X61.949 Y144.138 E8.977
G1 X61.406 Y143.659 E9.00108
G1 X61.236 Y143.503 E9.00876
G1 X59.875 Y142.212 E9.07115
G1 X59.839 Y142.178 E9.0728
G1 X58.168 Y140.568 E9.14997
G1 X56.192 Y138.771 E9.23881
G1 X54.207 Y137.064 E9.32588
G1 X52.126 Y135.375 E9.41503
G1 X50.039 Y133.777 E9.50245
G1 X49.045 Y133.058 E9.54326
G1 X48.961 Y132.996 E9.54673
G1 X48.579 Y132.71 E9.5626
G1 X48.032 Y132.25 E9.58637
G1 X47.539 Y131.732 E9.61016
G1 X47.107 Y131.162 E9.63394
G1 X46.741 Y130.547 E9.65775
G1 X46.446 Y129.896 E9.68152
G1 X46.226 Y129.215 E9.70532
G1 X46.083 Y128.514 E9.72912
G1 X46.019 Y127.802 E9.75289
G1 X46.035 Y127.087 E9.77668
G1 X46.13 Y126.378 E9.80047
G1 X46.304 Y125.684 E9.82427
G1 X46.671 Y124.764 E9.85721
G1 X46.816 Y124.469 E9.86815
G1 X47.248 Y123.722 E9.89685
G1 X47.654 Y123.118 E9.92105
G1 X47.797 Y122.915 E9.92931
G1 X47.924 Y122.741 E9.93648
G1 X48.201 Y122.388 E9.9514
G1 X48.341 Y122.222 E9.95862
G1 X48.493 Y122.048 E9.96631
G1 X48.747 Y121.768 E9.97888
G1 X48.873 Y121.633 E9.98502
G1 X49.072 Y121.426 E9.99457
G1 X49.186 Y121.31 E9.99998
G1 X50.414 Y120.095 E10.05744
G1 X52.245 Y118.197 E10.14515
G1 X54.015 Y116.255 E10.23255
G1 X55.795 Y114.191 E10.3232
G1 X57.421 Y112.189 E10.40898
G1 X59.035 Y110.085 E10.49718
G1 X60.588 Y107.939 E10.58529
G1 X62.102 Y105.716 E10.67474
G1 X63.503 Y103.527 E10.76118
G1 X64.869 Y101.253 E10.84941
G1 X66.177 Y98.932 E10.93802
G1 X67.414 Y96.583 E11.02632
G1 X68.576 Y94.218 E11.11397
G1 X69.669 Y91.822 E11.20156
G1 X70.706 Y89.368 E11.29017
G1 X71.679 Y86.876 E11.37914
G1 X72.554 Y84.42 E11.46586
G1 X72.755 Y83.803 E11.48744
G1 X72.778 Y83.734 E11.48986
G1 X73.221 Y82.421 E11.53595
G1 X73.487 Y81.757 E11.55974
G1 X73.826 Y81.127 E11.58354
G1 X74.232 Y80.539 E11.6073
G1 X74.702 Y79.999 E11.63111
G0 F3600 X75.051 Y80.216
G1 F1800 X75.569 Y79.756 E11.65416
G1 X76.136 Y79.36 E11.67716
G1 X76.746 Y79.031 E11.70021
G1 X77.389 Y78.774 E11.72324
G1 X78.058 Y78.594 E11.74628
G1 X78.743 Y78.492 E11.76932
G1 X79.095 Y78.47 E11.78105
G1 X79.379 Y78.461 E11.7905
G1 X79.568 Y78.458 E11.79679
G1 X86.423 Y78.457 E12.02478
G1 X86.51 Y78.458 E12.02768
G1 X87.208 Y78.468 E12.0509
G1 X88.047 Y78.539 E12.0789
G1 X88.867 Y78.667 E12.1065
G1 X88.954 Y78.681 E12.10943
G1 X90.003 Y78.86 E12.14483
G1 X92.63 Y79.234 E12.23308
G1 X95.266 Y79.534 E12.32132
G1 X97.919 Y79.76 E12.40988
G1 X100.543 Y79.909 E12.4973
G1 X103.243 Y79.985 E12.58714
G1 X105.872 Y79.985 E12.67458
G1 X108.571 Y79.909 E12.76438
G1 X111.17 Y79.761 E12.85096
G1 X113.854 Y79.534 E12.94055
G1 X116.501 Y79.233 E13.02916
G1 X119.117 Y78.861 E13.11704
G1 X120.995 Y78.548 E13.18037
G1 X121.793 Y78.47 E13.20704
G1 X122.082 Y78.461 E13.21665
G1 X122.268 Y78.458 E13.22284
G1 X129.841 Y78.457 E13.47472
G1 X129.928 Y78.458 E13.47761
G1 X130.625 Y78.468 E13.5008
G1 X131.465 Y78.539 E13.52884
G1 X132.534 Y78.706 E13.56482
G1 X135.277 Y79.098 E13.65698
G1 X137.882 Y79.394 E13.74418
G1 X140.546 Y79.622 E13.83311
G1 X143.162 Y79.77 E13.92026
G1 X145.867 Y79.848 E14.01026
G1 X148.5 Y79.849 E14.09784
G1 X151.162 Y79.776 E14.18641
G1 X153.821 Y79.626 E14.27499
G1 X156.504 Y79.398 E14.36455
G1 X158.889 Y79.133 E14.44436
G1 X160.203 Y78.997 E14.4883
G1 X160.366 Y78.982 E14.49374
G1 X161.404 Y78.903 E14.52837
G1 X161.55 Y78.894 E14.53323
G1 X162.616 Y78.839 E14.56874
G1 X162.747 Y78.834 E14.5731
G1 X163.794 Y78.803 E14.60793
G1 X163.89 Y78.801 E14.61113
G1 X164.84 Y78.788 E14.64273
G1 X164.959 Y78.787 E14.64669
G1 X165.775 Y78.792 E14.67383
G1 X165.898 Y78.794 E14.67792
G1 X167.288 Y78.831 E14.72417
G1 X167.423 Y78.836 E14.72866
G1 X168.521 Y78.89 E14.76522
G1 X168.639 Y78.897 E14.76915
G1 X171.163 Y79.071 E14.8533
G1 X171.344 Y79.087 E14.85935
G1 X172.871 Y79.239 E14.91039
G1 X172.962 Y79.248 E14.91343
G1 X174.093 Y79.378 E14.95129
G1 X174.183 Y79.389 E14.95431
G1 X174.997 Y79.495 E14.98161
G1 X175.07 Y79.505 E14.98406
G1 X176.745 Y79.744 E15.04034
G1 X176.853 Y79.761 E15.04397
G1 X178.359 Y80.004 E15.09471
G1 X178.455 Y80.02 E15.09795
G1 X180.223 Y80.335 E15.15768
G1 X180.313 Y80.352 E15.16072
G1 X181.762 Y80.633 E15.20981
G1 X181.821 Y80.644 E15.21181
G1 X182.389 Y80.76 E15.23109
G1 X182.475 Y80.779 E15.23402
G1 X183.19 Y80.936 E15.25837
G1 X183.857 Y81.123 E15.28141
G1 X184.682 Y81.478 E15.31128
G1 X184.969 Y81.628 E15.32205
G1 X185.563 Y81.984 E15.34508
G1 X186.113 Y82.406 E15.36814
G1 X186.635 Y82.915 E15.39239
G1 X186.859 Y83.162 E15.40348
G1 X187.293 Y83.701 E15.4265
G1 X187.663 Y84.287 E15.44955
G1 X187.976 Y84.943 E15.47372
G1 X188.099 Y85.247 E15.48463
G1 X188.321 Y85.902 E15.50763
G1 X188.466 Y86.58 E15.53069
G1 X188.519 Y87.028 E15.5457
G1 X188.535 Y87.232 E15.5525
G1 X188.553 Y87.776 E15.57061
G1 X188.55 Y88.017 E15.57862
G1 X188.533 Y88.397 E15.59128
G1 X188.486 Y89.015 E15.61189
G1 X188.393 Y89.701 E15.63491
G1 X188.294 Y90.13 E15.64956
G1 X188.207 Y90.451 E15.66062
G1 X187.988 Y91.107 E15.68362
G1 X187.694 Y91.735 E15.70669
G1 X187.33 Y92.324 E15.72971
G1 X187.02 Y92.729 E15.74668
G1 X186.801 Y92.991 E15.75804
G1 X186.13 Y93.674 E15.78988
G1 X185.607 Y94.128 E15.81292
G1 X185.292 Y94.384 E15.82642
G1 X185.075 Y94.548 E15.83546
G1 X184.911 Y94.667 E15.8422
G1 X184.394 Y95.031 E15.86323
G1 X184.119 Y95.214 E15.87422
G1 X183.618 Y95.527 E15.89387
G1 X181.353 Y96.968 E15.98316
G1 X179.145 Y98.463 E16.07184
G1 X176.993 Y100.011 E16.16001
G1 X174.868 Y101.633 E16.24893
G1 X172.81 Y103.298 E16.33697
G1 X170.813 Y105.008 E16.42442
G1 X168.812 Y106.822 E16.51425
G1 X166.891 Y108.667 E16.60284
G1 X165.038 Y110.549 E16.69068
G1 X163.229 Y112.492 E16.77898
G1 X161.468 Y114.497 E16.86773
G1 X159.765 Y116.549 E16.95643
G1 X158.138 Y118.627 E17.04421
G1 X156.545 Y120.784 E17.13339
G1 X156.128 Y121.38 E17.15759
G1 X156.103 Y121.416 E17.15904
G1 X155.042 Y122.909 E17.21996
G1 X154.948 Y123.037 E17.22524
G1 X154.628 Y123.463 E17.24297
G1 X154.448 Y123.691 E17.25263
G1 X154.072 Y124.144 E17.27221
G1 X153.905 Y124.337 E17.2807
G1 X153.403 Y124.892 E17.30559
G1 X153.268 Y125.036 E17.31215
G1 X153.125 Y125.184 E17.319
G1 X152.921 Y125.386 E17.32855
G1 X152.08 Y126.177 E17.36695
G1 X151.668 Y126.53 E17.38499
G1 X150.862 Y127.161 E17.41904
G1 X150.578 Y127.37 E17.43076
G1 X150.357 Y127.523 E17.4397
G1 X150.237 Y127.604 E17.44452
G1 X149.954 Y127.79 E17.45578
G1 X149.89 Y127.832 E17.45833
G1 X149.211 Y128.266 E17.48513
G1 X149.162 Y128.297 E17.48706
G1 X148.457 Y128.738 E17.51472
G1 X148.376 Y128.788 E17.51789
G1 X147.382 Y129.388 E17.5565
G1 X147.333 Y129.417 E17.5584
G1 X146.815 Y129.723 E17.57841
G1 X146.778 Y129.744 E17.57982
G1 X145.947 Y130.227 E17.61179
G1 X145.805 Y130.308 E17.61723
G1 X145.165 Y130.657 E17.64147
G1 X145.165 Y130.656 E17.64151
G1 X144.336 Y131.119 E17.67309
G1 X144.24 Y131.172 E17.67673
G1 X142.678 Y132.007 E17.73564
G1 X142.554 Y132.071 E17.74029
G1 X141.782 Y132.461 E17.76905
G1 X141.723 Y132.491 E17.77125
G1 X141.037 Y132.828 E17.79668
G1 X140.932 Y132.878 E17.80054
G1 X139.518 Y133.539 E17.85246
G1 X139.365 Y133.608 E17.85804
G1 X138.277 Y134.08 E17.89749
G1 X138.198 Y134.114 E17.90035
G1 X137.771 Y134.292 E17.91573
G1 X137.685 Y134.327 E17.91882
G1 X136.424 Y134.83 E17.96398
G1 X136.219 Y134.907 E17.97126
G1 X134.629 Y135.475 E18.02742
G1 X134.444 Y135.538 E18.03392
G1 X133.534 Y135.83 E18.0657
G1 X133.338 Y135.89 E18.07252
G1 X131.786 Y136.33 E18.12617
G1 X131.594 Y136.38 E18.13277
G1 X130.345 Y136.69 E18.17558
G1 X130.18 Y136.729 E18.18122
G1 X129.887 Y136.793 E18.19119
G1 X129.788 Y136.814 E18.19456
G1 X129.066 Y136.959 E18.21905
G1 X128.928 Y136.985 E18.22372
G1 X128.146 Y137.123 E18.25013
G1 X128.001 Y137.146 E18.25501
G1 X127.783 Y137.179 E18.26235
G1 X127.626 Y137.201 E18.26762
G1 X126.132 Y137.387 E18.31769
G1 X125.973 Y137.405 E18.32302
G1 X125.706 Y137.431 E18.33194
G1 X125.564 Y137.443 E18.33668
G1 X124.993 Y137.485 E18.35572
G1 X124.813 Y137.495 E18.36172
G1 X123.524 Y137.551 E18.40463
G1 X123.288 Y137.557 E18.41248
G1 X121.765 Y137.563 E18.46314
G1 X121.732 Y137.563 E18.46424
G1 X119.012 Y137.559 E18.5547
G1 X116.351 Y137.63 E18.64324
G1 X113.683 Y137.777 E18.73211
G1 X111.056 Y137.996 E18.81979
G1 X108.419 Y138.291 E18.90804
G1 X105.752 Y138.666 E18.99762
G1 X103.145 Y139.109 E19.08557
