;FLAVOR:Marlin
;TIME:8186
;Filament used: 9.40482m
;Layer height: 0.3
;MINX:44.091
;MINY:58.266
;MINZ:0.2
;MAXX:190.916
;MAXY:176.705
;MAXZ:12.8
;Generated with Cura_SteamEngine 4.1.0
M140 S60
M105
M190 S60
M104 S200
M105
M109 S200
M82 ;absolute extrusion mode
; Ender 3 Custom Start G-code
G28 ; Home all axes
G92 E0 ; Reset Extruder
G1 Z2.0 F3000 ; Move Z Axis up little to prevent scratching of Heat Bed
G1 X0.1 Y20 Z0.3 F5000.0 ; Move to start position
G1 X0.1 Y200.0 Z0.3 F1500.0 E15 ; Draw the first line
G1 X0.4 Y200.0 Z0.3 F5000.0 ; Move to side a little
G1 X0.4 Y20 Z0.3 F1500.0 E30 ; Draw the second line
G92 E0 ; Reset Extruder
G1 Z2.0 F3000 ; Move Z Axis up little to prevent scratching of Heat Bed
; End of custom start GCode
G92 E0
G92 E0
G1 F2400 E-5
;LAYER_COUNT:43
;LAYER:0
M107
M204 S500
M205 X10 Y10
G0 F3600 X47.191 Y61.451 Z0.2
;TYPE:SKIRT
G1 F2400 E0
G1 F1800 X47.518 Y61.224 E0.01324
G1 X47.811 Y61.033 E0.02487
G1 X48.522 Y60.631 E0.05204
G1 X48.729 Y60.531 E0.05969
G1 X49.389 Y60.257 E0.08345
G1 X49.949 Y60.088 E0.10291
G1 X50.326 Y59.993 E0.11584
G1 X51.028 Y59.857 E0.13962
G1 X51.731 Y59.801 E0.16308
G1 X52.375 Y59.785 E0.1845
G1 X52.526 Y59.783 E0.18953
G1 X57.505 Y59.777 E0.35513
G1 X57.597 Y59.778 E0.35819
G1 X58.281 Y59.787 E0.38094
G1 X59 Y59.837 E0.40491
G1 X59.269 Y59.871 E0.41393
G1 X59.731 Y59.946 E0.4295
G1 X63.27 Y60.659 E0.54957
G1 X65.911 Y61.113 E0.6387
G1 X68.486 Y61.482 E0.72522
G1 X71.13 Y61.784 E0.81373
G1 X73.775 Y62.011 E0.90203
G1 X76.445 Y62.164 E0.99098
G1 X79.053 Y62.24 E1.07776
G1 X81.695 Y62.242 E1.16563
G1 X84.371 Y62.168 E1.25467
G1 X87.012 Y62.02 E1.34265
G1 X89.615 Y61.8 E1.42953
G1 X92.267 Y61.501 E1.5183
G1 X94.903 Y61.128 E1.60684
G1 X97.48 Y60.689 E1.69379
G1 X100.188 Y60.147 E1.78564
G1 X101.254 Y59.917 E1.82192
G1 X101.818 Y59.822 E1.84094
G1 X102.207 Y59.774 E1.85397
G1 X102.878 Y59.727 E1.87635
G1 X103.443 Y59.717 E1.89514
G1 X103.556 Y59.716 E1.8989
G1 X105.788 Y59.716 E1.97314
G1 X105.879 Y59.717 E1.97616
G1 X106.583 Y59.727 E1.99958
G1 X106.857 Y59.736 E2.0087
G1 X109.661 Y59.896 E2.10211
G1 X112.264 Y59.971 E2.18872
G1 X114.907 Y59.971 E2.27663
G1 X117.585 Y59.896 E2.36574
G1 X120.223 Y59.748 E2.45361
G1 X122.854 Y59.525 E2.54144
G1 X125.487 Y59.226 E2.62957
G1 X128.106 Y58.853 E2.71756
G1 X130.323 Y58.48 E2.79233
G1 X130.413 Y58.465 E2.79537
G1 X131.148 Y58.352 E2.8201
G1 X131.904 Y58.282 E2.84535
G1 X132.258 Y58.27 E2.85714
G1 X132.475 Y58.266 E2.86435
G1 X135.922 Y58.266 E2.979
G1 X136.014 Y58.267 E2.98206
G1 X136.71 Y58.277 E3.00521
G1 X137.432 Y58.328 E3.02929
G1 X137.697 Y58.362 E3.03817
G1 X137.953 Y58.4 E3.04678
G1 X138.177 Y58.438 E3.05434
G1 X138.554 Y58.514 E3.06713
G1 X141.224 Y59.134 E3.1583
G1 X143.847 Y59.664 E3.2473
G1 X146.43 Y60.11 E3.33448
G1 X149.071 Y60.49 E3.42323
G1 X151.687 Y60.791 E3.51081
G1 X154.327 Y61.019 E3.59894
G1 X156.964 Y61.173 E3.6868
G1 X159.609 Y61.252 E3.77481
G1 X162.249 Y61.256 E3.86262
G1 X164.934 Y61.184 E3.95196
G1 X167.094 Y61.07 E4.0239
G1 X168.334 Y60.99 E4.06523
G1 X169.049 Y60.984 E4.08901
G1 X169.814 Y61.067 E4.1146
G1 X170.21 Y61.134 E4.12796
G1 X170.907 Y61.292 E4.15173
G1 X171.873 Y61.656 E4.18606
G1 X172.229 Y61.824 E4.19916
G1 X173.059 Y62.294 E4.23088
G1 X173.28 Y62.442 E4.23973
G1 X173.816 Y62.843 E4.26199
G1 X174.152 Y63.123 E4.27654
G1 X174.213 Y63.174 E4.27918
G1 X175.175 Y63.996 E4.32127
G1 X175.274 Y64.083 E4.32565
G1 X175.713 Y64.474 E4.34521
G1 X176.219 Y64.979 E4.36898
G1 X176.492 Y65.304 E4.3831
G1 X176.808 Y65.707 E4.40013
G1 X177.218 Y66.294 E4.42395
G1 X177.559 Y66.922 E4.44772
G1 X177.723 Y67.302 E4.46148
G1 X177.865 Y67.661 E4.47432
G1 X178.091 Y68.34 E4.49812
G1 X178.266 Y69.233 E4.52839
G1 X178.324 Y69.704 E4.54417
G1 X178.372 Y70.417 E4.56794
G1 X178.339 Y71.132 E4.59175
G1 X178.256 Y71.699 E4.61081
G1 X178.138 Y72.309 E4.63147
G1 X177.654 Y75.011 E4.72277
G1 X177.258 Y77.639 E4.81117
G1 X177.023 Y79.506 E4.87375
G1 X176.855 Y80.361 E4.90273
G1 X176.791 Y80.6 E4.91096
G1 X176.74 Y80.782 E4.91725
G1 X176.497 Y81.593 E4.94541
G1 X175.776 Y84.136 E5.03332
G1 X175.124 Y86.707 E5.12154
G1 X174.542 Y89.303 E5.21003
G1 X174.043 Y91.887 E5.29756
G1 X173.615 Y94.485 E5.38514
G1 X173.256 Y97.124 E5.47372
G1 X172.972 Y99.775 E5.56239
G1 X172.767 Y102.38 E5.6493
G1 X172.633 Y105.055 E5.73839
G1 X172.575 Y107.662 E5.82512
G1 X172.592 Y110.34 E5.91419
G1 X172.684 Y112.981 E6.00208
G1 X172.849 Y115.591 E6.08907
G1 X173.094 Y118.282 E6.17894
G1 X173.405 Y120.874 E6.26577
G1 X173.797 Y123.504 E6.35421
G1 X174.257 Y126.092 E6.44163
G1 X174.797 Y128.697 E6.53012
G1 X175.407 Y131.274 E6.6182
G1 X176.083 Y133.804 E6.7053
G1 X176.851 Y136.389 E6.79499
G1 X177.669 Y138.878 E6.88213
G1 X178.567 Y141.369 E6.9702
G1 X179.54 Y143.85 E7.05884
G1 X180.567 Y146.263 E7.14606
G1 X181.676 Y148.678 E7.23445
G1 X182.859 Y151.073 E7.3233
G1 X184.081 Y153.38 E7.41013
G1 X185.397 Y155.702 E7.4989
G1 X186.776 Y157.983 E7.58755
G1 X187.681 Y159.405 E7.64361
G1 X189.114 Y161.611 E7.73111
G1 X189.16 Y161.682 E7.73392
G1 X189.543 Y162.289 E7.75779
G1 X189.985 Y163.121 E7.78913
G1 X190.21 Y163.631 E7.80767
G1 X190.55 Y164.608 E7.84207
G1 X190.655 Y165.013 E7.85599
G1 X190.818 Y165.887 E7.88556
G1 X190.869 Y166.33 E7.90039
G1 X190.903 Y166.742 E7.91414
G1 X190.916 Y167.002 E7.9228
G1 X190.881 Y168.066 E7.95821
G1 X190.85 Y168.331 E7.96708
G1 X190.827 Y168.501 E7.97279
G1 X190.783 Y168.806 E7.98304
G1 X190.572 Y169.754 E8.01534
G1 X190.44 Y170.188 E8.03043
G1 X190.046 Y171.18 E8.06593
G1 X189.776 Y171.722 E8.08607
G1 X189.258 Y172.583 E8.11949
G1 X189.114 Y172.785 E8.12774
G1 X188.845 Y173.137 E8.14247
G1 X188.608 Y173.425 E8.15488
G1 X187.962 Y174.102 E8.186
G1 X187.581 Y174.447 E8.2031
G1 X187.025 Y174.897 E8.22689
G1 X186.621 Y175.165 E8.24301
G1 X186.143 Y175.457 E8.26164
G1 X185.214 Y175.925 E8.29624
G1 X184.842 Y176.076 E8.30959
G1 X184.023 Y176.346 E8.33828
G1 X183.578 Y176.46 E8.35356
G1 X183.175 Y176.549 E8.36728
G1 X182.968 Y176.588 E8.37429
G1 X182.259 Y176.681 E8.39807
G1 X181.845 Y176.699 E8.41185
G1 X181.227 Y176.705 E8.43241
G1 X180.203 Y176.632 E8.46655
G1 X179.815 Y176.573 E8.47961
G1 X179.357 Y176.486 E8.49511
G1 X179.067 Y176.42 E8.50501
G1 X178.088 Y176.113 E8.53913
G1 X177.858 Y176.02 E8.54738
G1 X177.636 Y175.926 E8.5554
G1 X177.342 Y175.794 E8.56612
G1 X176.536 Y175.36 E8.59657
G1 X176.129 Y175.102 E8.61259
G1 X175.289 Y174.467 E8.64762
G1 X174.938 Y174.153 E8.66328
G1 X174.275 Y173.464 E8.69508
G1 X173.689 Y172.756 E8.72565
G1 X173.648 Y172.707 E8.72778
G1 X171.907 Y170.561 E8.81969
G1 X170.202 Y168.576 E8.90672
G1 X168.429 Y166.628 E8.99433
G1 X166.56 Y164.687 E9.08395
G1 X164.71 Y162.871 E9.17017
G1 X162.74 Y161.044 E9.25954
G1 X160.772 Y159.32 E9.34656
G1 X158.726 Y157.628 E9.43486
G1 X156.624 Y155.986 E9.52358
G1 X154.511 Y154.432 E9.61081
G1 X152.311 Y152.906 E9.69987
G1 X150.126 Y151.48 E9.78665
G1 X147.826 Y150.072 E9.87634
G1 X145.576 Y148.779 E9.96265
G1 X143.207 Y147.505 E10.05212
G1 X140.876 Y146.336 E10.13885
G1 X138.442 Y145.2 E10.22819
G1 X136.041 Y144.162 E10.31519
G1 X133.555 Y143.169 E10.40423
G1 X131.097 Y142.267 E10.49131
G1 X128.577 Y141.422 E10.57971
G1 X126.035 Y140.649 E10.66808
G1 X123.49 Y139.953 E10.75584
G1 X120.916 Y139.327 E10.84395
G1 X118.31 Y138.771 E10.93257
G1 X115.747 Y138.3 E11.01925
G1 X113.103 Y137.89 E11.10824
G1 X110.475 Y137.558 E11.19634
G1 X107.851 Y137.303 E11.28402
G1 X105.207 Y137.12 E11.37217
G1 X102.567 Y137.013 E11.46005
G1 X99.889 Y136.98 E11.54913
G1 X97.282 Y137.021 E11.63585
G1 X94.607 Y137.14 E11.72491
G1 X91.973 Y137.331 E11.81275
G1 X89.372 Y137.595 E11.8997
G1 X86.716 Y137.939 E11.98878
G1 X84.116 Y138.352 E12.07634
G1 X81.495 Y138.845 E12.16504
G1 X78.93 Y139.402 E12.25234
G1 X76.376 Y140.032 E12.33984
G1 X73.772 Y140.754 E12.42971
G1 X71.288 Y141.519 E12.51616
G1 X67.942 Y142.672 E12.63387
G1 X66.815 Y143.083 E12.67377
G1 X66.13 Y143.29 E12.69757
G1 X65.427 Y143.42 E12.72135
G1 X64.714 Y143.47 E12.74512
G1 X63.999 Y143.441 E12.76892
G1 X63.292 Y143.332 E12.79271
G1 X62.602 Y143.144 E12.8165
G1 X61.937 Y142.881 E12.84028
G1 X61.305 Y142.546 E12.86408
G1 X60.715 Y142.142 E12.88786
G1 X60.173 Y141.674 E12.91168
G1 X59.688 Y141.149 E12.93545
G1 X59.263 Y140.573 E12.95926
G1 X58.936 Y140.012 E12.98085
G1 X58.463 Y139.098 E13.01508
G1 X58.424 Y139.022 E13.01792
G1 X58.09 Y138.355 E13.04274
G1 X56.834 Y136.015 E13.13107
G1 X55.521 Y133.728 E13.21878
G1 X54.15 Y131.487 E13.30616
G1 X54.026 Y131.297 E13.3137
G1 X53.962 Y131.196 E13.31768
G1 X52.854 Y129.42 E13.3873
G1 X52.799 Y129.329 E13.39084
G1 X52.338 Y128.562 E13.4206
G1 X50.262 Y125.366 E13.54736
G1 X49.535 Y124.294 E13.59044
G1 X49.343 Y123.992 E13.60234
G1 X49.147 Y123.665 E13.61502
G1 X48.814 Y123.032 E13.63881
G1 X48.503 Y122.204 E13.66823
G1 X48.367 Y121.748 E13.68406
G1 X48.201 Y121.052 E13.70785
G1 X48.102 Y120.067 E13.74078
G1 X48.088 Y119.463 E13.76087
G1 X48.111 Y118.748 E13.78467
G1 X48.16 Y118.348 E13.79807
G1 X48.354 Y117.079 E13.84077
G1 X48.373 Y116.959 E13.84481
G1 X48.571 Y115.811 E13.88356
G1 X48.944 Y113.206 E13.97108
G1 X49.242 Y110.603 E14.05822
G1 X49.474 Y107.903 E14.14836
G1 X49.623 Y105.3 E14.23508
G1 X49.7 Y102.658 E14.32299
G1 X49.702 Y100.016 E14.41086
G1 X49.628 Y97.333 E14.50013
G1 X49.482 Y94.704 E14.58771
G1 X49.262 Y92.098 E14.67469
G1 X48.962 Y89.44 E14.76366
G1 X48.586 Y86.79 E14.85268
G1 X48.146 Y84.208 E14.93979
G1 X47.636 Y81.652 E15.02648
G1 X47.033 Y79.028 E15.11603
G1 X46.369 Y76.465 E15.20409
G1 X45.635 Y73.933 E15.29177
G1 X44.816 Y71.378 E15.38101
G1 X44.661 Y70.931 E15.39675
G1 X44.621 Y70.814 E15.40086
G1 X44.487 Y70.401 E15.4153
G1 X44.266 Y69.504 E15.44603
G1 X44.171 Y68.948 E15.46479
G1 X44.091 Y68.237 E15.48859
G1 X44.099 Y67.378 E15.51716
G1 X44.129 Y66.989 E15.53014
G1 X44.224 Y66.28 E15.55393
G1 X44.497 Y65.289 E15.58812
G1 X44.68 Y64.787 E15.60589
G1 X44.962 Y64.13 E15.62967
G1 X45.316 Y63.508 E15.65347
G1 X45.573 Y63.139 E15.66843
G1 X45.693 Y62.979 E15.67508
G1 X45.948 Y62.661 E15.68864
G1 X46.148 Y62.427 E15.69888
G1 X46.642 Y61.91 E15.72266
G1 X47.191 Y61.451 E15.74646
G0 F3600 X47.736 Y61.559
G1 F1800 X48.029 Y61.368 E15.75809
G1 X48.696 Y60.991 E15.78358
G1 X48.903 Y60.891 E15.79122
G1 X49.543 Y60.627 E15.81425
G1 X50.047 Y60.476 E15.83175
G1 X50.424 Y60.381 E15.84468
G1 X51.104 Y60.251 E15.8677
G1 X51.741 Y60.201 E15.88896
G1 X52.385 Y60.185 E15.91038
G1 X52.527 Y60.183 E15.91511
G1 X57.506 Y60.177 E16.08071
G1 X57.592 Y60.178 E16.08357
G1 X58.276 Y60.187 E16.10632
G1 X58.949 Y60.233 E16.12876
G1 X59.218 Y60.267 E16.13778
G1 X59.652 Y60.338 E16.1524
G1 X63.228 Y61.059 E16.27373
G1 X65.823 Y61.505 E16.36131
G1 X68.451 Y61.881 E16.44961
G1 X71.087 Y62.182 E16.53785
G1 X73.752 Y62.411 E16.62682
G1 X76.413 Y62.564 E16.71547
G1 X79.04 Y62.64 E16.80288
G1 X81.706 Y62.642 E16.89155
G1 X84.37 Y62.568 E16.98019
G1 X87.029 Y62.42 E17.06876
G1 X89.692 Y62.195 E17.15765
G1 X92.301 Y61.901 E17.24498
G1 X94.955 Y61.524 E17.33413
G1 X97.595 Y61.074 E17.42321
G1 X100.286 Y60.536 E17.51448
G1 X101.339 Y60.309 E17.55031
G1 X101.867 Y60.219 E17.56812
G1 X102.256 Y60.171 E17.58116
G1 X102.885 Y60.127 E17.60213
G1 X103.45 Y60.117 E17.62093
G1 X103.556 Y60.116 E17.62445
G1 X105.788 Y60.116 E17.69869
G1 X105.873 Y60.117 E17.70152
G1 X106.577 Y60.127 E17.72493
G1 X106.835 Y60.136 E17.73352
G1 X109.593 Y60.294 E17.8254
G1 X112.288 Y60.371 E17.91508
G1 X114.918 Y60.371 E18.00255
G1 X117.584 Y60.296 E18.09126
G1 X120.243 Y60.147 E18.17983
G1 X122.897 Y59.922 E18.26842
G1 X125.556 Y59.62 E18.35743
G1 X128.151 Y59.251 E18.44461
G1 X130.39 Y58.874 E18.52013
G1 X130.474 Y58.861 E18.52295
G1 X131.209 Y58.748 E18.54769
G1 X131.918 Y58.681 E18.57137
G1 X132.272 Y58.669 E18.58315
G1 X132.475 Y58.666 E18.58991
G1 X135.922 Y58.666 E18.70455
G1 X136.008 Y58.667 E18.70741
G1 X136.704 Y58.677 E18.73057
G1 X137.382 Y58.725 E18.75317
G1 X137.647 Y58.759 E18.76206
G1 X137.887 Y58.795 E18.77013
G1 X138.111 Y58.833 E18.77769
G1 X138.464 Y58.903 E18.78966
G1 X141.166 Y59.53 E18.88191
G1 X143.764 Y60.056 E18.97008
G1 X146.376 Y60.506 E19.05823
G1 X149.005 Y60.885 E19.14658
G1 X151.64 Y61.188 E19.23479
G1 X154.305 Y61.419 E19.32377
G1 X156.964 Y61.573 E19.41235
G1 X159.597 Y61.652 E19.49997
G1 X162.259 Y61.656 E19.5885
G1 X164.926 Y61.584 E19.67724
G1 X167.142 Y61.468 E19.75105
G1 X168.36 Y61.389 E19.79164
G1 X169.052 Y61.385 E19.81466
G1 X169.747 Y61.461 E19.83791
G1 X170.143 Y61.528 E19.85127
G1 X170.818 Y61.683 E19.87431
G1 X171.703 Y62.018 E19.90578
G1 X172.059 Y62.186 E19.91887
G1 X172.837 Y62.627 E19.94862
G1 X173.058 Y62.775 E19.95746
G1 X173.56 Y63.151 E19.97832
G1 X173.896 Y63.431 E19.99287
G1 X173.953 Y63.478 E19.99533
G1 X174.915 Y64.3 E20.03741
G1 X175.008 Y64.381 E20.04152
G1 X175.447 Y64.772 E20.06107
G1 X175.936 Y65.262 E20.08409
G1 X176.178 Y65.551 E20.09663
G1 X176.494 Y65.954 E20.11366
G1 X176.889 Y66.522 E20.13667
G1 X177.351 Y67.449 E20.17112
G1 X177.493 Y67.808 E20.18396
G1 X177.711 Y68.466 E20.20702
G1 X177.869 Y69.282 E20.23466
G1 X177.927 Y69.753 E20.25045
G1 X177.972 Y70.444 E20.27348
G1 X177.937 Y71.135 E20.29649
G1 X177.863 Y71.623 E20.31291
G1 X177.744 Y72.239 E20.33377
G1 X177.258 Y74.953 E20.42548
G1 X176.863 Y77.574 E20.51364
G1 X176.626 Y79.456 E20.57673
G1 X176.469 Y80.258 E20.60391
G1 X176.405 Y80.497 E20.61214
G1 X176.357 Y80.667 E20.61801
G1 X176.114 Y81.478 E20.64617
G1 X175.389 Y84.034 E20.73454
G1 X174.738 Y86.6 E20.82259
G1 X174.147 Y89.237 E20.91247
G1 X173.649 Y91.818 E20.9999
G1 X173.217 Y94.438 E21.08822
G1 X172.86 Y97.064 E21.17636
G1 X172.574 Y99.734 E21.26567
G1 X172.367 Y102.365 E21.35345
G1 X172.235 Y104.991 E21.4409
G1 X172.176 Y107.691 E21.53073
G1 X172.193 Y110.356 E21.61937
G1 X172.284 Y112.984 E21.70683
G1 X172.452 Y115.652 E21.79574
G1 X172.693 Y118.298 E21.88411
G1 X173.007 Y120.909 E21.97158
G1 X173.407 Y123.596 E22.06193
G1 X173.866 Y126.178 E22.14916
G1 X174.401 Y128.758 E22.23679
G1 X175.018 Y131.364 E22.32587
G1 X175.709 Y133.953 E22.41499
G1 X176.464 Y136.491 E22.50306
G1 X177.289 Y139.002 E22.59097
G1 X178.201 Y141.534 E22.68048
G1 X179.164 Y143.986 E22.7681
G1 X180.213 Y146.453 E22.85726
G1 X181.311 Y148.843 E22.94474
G1 X182.49 Y151.23 E23.03329
G1 X183.738 Y153.585 E23.12194
G1 X185.049 Y155.9 E23.21042
G1 X186.436 Y158.193 E23.29955
G1 X187.346 Y159.623 E23.35593
G1 X188.779 Y161.829 E23.44342
G1 X188.821 Y161.895 E23.44603
G1 X189.204 Y162.502 E23.4699
G1 X189.62 Y163.282 E23.4993
G1 X189.845 Y163.792 E23.51784
G1 X190.163 Y164.708 E23.55009
G1 X190.268 Y165.113 E23.564
G1 X190.421 Y165.933 E23.59175
G1 X190.472 Y166.376 E23.60658
G1 X190.504 Y166.762 E23.61946
G1 X190.517 Y167.022 E23.62812
G1 X190.483 Y168.019 E23.6613
G1 X190.452 Y168.284 E23.67017
G1 X190.432 Y168.444 E23.67554
G1 X190.388 Y168.749 E23.68579
G1 X190.189 Y169.638 E23.71609
G1 X190.057 Y170.072 E23.73118
G1 X189.688 Y171.001 E23.76442
G1 X189.418 Y171.543 E23.78456
G1 X188.933 Y172.351 E23.81591
G1 X188.789 Y172.553 E23.82416
G1 X188.536 Y172.883 E23.83799
G1 X188.299 Y173.171 E23.85039
G1 X187.693 Y173.806 E23.87959
G1 X187.312 Y174.151 E23.89668
G1 X186.773 Y174.585 E23.9197
G1 X186.413 Y174.823 E23.93405
G1 X185.935 Y175.115 E23.95268
G1 X185.064 Y175.554 E23.98512
G1 X184.692 Y175.705 E23.99848
G1 X183.924 Y175.958 E24.02537
G1 X183.479 Y176.072 E24.04065
G1 X183.101 Y176.156 E24.05353
G1 X182.894 Y176.195 E24.06053
G1 X182.207 Y176.284 E24.08358
G1 X181.841 Y176.299 E24.09576
G1 X181.223 Y176.305 E24.11631
G1 X180.263 Y176.237 E24.14832
G1 X179.875 Y176.178 E24.16138
G1 X179.446 Y176.096 E24.1759
G1 X179.156 Y176.03 E24.1858
G1 X178.238 Y175.742 E24.2178
G1 X178.008 Y175.649 E24.22605
G1 X177.799 Y175.561 E24.23359
G1 X177.505 Y175.429 E24.24431
G1 X176.751 Y175.023 E24.27279
G1 X176.344 Y174.765 E24.28882
G1 X175.556 Y174.169 E24.32168
G1 X175.205 Y173.855 E24.33734
G1 X174.583 Y173.209 E24.36717
G1 X173.997 Y172.501 E24.39774
G1 X173.959 Y172.455 E24.39972
G1 X172.222 Y170.314 E24.49142
G1 X170.478 Y168.284 E24.58044
G1 X168.713 Y166.345 E24.66764
G1 X166.881 Y164.442 E24.7555
G1 X164.979 Y162.576 E24.84412
